; generated by Slic3r 1.2.9 on 2016-05-03 at 15:59:30

; external perimeters extrusion width = 0.40mm
; perimeters extrusion width = 0.67mm
; infill extrusion width = 0.67mm
; solid infill extrusion width = 0.67mm
; top infill extrusion width = 0.67mm

M127
M104 S230 T0 ; set temperature
(**** Start.gcode for Replicator 2 ****)
M103 ;disable RPM
M73 P0 ;enable build progress
G21 ;set units to mm
G90 ;set positioning to absolute
(**** begin homing ****)
G162 X Y F2500 ;home XY axes maximum
G161 Z F1100 ;home Z axis minimum
G92 Z-5 ;set Z to -5
G1 Z0.0 ;move Z to "0"
G161 Z F100 ;home Z axis minimum
M132 X Y Z A B ;Recall stored home offsets for XYZAB axis
(**** end homing ****)
G1 X-141 Y-74 Z75 F3300.0 ;move to waiting position
G130 X20 Y20 Z20 A20 B20 ;Lower stepper Vrefs while heating
M6 T0 ;wait for toolhead, and HBP to reach temperature
M70 P5 (We Be Making Things!)
G130 X127 Y127 Z40 A127 B127 ;Set Stepper motor Vref to defaults
M108 R3.0 T0
G0 X-141 Y-74 ;Position Nozzle
G0 Z1 ;Move above plate
G1 Z0.3 ;Position Height
M108 R5.0 ;Set Extruder Speed
M101 ;Start Extruder
G4 P3000 ;Create Anchor
G1 X-137 Y-70 Z0.1 F1000.0 ;Slow wipe
G0 Z0.3 ;and lift
(**** end of Start.gcode ****)
M73 P0
G1 Z0.300 F9000.000
(**** New Layer ****)
G1 E-2.00000 F1800.00000
M103 ; extruder off
G1 X43.461 Y20.638 F9000.000
M101 ; extruder on
G1 E0.00000 F1800.00000
G1 X33.885 Y40.786 E1.49025 F4320.000
G1 X33.412 Y41.672 E1.55734
G1 X32.671 Y42.881 E1.65210
G1 X32.413 Y43.259 E1.68266
G1 X31.579 Y44.380 E1.77600
G1 X30.699 Y45.404 E1.86620
G1 X30.009 Y46.133 E1.93328
G1 X29.020 Y47.059 E2.02378
G1 X28.624 Y47.397 E2.05860
G1 X27.573 Y48.219 E2.14768
G1 X27.130 Y48.532 E2.18392
G1 X26.029 Y49.245 E2.27157
G1 X25.542 Y49.529 E2.30924
G1 X24.400 Y50.131 E2.39548
G1 X23.870 Y50.380 E2.43456
G1 X23.067 Y50.717 E2.49278
G1 X22.129 Y51.077 E2.55986
G1 X20.643 Y51.540 E2.66386
G1 X-27.455 Y64.428 E5.99043
G1 X-28.758 Y64.706 E6.07944
G1 X-29.535 Y64.818 E6.13185
G1 X-30.523 Y64.896 E6.19807
G1 X-31.239 Y64.912 E6.24592
G1 X-31.670 Y64.898 E6.27473
G1 X-32.297 Y64.865 E6.31671
G1 X-32.942 Y64.802 E6.36001
G1 X-34.055 Y64.616 E6.43535
G1 X-34.621 Y64.490 E6.47409
G1 X-35.168 Y64.338 E6.51201
G1 X-36.250 Y63.981 E6.58817
G1 X-37.410 Y63.477 E6.67261
G1 X-38.037 Y63.158 E6.71964
G1 X-38.956 Y62.606 E6.79125
G1 X-39.484 Y62.251 E6.83372
G1 X-40.382 Y61.550 E6.90988
G1 X-40.812 Y61.179 E6.94779
G1 X-41.231 Y60.778 E6.98655
G1 X-42.004 Y59.957 E7.06188
G1 X-42.414 Y59.455 E7.10518
G1 X-42.790 Y58.952 E7.14716
G1 X-43.041 Y58.601 E7.17597
G1 X-43.425 Y57.996 E7.22382
G1 X-43.909 Y57.131 E7.29004
G1 X-44.247 Y56.423 E7.34245
G1 X-44.597 Y55.569 E7.40412
G1 X-44.784 Y55.048 E7.44111
G1 X-45.613 Y52.429 E7.62463
G1 X-46.415 Y49.501 E7.82743
G1 X-47.098 Y46.543 E8.03024
G1 X-47.658 Y43.559 E8.23304
G1 X-48.097 Y40.556 E8.43585
G1 X-48.412 Y37.536 E8.63866
G1 X-48.604 Y34.506 E8.84147
G1 X-48.673 Y31.435 E9.04669
G1 X-49.739 Y-38.222 E13.70068
G1 X-49.739 Y-54.389 E14.78079
G1 X-49.724 Y-54.852 E14.81169
G1 X-49.686 Y-55.353 E14.84530
G1 X-49.561 Y-56.236 E14.90485
G1 X-49.419 Y-56.849 E14.94687
G1 X-49.239 Y-57.471 E14.99014
G1 X-49.057 Y-57.960 E15.02498
G1 X-48.732 Y-58.706 E15.07937
G1 X-48.393 Y-59.326 E15.12658
G1 X-48.027 Y-59.909 E15.17253
G1 X-47.524 Y-60.572 E15.22816
G1 X-47.197 Y-60.954 E15.26176
G1 X-46.543 Y-61.608 E15.32354
G1 X-46.161 Y-61.936 E15.35714
G1 X-45.497 Y-62.438 E15.41276
G1 X-44.915 Y-62.804 E15.45872
G1 X-44.348 Y-63.117 E15.50200
G1 X-43.873 Y-63.334 E15.53683
G1 X-43.115 Y-63.631 E15.59122
G1 X-42.438 Y-63.830 E15.63842
G1 X-41.824 Y-63.972 E15.68046
G1 X-40.942 Y-64.097 E15.74000
G1 X-39.978 Y-64.151 E15.80449
G1 X1.888 Y-64.151 E18.60141
G1 X2.351 Y-64.135 E18.63232
M101 ; extruder on
G1 X2.852 Y-64.097 E18.66592 F4320.000
G1 X3.677 Y-63.983 E18.72153
G1 X4.348 Y-63.830 E18.76750
G1 X5.026 Y-63.631 E18.81470
G1 X5.784 Y-63.334 E18.86909
G1 X6.258 Y-63.117 E18.90392
G1 X7.125 Y-62.620 E18.97067
G1 X7.805 Y-62.152 E19.02586
G1 X45.837 Y-32.737 E22.23785
G1 X46.351 Y-32.298 E22.28301
G1 X46.754 Y-31.920 E22.31990
G1 X47.361 Y-31.273 E22.37921
G1 X47.714 Y-30.847 E22.41611
G1 X48.235 Y-30.129 E22.47543
G1 X48.531 Y-29.663 E22.51232
G1 X48.959 Y-28.884 E22.57164
G1 X49.194 Y-28.385 E22.60852
G1 X49.521 Y-27.559 E22.66784
G1 X49.692 Y-27.034 E22.70474
G1 X49.913 Y-26.174 E22.76405
G1 X50.016 Y-25.632 E22.80094
G1 X50.123 Y-24.811 E22.85623
G1 X50.163 Y-24.232 E22.89502
G1 X50.180 Y-22.773 E22.99247
G1 X50.179 Y4.901 E24.84127
G1 X49.495 Y7.930 E25.04872
G1 X43.487 Y20.584 E25.98452
G1 X43.003 Y20.354 F9000.000
M101 ; extruder on
G1 X33.403 Y40.552 E27.47849 F4320.000
G1 X32.953 Y41.396 E27.54235
G1 X32.219 Y42.593 E27.63620
G1 X31.466 Y43.646 E27.72266
G1 X30.873 Y44.396 E27.78651
G1 X29.964 Y45.415 E27.87773
G1 X29.640 Y45.744 E27.90860
G1 X28.659 Y46.665 E27.99851
G1 X28.292 Y46.977 E28.03069
G1 X27.247 Y47.794 E28.11929
G1 X26.108 Y48.560 E28.21100
G1 X25.291 Y49.056 E28.27485
G1 X24.153 Y49.656 E28.36081
G1 X23.663 Y49.886 E28.39694
G1 X22.494 Y50.374 E28.48159
G1 X21.968 Y50.566 E28.51903
G1 X20.504 Y51.022 E28.62141
G1 X-27.594 Y63.910 E31.94798
G1 X-28.864 Y64.181 E32.03475
G1 X-29.582 Y64.285 E32.08318
G1 X-30.562 Y64.361 E32.14889
G1 X-31.224 Y64.377 E32.19312
G1 X-31.642 Y64.363 E32.22106
G1 X-32.270 Y64.331 E32.26304
G1 X-32.866 Y64.272 E32.30306
G1 X-33.960 Y64.089 E32.37719
G1 X-34.483 Y63.973 E32.41300
G1 X-35.008 Y63.827 E32.44936
G1 X-36.054 Y63.482 E32.52293
G1 X-37.187 Y62.990 E32.60548
G1 X-37.784 Y62.685 E32.65026
G1 X-38.674 Y62.150 E32.71962
G1 X-39.178 Y61.811 E32.76020
G1 X-40.046 Y61.133 E32.83377
G1 X-40.458 Y60.778 E32.87012
G1 X-40.845 Y60.407 E32.90594
G1 X-41.605 Y59.599 E32.98006
G1 X-41.985 Y59.135 E33.02009
G1 X-42.361 Y58.631 E33.06207
G1 X-42.604 Y58.291 E33.09001
G1 X-42.959 Y57.732 E33.13424
G1 X-43.439 Y56.874 E33.19994
G1 X-43.752 Y56.220 E33.24838
G1 X-44.100 Y55.368 E33.30988
G1 X-44.273 Y54.886 E33.34407
G1 X-45.102 Y52.267 E33.52758
G1 X-45.898 Y49.361 E33.72893
G1 X-46.630 Y46.162 E33.94811
G1 X-47.132 Y43.462 E34.13162
G1 X-47.567 Y40.479 E34.33296
G1 X-47.880 Y37.482 E34.53431
G1 X-48.070 Y34.474 E34.73565
G1 X-48.137 Y31.427 E34.93923
G1 X-49.204 Y-38.222 E39.59268
G1 X-49.204 Y-54.389 E40.67278
G1 X-49.190 Y-54.817 E40.70134
G1 X-49.152 Y-55.311 E40.73448
G1 X-49.035 Y-56.131 E40.78982
G1 X-48.898 Y-56.724 E40.83044
G1 X-48.732 Y-57.299 E40.87043
G1 X-48.562 Y-57.755 E40.90293
G1 X-48.225 Y-58.522 E40.95891
G1 X-47.936 Y-59.046 E40.99890
G1 X-47.581 Y-59.611 E41.04345
G1 X-47.117 Y-60.225 E41.09486
G1 X-46.794 Y-60.601 E41.12800
G1 X-46.190 Y-61.205 E41.18510
G1 X-45.813 Y-61.528 E41.21824
G1 X-45.200 Y-61.993 E41.26964
G1 X-44.635 Y-62.347 E41.31419
G1 X-44.058 Y-62.663 E41.35812
G1 X-43.344 Y-62.974 E41.41016
G1 X-42.888 Y-63.143 E41.44266
G1 X-42.313 Y-63.309 E41.48266
G1 X-41.662 Y-63.458 E41.52722
G1 X-40.900 Y-63.563 E41.57862
G1 X-39.978 Y-63.615 E41.64031
G1 X1.888 Y-63.615 E44.43722
G1 X2.316 Y-63.601 E44.46580
M101 ; extruder on
G1 X2.810 Y-63.563 E44.49892 F4320.000
G1 X3.573 Y-63.458 E44.55032
G1 X4.223 Y-63.309 E44.59489
G1 X4.854 Y-63.124 E44.63881
G1 X5.579 Y-62.839 E44.69086
G1 X6.021 Y-62.637 E44.72335
G1 X6.845 Y-62.164 E44.78682
G1 X7.478 Y-61.728 E44.83812
G1 X45.509 Y-32.313 E48.05011
G1 X45.985 Y-31.907 E48.09186
G1 X46.387 Y-31.530 E48.12874
G1 X46.949 Y-30.931 E48.18356
G1 X47.301 Y-30.506 E48.22046
G1 X47.836 Y-29.758 E48.28189
G1 X48.079 Y-29.376 E48.31216
G1 X48.475 Y-28.656 E48.36699
G1 X48.710 Y-28.157 E48.40388
G1 X49.012 Y-27.394 E48.45870
G1 X49.182 Y-26.869 E48.49559
G1 X49.386 Y-26.074 E48.55042
G1 X49.490 Y-25.531 E48.58731
G1 X49.589 Y-24.773 E48.63840
G1 X49.628 Y-24.196 E48.67705
G1 X49.644 Y-22.773 E48.77212
G1 X49.643 Y4.901 E50.62087
G1 X49.011 Y7.701 E50.81261
G1 X43.028 Y20.300 E51.74440
G1 E49.74440 F1800.00000
M103 ; extruder off
G1 X-3.128 Y-56.240 F9000.000
M101 ; extruder on
G1 E51.74440 F1800.00000
G1 X1.914 Y-56.240 E52.08126 F2160.000
M101 ; extruder on
G1 X2.169 Y-56.220 E52.09831 F2160.000
G1 X2.444 Y-56.155 E52.11720
G1 X2.703 Y-56.051 E52.13585
G1 X2.988 Y-55.879 E52.15807
G1 X3.198 Y-55.699 E52.17657
G1 X3.378 Y-55.489 E52.19506
G1 X3.550 Y-55.204 E52.21729
G1 X3.655 Y-54.943 E52.23609
G1 X3.709 Y-54.720 E52.25142
G1 X3.743 Y-54.351 E52.27616
G1 X3.743 Y-38.254 E53.35156
G1 X3.719 Y-37.945 E53.37220
G1 X3.639 Y-37.623 E53.39442
G1 X3.530 Y-37.366 E53.41307
G1 X3.382 Y-37.126 E53.43191
G1 X3.198 Y-36.912 E53.45074
G1 X2.988 Y-36.732 E53.46924
G1 X2.703 Y-36.560 E53.49146
G1 X2.442 Y-36.455 E53.51027
G1 X2.219 Y-36.401 E53.52559
G1 X1.850 Y-36.367 E53.55033
G1 X-39.946 Y-36.367 E56.34254
G1 X-40.259 Y-36.391 E56.36353
G1 X-40.530 Y-36.455 E56.38210
G1 X-40.840 Y-36.583 E56.40449
G1 X-41.025 Y-36.697 E56.41906
G1 X-41.325 Y-36.955 E56.44548
G1 X-41.467 Y-37.122 E56.46012
G1 X-41.640 Y-37.407 E56.48239
G1 X-41.745 Y-37.668 E56.50120
G1 X-41.799 Y-37.891 E56.51652
G1 X-41.832 Y-38.260 E56.54126
G1 X-41.832 Y-54.357 E57.61666
G1 X-41.808 Y-54.671 E57.63765
G1 X-41.745 Y-54.941 E57.65622
G1 X-41.617 Y-55.251 E57.67860
G1 X-41.503 Y-55.437 E57.69318
G1 X-41.245 Y-55.736 E57.71960
G1 X-41.078 Y-55.879 E57.73423
G1 X-40.793 Y-56.051 E57.75651
G1 X-40.532 Y-56.156 E57.77531
G1 X-40.308 Y-56.210 E57.79064
G1 X-39.940 Y-56.244 E57.81538
G1 X-3.188 Y-56.240 E60.27059
G1 X-3.188 Y-56.776 F9000.000
M101 ; extruder on
G1 X1.935 Y-56.776 E60.61286 F1080.000
M101 ; extruder on
G1 X2.251 Y-56.751 E60.63404 F1080.000
G1 X2.606 Y-56.668 E60.65839
G1 X2.943 Y-56.532 E60.68265
G1 X3.303 Y-56.315 E60.71071
G1 X3.578 Y-56.079 E60.73492
G1 X3.814 Y-55.804 E60.75914
G1 X4.031 Y-55.444 E60.78720
G1 X4.167 Y-55.106 E60.81151
G1 X4.239 Y-54.807 E60.83207
G1 X4.278 Y-54.376 E60.86103
G1 X4.278 Y-38.233 E61.93944
G1 X4.250 Y-37.860 E61.96442
G1 X4.149 Y-37.452 E61.99248
G1 X4.007 Y-37.118 E62.01674
G1 X3.815 Y-36.809 E62.04108
G1 X3.578 Y-36.532 E62.06541
G1 X3.303 Y-36.296 E62.08962
G1 X2.943 Y-36.079 E62.11768
G1 X2.606 Y-35.943 E62.14200
G1 X2.306 Y-35.871 E62.16256
G1 X1.875 Y-35.832 E62.19151
G1 X-39.967 Y-35.832 E64.98674
G1 X-40.341 Y-35.860 E65.01185
G1 X-40.695 Y-35.943 E65.03609
G1 X-41.083 Y-36.104 E65.06420
G1 X-41.342 Y-36.263 E65.08449
G1 X-41.706 Y-36.576 E65.11654
G1 X-41.903 Y-36.807 E65.13685
G1 X-42.120 Y-37.167 E65.16493
G1 X-42.257 Y-37.504 E65.18925
G1 X-42.328 Y-37.804 E65.20980
G1 X-42.368 Y-38.235 E65.23876
G1 X-42.368 Y-54.378 E66.31717
G1 X-42.339 Y-54.753 E66.34228
G1 X-42.257 Y-55.106 E66.36652
G1 X-42.096 Y-55.495 E66.39463
G1 X-41.937 Y-55.754 E66.41492
G1 X-41.624 Y-56.117 E66.44697
G1 X-41.393 Y-56.315 E66.46728
G1 X-41.033 Y-56.532 E66.49536
G1 X-40.695 Y-56.668 E66.51968
G1 X-40.396 Y-56.740 E66.54023
G1 X-39.964 Y-56.779 E66.56919
G1 X-3.248 Y-56.776 E69.02204
G1 X-2.988 Y-56.430 F9000.000
G1 E67.02204 F1800.00000
M103 ; extruder off
G1 X3.147 Y-55.104 F9000.000
M101 ; extruder on
G1 E69.02204 F1800.00000
G1 X2.603 Y-55.648 E69.07391 F4320.000
G1 X1.568 Y-55.918 E69.14614
G1 X3.421 Y-54.065 E69.32302
G1 X3.421 Y-53.300 E69.37465
G1 X0.803 Y-55.918 E69.62456
G1 X0.037 Y-55.918 E69.67620
G1 X3.421 Y-52.535 E69.99913
G1 X3.421 Y-51.769 E70.05076
G1 X-0.728 Y-55.919 E70.44672
G1 X-1.493 Y-55.919 E70.49835
G1 X3.421 Y-51.004 E70.96734
G1 X3.421 Y-50.239 E71.01897
G1 X-2.258 Y-55.919 E71.56097
G1 X-3.023 Y-55.919 E71.61261
G1 X3.421 Y-49.474 E72.22764
G1 X3.421 Y-48.709 E72.27927
G1 X-3.789 Y-55.919 E72.96733
G1 X-4.554 Y-55.919 E73.01896
G1 X3.421 Y-47.944 E73.78004
G1 X3.421 Y-47.179 E73.83167
G1 X-5.319 Y-55.919 E74.66578
G1 X-6.084 Y-55.919 E74.71741
G1 X3.421 Y-46.413 E75.62454
G1 X3.421 Y-45.648 E75.67617
G1 X-6.850 Y-55.919 E76.65633
G1 X-7.615 Y-55.919 E76.70796
G1 X3.421 Y-44.883 E77.76114
G1 X3.421 Y-44.118 E77.81277
G1 X-8.380 Y-55.919 E78.93897
G1 X-9.145 Y-55.919 E78.99061
G1 X3.421 Y-43.353 E80.18983
G1 X3.421 Y-42.588 E80.24147
G1 X-9.910 Y-55.919 E81.51372
G1 X-10.676 Y-55.919 E81.56535
G1 X3.421 Y-41.823 E82.91063
G1 X3.421 Y-41.058 E82.96226
G1 X-11.441 Y-55.920 E84.38056
G1 X-12.206 Y-55.920 E84.43219
G1 X3.421 Y-40.292 E85.92352
G1 X3.421 Y-39.527 E85.97515
G1 X-12.971 Y-55.920 E87.53950
G1 X-13.736 Y-55.920 E87.59113
G1 X3.421 Y-38.762 E89.22851
G1 X3.410 Y-38.008 E89.27937
G1 X-14.502 Y-55.920 E90.98868
G1 X-15.267 Y-55.920 E91.04032
G1 X3.235 Y-37.418 E92.80595
G1 X2.878 Y-37.010 E92.84254
G1 X-16.032 Y-55.920 E94.64712
G1 X-16.797 Y-55.920 E94.69875
G1 X2.377 Y-36.746 E96.52858
G1 X1.669 Y-36.689 E96.57652
G1 X-17.562 Y-55.920 E98.41180
G1 X-18.328 Y-55.920 E98.46343
G1 X0.904 Y-36.689 E100.29871
G1 X0.139 Y-36.689 E100.35034
G1 X-19.093 Y-55.920 E102.18563
G1 X-19.858 Y-55.920 E102.23727
G1 X-0.626 Y-36.689 E104.07256
G1 X-1.392 Y-36.689 E104.12419
G1 X-20.623 Y-55.920 E105.95949
G1 X-21.388 Y-55.920 E106.01113
G1 X-2.157 Y-36.689 E107.84643
G1 X-2.922 Y-36.689 E107.89807
G1 X-22.154 Y-55.921 E109.73338
G1 X-22.919 Y-55.921 E109.78501
G1 X-3.687 Y-36.689 E111.62033
G1 X-4.452 Y-36.689 E111.67197
G1 X-23.684 Y-55.921 E113.50729
G1 X-24.449 Y-55.921 E113.55893
G1 X-5.217 Y-36.689 E115.39426
G1 X-5.982 Y-36.689 E115.44589
G1 X-25.214 Y-55.921 E117.28123
G1 X-25.980 Y-55.921 E117.33287
G1 X-6.747 Y-36.689 E119.16822
G1 X-7.513 Y-36.689 E119.21985
G1 X-26.745 Y-55.921 E121.05520
G1 X-27.510 Y-55.921 E121.10684
G1 X-8.278 Y-36.689 E122.94220
G1 X-9.043 Y-36.689 E122.99383
G1 X-28.275 Y-55.921 E124.82920
G1 X-29.040 Y-55.921 E124.88083
G1 X-9.808 Y-36.689 E126.71621
G1 X-10.573 Y-36.689 E126.76784
G1 X-29.806 Y-55.921 E128.60322
G1 X-30.571 Y-55.921 E128.65485
G1 X-11.338 Y-36.689 E130.49024
G1 X-12.103 Y-36.689 E130.54187
G1 X-31.336 Y-55.921 E132.37727
G1 X-32.101 Y-55.921 E132.42890
G1 X-12.869 Y-36.689 E134.26430
G1 X-13.634 Y-36.689 E134.31593
G1 X-32.866 Y-55.921 E136.15134
G1 X-33.632 Y-55.922 E136.20298
G1 X-14.399 Y-36.689 E138.03839
G1 X-15.164 Y-36.689 E138.09002
G1 X-34.397 Y-55.922 E139.92544
G1 X-35.162 Y-55.922 E139.97708
G1 X-15.929 Y-36.689 E141.81251
G1 X-16.694 Y-36.689 E141.86414
G1 X-35.927 Y-55.922 E143.69957
G1 X-36.692 Y-55.922 E143.75121
G1 X-17.459 Y-36.689 E145.58665
G1 X-18.224 Y-36.689 E145.63828
G1 X-37.458 Y-55.922 E147.47373
G1 X-38.223 Y-55.922 E147.52536
G1 X-18.990 Y-36.689 E149.36082
G1 X-19.755 Y-36.689 E149.41245
G1 X-38.988 Y-55.922 E151.24791
G1 X-39.753 Y-55.922 E151.29954
G1 X-20.520 Y-36.689 E153.13501
G1 X-21.285 Y-36.689 E153.18664
G1 X-40.462 Y-55.866 E155.01678
G1 X-40.962 Y-55.601 E155.05495
G1 X-22.050 Y-36.689 E156.85974
G1 X-22.815 Y-36.689 E156.91137
G1 X-41.323 Y-55.196 E158.67759
G1 X-41.499 Y-54.607 E158.71907
G1 X-23.580 Y-36.689 E160.42908
G1 X-24.346 Y-36.689 E160.48071
G1 X-41.511 Y-53.854 E162.11882
G1 X-41.511 Y-53.089 E162.17045
G1 X-25.111 Y-36.689 E163.73555
G1 X-25.876 Y-36.689 E163.78718
G1 X-41.511 Y-52.324 E165.27925
G1 X-41.511 Y-51.559 E165.33089
G1 X-26.641 Y-36.689 E166.74995
G1 X-27.406 Y-36.689 E166.80158
G1 X-41.511 Y-50.794 E168.14762
G1 X-41.511 Y-50.028 E168.19925
G1 X-28.171 Y-36.689 E169.47227
G1 X-28.936 Y-36.689 E169.52391
G1 X-41.511 Y-49.263 E170.72391
G1 X-41.511 Y-48.498 E170.77554
G1 X-29.701 Y-36.689 E171.90253
G1 X-30.467 Y-36.689 E171.95416
G1 X-41.511 Y-47.733 E173.00813
G1 X-41.511 Y-46.968 E173.05976
G1 X-31.232 Y-36.689 E174.04072
G1 X-31.997 Y-36.689 E174.09235
G1 X-41.511 Y-46.203 E175.00028
G1 X-41.511 Y-45.438 E175.05192
G1 X-32.762 Y-36.689 E175.88683
G1 X-33.527 Y-36.689 E175.93846
G1 X-41.511 Y-44.673 E176.70036
G1 X-41.511 Y-43.907 E176.75199
G1 X-34.292 Y-36.689 E177.44088
G1 X-35.057 Y-36.689 E177.49251
G1 X-41.511 Y-43.142 E178.10837
G1 X-41.511 Y-42.377 E178.16000
G1 X-35.823 Y-36.689 E178.70285
G1 X-36.588 Y-36.689 E178.75448
G1 X-41.511 Y-41.612 E179.22431
G1 X-41.511 Y-40.847 E179.27594
G1 X-37.353 Y-36.689 E179.67275
G1 X-38.118 Y-36.689 E179.72438
G1 X-41.511 Y-40.082 E180.04818
G1 X-41.511 Y-39.317 E180.09981
G1 X-38.883 Y-36.689 E180.35059
G1 X-39.648 Y-36.689 E180.40222
G1 X-41.511 Y-38.551 E180.57997
G1 X-41.245 Y-37.520 E180.65185
G1 X-40.698 Y-36.973 E180.70406
M73 P0
