; generated by Slic3r 1.2.9 on 2016-04-28 at 00:15:21

; external perimeters extrusion width = 0.40mm
; perimeters extrusion width = 0.67mm
; infill extrusion width = 0.67mm
; solid infill extrusion width = 0.67mm
; top infill extrusion width = 0.67mm

M127
M104 S230 T0 ; set temperature
(**** Start.gcode for Replicator 2 ****)
M103 ;disable RPM
M73 P0 ;enable build progress
G21 ;set units to mm
G90 ;set positioning to absolute
(**** begin homing ****)
G162 X Y F2500 ;home XY axes maximum
G161 Z F1100 ;home Z axis minimum
G92 Z-5 ;set Z to -5
G1 Z0.0 ;move Z to "0"
G161 Z F100 ;home Z axis minimum
M132 X Y Z A B ;Recall stored home offsets for XYZAB axis
(**** end homing ****)
G1 X-141 Y-74 Z75 F3300.0 ;move to waiting position
G130 X20 Y20 Z20 A20 B20 ;Lower stepper Vrefs while heating
M6 T0 ;wait for toolhead, and HBP to reach temperature
M70 P5 (We Be Making Things!)
G130 X127 Y127 Z40 A127 B127 ;Set Stepper motor Vref to defaults
M108 R3.0 T0
G0 X-141 Y-74 ;Position Nozzle
G0 Z1 ;Move above plate
G1 Z0.3 ;Position Height
M108 R5.0 ;Set Extruder Speed
M101 ;Start Extruder
G4 P3000 ;Create Anchor
G1 X-137 Y-70 Z0.1 F1000.0 ;Slow wipe
G0 Z0.3 ;and lift
(**** end of Start.gcode ****)
M73 P0
G1 Z0.300 F9000.000
(**** New Layer ****)
G1 E-2.00000 F1800.00000
M103 ; extruder off
G1 X-32.083 Y-47.349 F9000.000
M101 ; extruder on
G1 E0.00000 F1800.00000
G1 X-10.738 Y-61.811 E1.72244 F4320.000
G1 X-9.614 Y-62.555 E1.81248
G1 X-8.876 Y-62.973 E1.86913
G1 X-7.543 Y-63.617 E1.96806
G1 X-6.912 Y-63.866 E2.01332
G1 X-5.976 Y-64.184 E2.07941
G1 X-5.575 Y-64.312 E2.10749
G1 X-4.850 Y-64.497 E2.15751
G1 X-3.536 Y-64.754 E2.24692
G1 X-2.723 Y-64.855 E2.30170
G1 X-1.031 Y-64.950 E2.41491
G1 X45.436 Y-64.950 E5.51911
G1 X45.863 Y-64.937 E5.54765
M101 ; extruder on
G1 X47.124 Y-64.855 E5.63212 F4320.000
G1 X47.937 Y-64.755 E5.68679
G1 X49.247 Y-64.499 E5.77601
G1 X49.972 Y-64.314 E5.82594
G1 X50.371 Y-64.187 E5.85396
G1 X51.306 Y-63.870 E5.91992
G1 X51.935 Y-63.622 E5.96509
G1 X53.267 Y-62.980 E6.06382
G1 X53.797 Y-62.690 E6.10425
G1 X54.274 Y-62.393 E6.14178
G1 X55.095 Y-61.844 E6.20774
G1 X55.528 Y-61.531 E6.24341
G1 X56.019 Y-61.132 E6.28569
G1 X56.762 Y-60.481 E6.35165
G1 X57.099 Y-60.165 E6.38257
G1 X57.586 Y-59.656 E6.42960
G1 X58.237 Y-58.914 E6.49556
G1 X58.636 Y-58.423 E6.53785
G1 X58.949 Y-57.990 E6.57352
G1 X59.498 Y-57.169 E6.63948
G1 X59.795 Y-56.692 E6.67701
G1 X60.085 Y-56.161 E6.71743
G1 X60.727 Y-54.830 E6.81616
G1 X60.975 Y-54.201 E6.86134
G1 X61.292 Y-53.266 E6.92730
G1 X61.419 Y-52.866 E6.95532
G1 X61.604 Y-52.142 E7.00524
G1 X61.860 Y-50.831 E7.09447
G1 X74.601 Y49.117 E13.82557
G1 X74.657 Y50.010 E13.88538
G1 X74.657 Y57.835 E14.40809
G1 X74.260 Y60.171 E14.56642
G1 X73.113 Y62.245 E14.72475
G1 X71.346 Y63.824 E14.88308
G1 X69.155 Y64.729 E15.04141
G1 X67.592 Y64.906 E15.14654
G1 X11.798 Y64.950 E18.87384
G1 X-14.348 Y64.911 E20.62056
G1 X-15.041 Y64.876 E20.66688
G1 X-16.332 Y64.713 E20.75381
G1 X-69.502 Y54.741 E24.36780
G1 X-71.725 Y53.920 E24.52613
G1 X-73.552 Y52.410 E24.68446
G1 X-74.778 Y50.381 E24.84279
G1 X-75.269 Y47.791 E25.01897
G1 X-75.269 Y41.405 E25.44553
G1 X-75.094 Y39.840 E25.55080
G1 X-60.551 Y-24.198 E29.93776
G1 X-60.367 Y-24.925 E29.98788
G1 X-60.093 Y-25.770 E30.04721
G1 X-59.890 Y-26.283 E30.08409
G1 X-59.511 Y-27.087 E30.14342
G1 X-59.245 Y-27.570 E30.18030
G1 X-58.770 Y-28.320 E30.23962
G1 X-58.445 Y-28.767 E30.27651
G1 X-57.879 Y-29.451 E30.33584
G1 X-57.501 Y-29.854 E30.37272
G1 X-56.854 Y-30.461 E30.43205
G1 X-56.428 Y-30.813 E30.46893
G1 X-55.888 Y-31.219 E30.51409
G1 X-32.132 Y-47.315 E32.43107
G1 X-31.832 Y-46.872 F9000.000
M101 ; extruder on
G1 X-10.437 Y-61.368 E34.15752 F4320.000
G1 X-9.337 Y-62.097 E34.24574
G1 X-8.638 Y-62.492 E34.29933
G1 X-7.322 Y-63.129 E34.39699
G1 X-6.740 Y-63.359 E34.43882
G1 X-5.803 Y-63.677 E34.50491
G1 X-5.416 Y-63.800 E34.53209
G1 X-4.745 Y-63.971 E34.57832
G1 X-3.440 Y-64.227 E34.66719
G1 X-2.688 Y-64.321 E34.71782
G1 X-1.031 Y-64.414 E34.82869
G1 X45.830 Y-64.402 E37.95925
M101 ; extruder on
G1 X47.089 Y-64.321 E38.04354 F4320.000
G1 X47.840 Y-64.228 E38.09407
G1 X49.143 Y-63.973 E38.18275
G1 X49.812 Y-63.803 E38.22890
G1 X50.199 Y-63.680 E38.25602
G1 X51.134 Y-63.363 E38.32198
G1 X51.716 Y-63.134 E38.36373
G1 X53.030 Y-62.500 E38.46120
G1 X53.520 Y-62.231 E38.49856
G1 X53.977 Y-61.947 E38.53447
G1 X55.197 Y-61.109 E38.63338
G1 X55.666 Y-60.730 E38.67369
G1 X56.408 Y-60.079 E38.73964
G1 X56.721 Y-59.786 E38.76822
G1 X57.184 Y-59.303 E38.81292
G1 X57.835 Y-58.561 E38.87888
G1 X58.215 Y-58.092 E38.91918
G1 X59.053 Y-56.872 E39.01809
G1 X59.336 Y-56.415 E39.05401
G1 X59.605 Y-55.925 E39.09136
G1 X60.239 Y-54.611 E39.18883
G1 X60.468 Y-54.029 E39.23058
G1 X60.785 Y-53.094 E39.29654
G1 X60.908 Y-52.707 E39.32367
G1 X61.078 Y-52.038 E39.36980
G1 X61.333 Y-50.735 E39.45850
G1 X74.069 Y49.184 E46.18765
G1 X74.122 Y50.010 E46.24292
G1 X74.122 Y57.835 E46.76564
G1 X73.725 Y60.077 E46.91781
G1 X72.582 Y62.048 E47.06998
G1 X70.833 Y63.507 E47.22215
G1 X67.591 Y64.370 E47.44625
G1 X11.798 Y64.414 E51.17355
G1 X-14.347 Y64.376 E52.92019
G1 X-14.987 Y64.343 E52.96300
G1 X-16.233 Y64.187 E53.04686
G1 X-69.403 Y54.214 E56.66085
G1 X-71.534 Y53.411 E56.81302
G1 X-73.260 Y51.924 E56.96519
G1 X-74.372 Y49.936 E57.11737
G1 X-74.734 Y47.791 E57.26271
G1 X-74.734 Y41.405 E57.68927
G1 X-74.571 Y39.958 E57.78657
G1 X-60.029 Y-24.079 E62.17353
G1 X-59.848 Y-24.792 E62.22265
G1 X-59.595 Y-25.572 E62.27748
G1 X-59.392 Y-26.086 E62.31437
G1 X-59.042 Y-26.828 E62.36920
G1 X-58.776 Y-27.312 E62.40608
G1 X-58.336 Y-28.005 E62.46091
G1 X-58.012 Y-28.452 E62.49780
G1 X-57.489 Y-29.084 E62.55263
G1 X-57.111 Y-29.487 E62.58952
G1 X-56.512 Y-30.049 E62.64434
G1 X-56.087 Y-30.401 E62.68123
G1 X-55.587 Y-30.775 E62.72297
G1 X-31.881 Y-46.838 E64.63594
G1 E62.63594 F1800.00000
M103 ; extruder off
G1 X-31.881 Y-21.405 F9000.000
M101 ; extruder on
G1 E64.63594 F1800.00000
G1 X-26.167 Y-21.405 E65.01768 F1080.000
G1 X-26.167 Y22.075 E67.92237
G1 X-48.934 Y22.075 E69.44329
G1 X-48.934 Y-21.405 E72.34799
M101 ; extruder on
G1 X-31.941 Y-21.405 E73.48315 F1080.000
G1 X-31.681 Y-21.751 F9000.000
G1 E71.48315 F1800.00000
M103 ; extruder off
G1 X-52.901 Y-5.460 F9000.000
M101 ; extruder on
G1 E73.48315 F1800.00000
G1 X-52.901 Y-21.790 E74.57412 F2160.000
G1 X-52.891 Y-22.014 E74.58907
G1 X-52.833 Y-22.475 E74.62011
G1 X-52.722 Y-22.908 E74.64997
G1 X-52.557 Y-23.323 E74.67983
G1 X-52.342 Y-23.715 E74.70969
G1 X-52.079 Y-24.077 E74.73955
G1 X-51.773 Y-24.403 E74.76941
G1 X-51.429 Y-24.688 E74.79928
G1 X-51.051 Y-24.927 E74.82914
G1 X-50.647 Y-25.117 E74.85900
G1 X-50.222 Y-25.255 E74.88886
G1 X-49.781 Y-25.340 E74.91887
G1 X-49.308 Y-25.372 E74.95050
G1 X-44.181 Y-25.372 E75.29302
G1 X-44.477 Y-24.782 E75.33709
M101 ; extruder on
G1 X-44.600 Y-24.261 E75.37286 F2160.000
G1 X-44.598 Y-23.727 E75.40856
G1 X-44.474 Y-23.207 E75.44426
G1 X-44.233 Y-22.731 E75.47990
G1 X-43.895 Y-22.328 E75.51502
G1 X-43.671 Y-22.160 E75.53373
G1 X-43.744 Y-21.940 E75.54921
G1 X-49.469 Y-21.940 E75.93166
G1 X-49.469 Y22.611 E78.90792
G1 X-43.744 Y22.611 E79.29040
G1 X-43.671 Y22.831 E79.30590
G1 X-43.896 Y22.998 E79.32460
G1 X-44.238 Y23.408 E79.36030
G1 X-44.474 Y23.878 E79.39543
G1 X-44.598 Y24.397 E79.43107
G1 X-44.600 Y24.932 E79.46677
G1 X-44.478 Y25.452 E79.50247
G1 X-44.183 Y26.042 E79.54657
G1 X-49.308 Y26.042 E79.88898
G1 X-49.781 Y26.010 E79.92062
G1 X-50.222 Y25.926 E79.95063
G1 X-50.647 Y25.788 E79.98049
G1 X-51.051 Y25.597 E80.01035
G1 X-51.429 Y25.358 E80.04021
G1 X-51.773 Y25.073 E80.07007
G1 X-52.079 Y24.747 E80.09993
G1 X-52.342 Y24.386 E80.12980
G1 X-52.557 Y23.994 E80.15966
G1 X-52.722 Y23.578 E80.18952
G1 X-52.833 Y23.145 E80.21938
G1 X-52.891 Y22.684 E80.25042
G1 X-52.901 Y22.461 E80.26537
G1 X-52.901 Y-5.400 E82.12661
G1 E80.12661 F1800.00000
M103 ; extruder off
G1 X-34.771 Y-25.144 F9000.000
M101 ; extruder on
G1 E82.12661 F1800.00000
G1 X-34.949 Y-24.791 E82.15304 F1620.000
M101 ; extruder on
G1 X-35.074 Y-24.271 E82.18880 F1620.000
G1 X-35.074 Y-23.728 E82.22508
G1 X-34.949 Y-23.208 E82.26078
G1 X-34.713 Y-22.738 E82.29591
G1 X-34.371 Y-22.329 E82.33154
G1 X-34.146 Y-22.160 E82.35031
G1 X-34.219 Y-21.940 E82.36580
G1 X-41.166 Y-21.940 E82.82985
G1 X-40.552 Y-22.516 E82.88605
G1 X-40.254 Y-22.970 E82.92232
G1 X-40.072 Y-23.473 E82.95809
G1 X-40.011 Y-24.003 E82.99372
G1 X-40.072 Y-24.526 E83.02885
G1 X-40.254 Y-25.027 E83.06449
G1 X-40.479 Y-25.372 E83.09200
G1 X-34.656 Y-25.372 E83.48104
G1 X-34.744 Y-25.198 E83.49406
G1 E81.49406 F1800.00000
M103 ; extruder off
G1 X-24.431 Y-4.872 F9000.000
M101 ; extruder on
G1 E83.49406 F1800.00000
G1 X-24.055 Y-5.035 E83.52140 F1620.000
M101 ; extruder on
G1 X-23.652 Y-5.107 E83.54876 F1620.000
G1 X-23.236 Y-5.083 E83.57662
G1 X-22.844 Y-4.965 E83.60398
G1 X-22.490 Y-4.759 E83.63132
G1 X-22.193 Y-4.477 E83.65866
G1 X-21.969 Y-4.135 E83.68597
G1 X-21.832 Y-3.758 E83.71278
G1 X-21.784 Y-3.352 E83.74011
G1 X-21.832 Y-2.938 E83.76798
G1 X-21.973 Y-2.553 E83.79534
G1 X-22.199 Y-2.212 E83.82267
G1 X-22.497 Y-1.932 E83.84998
G1 X-22.845 Y-1.731 E83.87682
G1 X-23.244 Y-1.612 E83.90466
G1 X-23.653 Y-1.589 E83.93202
G1 X-24.055 Y-1.661 E83.95935
G1 X-24.430 Y-1.824 E83.98666
G1 X-24.753 Y-2.064 E84.01350
G1 X-25.021 Y-2.383 E84.04134
G1 X-25.203 Y-2.749 E84.06870
G1 X-25.297 Y-3.148 E84.09603
G1 X-25.296 Y-3.557 E84.12334
G1 X-25.203 Y-3.947 E84.15018
G1 X-25.016 Y-4.319 E84.17799
G1 X-24.758 Y-4.627 E84.20483
G1 X-24.479 Y-4.836 E84.22813
G1 X-24.416 Y-5.272 F9000.000
G1 E82.22813 F1800.00000
M103 ; extruder off
G1 X-25.632 Y-19.499 F9000.000
M101 ; extruder on
G1 E84.22813 F1800.00000
G1 X-25.632 Y-21.940 E84.39125 F2160.000
G1 X-31.641 Y-21.940 E84.79269
G1 X-31.027 Y-22.516 E84.84889
G1 X-30.729 Y-22.970 E84.88516
G1 X-30.547 Y-23.473 E84.92093
G1 X-30.486 Y-24.004 E84.95663
G1 X-30.549 Y-24.534 E84.99226
G1 X-30.729 Y-25.028 E85.02739
G1 X-30.954 Y-25.372 E85.05483
G1 X-21.520 Y-25.372 E85.68511
G1 X-21.520 Y-4.577 E87.07431
M101 ; extruder on
G1 X-22.167 Y-5.191 E87.13389 F2160.000
G1 X-22.629 Y-5.459 E87.16960
G1 X-23.142 Y-5.614 E87.20537
G1 X-23.684 Y-5.646 E87.24168
G1 X-24.211 Y-5.551 E87.27745
G1 X-24.702 Y-5.338 E87.31315
G1 X-25.129 Y-5.019 E87.34878
G1 X-25.632 Y-4.419 E87.40106
G1 X-25.632 Y-19.439 E88.40443
G1 E86.40443 F1800.00000
M103 ; extruder off
G1 X-25.632 Y8.215 F9000.000
M101 ; extruder on
G1 E88.40443 F1800.00000
G1 X-25.632 Y-2.278 E89.10540 F2160.000
G1 X-25.123 Y-1.671 E89.15829
M101 ; extruder on
G1 X-24.701 Y-1.357 E89.19345 F2160.000
G1 X-24.211 Y-1.145 E89.22908
G1 X-23.685 Y-1.051 E89.26478
G1 X-23.151 Y-1.080 E89.30055
G1 X-22.631 Y-1.236 E89.33680
G1 X-22.175 Y-1.499 E89.37195
G1 X-21.520 Y-2.115 E89.43202
G1 X-21.520 Y16.025 E90.64386
G1 X-22.168 Y15.411 E90.70351
G1 X-22.638 Y15.139 E90.73983
G1 X-23.152 Y14.987 E90.77560
G1 X-23.685 Y14.957 E90.81130
G1 X-24.211 Y15.051 E90.84700
G1 X-24.702 Y15.264 E90.88270
G1 X-25.129 Y15.584 E90.91833
G1 X-25.632 Y16.183 E90.97061
G1 X-25.632 Y8.275 E91.49891
G1 E89.49891 F1800.00000
M103 ; extruder off
G1 X-24.055 Y15.567 F9000.000
M101 ; extruder on
G1 E91.49891 F1800.00000
G1 X-23.653 Y15.495 E91.52625 F1620.000
G1 X-23.244 Y15.518 E91.55359
G1 X-22.851 Y15.635 E91.58095
G1 X-22.490 Y15.843 E91.60881
G1 X-22.193 Y16.125 E91.63617
G1 X-21.969 Y16.467 E91.66348
G1 X-21.832 Y16.844 E91.69029
G1 X-21.784 Y17.250 E91.71763
G1 X-21.832 Y17.665 E91.74549
G1 X-21.973 Y18.049 E91.77285
G1 X-22.198 Y18.390 E91.80016
G1 X-22.490 Y18.666 E91.82697
G1 X-22.844 Y18.871 E91.85431
G1 X-23.244 Y18.991 E91.88217
G1 X-23.652 Y19.013 E91.90951
G1 X-24.048 Y18.944 E91.93632
G1 X-24.423 Y18.783 E91.96363
G1 X-24.752 Y18.539 E91.99099
G1 X-25.021 Y18.220 E92.01885
G1 X-25.203 Y17.853 E92.04621
G1 X-25.297 Y17.455 E92.07355
G1 X-25.296 Y17.046 E92.10086
G1 X-25.203 Y16.655 E92.12769
G1 X-25.016 Y16.283 E92.15551
G1 X-24.758 Y15.975 E92.18234
G1 X-24.431 Y15.730 E92.20965
G1 X-24.111 Y15.591 E92.23298
G1 X-23.949 Y15.182 F9000.000
G1 E90.23298 F1800.00000
M103 ; extruder off
G1 X-25.632 Y19.482 F9000.000
M101 ; extruder on
G1 E92.23298 F1800.00000
G1 X-25.632 Y18.324 E92.31028 F1620.000
G1 X-25.122 Y18.932 E92.36324
M101 ; extruder on
G1 X-24.692 Y19.250 E92.39901 F1620.000
G1 X-24.202 Y19.460 E92.43464
G1 X-23.684 Y19.552 E92.46973
G1 X-23.151 Y19.522 E92.50543
G1 X-22.630 Y19.366 E92.54174
G1 X-22.168 Y19.098 E92.57745
G1 X-21.520 Y18.486 E92.63697
G1 X-21.520 Y26.042 E93.14177
G1 X-30.954 Y26.042 E93.77204
G1 X-30.733 Y25.706 E93.79891
G1 X-30.549 Y25.205 E93.83461
G1 X-30.486 Y24.665 E93.87088
G1 X-30.549 Y24.135 E93.90658
G1 X-30.729 Y23.641 E93.94171
G1 X-31.021 Y23.194 E93.97735
G1 X-31.637 Y22.611 E94.03399
G1 X-25.632 Y22.611 E94.43518
G1 X-25.632 Y19.542 E94.64022
G1 E92.64022 F1800.00000
M103 ; extruder off
G1 X-35.902 Y22.611 F9000.000
M101 ; extruder on
G1 E94.64022 F1800.00000
G1 X-34.220 Y22.611 E94.75254 F1620.000
G1 X-34.147 Y22.831 E94.76804
M101 ; extruder on
G1 X-34.364 Y22.993 E94.78610 F1620.000
G1 X-34.708 Y23.400 E94.82174
G1 X-34.949 Y23.877 E94.85744
G1 X-35.074 Y24.398 E94.89320
G1 X-35.074 Y24.941 E94.92948
G1 X-34.949 Y25.461 E94.96518
G1 X-34.657 Y26.042 E95.00865
G1 X-40.479 Y26.042 E95.39760
G1 X-40.258 Y25.706 E95.42447
G1 X-40.074 Y25.205 E95.46017
G1 X-40.011 Y24.666 E95.49638
G1 X-40.072 Y24.143 E95.53157
G1 X-40.254 Y23.641 E95.56721
G1 X-40.546 Y23.194 E95.60291
G1 X-41.162 Y22.611 E95.65956
G1 X-35.962 Y22.611 E96.00697
G1 E94.00697 F1800.00000
M103 ; extruder off
G1 X-34.258 Y23.698 F9000.000
M101 ; extruder on
G1 E96.00697 F1800.00000
G1 X-34.443 Y24.063 E96.03430 F1080.000
G1 X-34.538 Y24.461 E96.06166
G1 X-34.538 Y24.878 E96.08949
G1 X-34.443 Y25.276 E96.11682
G1 X-34.262 Y25.635 E96.14367
G1 X-34.000 Y25.949 E96.17098
G1 X-33.672 Y26.194 E96.19834
G1 X-33.377 Y26.322 E96.21986
G1 X-33.429 Y26.578 E96.23735
G1 X-41.642 Y26.578 E96.78600
G1 X-41.706 Y26.339 E96.80250
G1 X-41.263 Y26.085 E96.83657
G1 X-40.961 Y25.800 E96.86437
G1 X-40.740 Y25.464 E96.89124
G1 X-40.599 Y25.080 E96.91858
G1 X-40.551 Y24.666 E96.94638
G1 X-40.597 Y24.267 E96.97325
G1 X-40.736 Y23.882 E97.00056
G1 X-40.960 Y23.540 E97.02790
G1 X-41.257 Y23.258 E97.05523
G1 X-41.611 Y23.053 E97.08257
G1 X-42.003 Y22.935 E97.10993
G1 X-42.419 Y22.910 E97.13773
G1 X-42.815 Y22.980 E97.16460
G1 X-43.191 Y23.141 E97.19194
G1 X-43.525 Y23.390 E97.21976
G1 X-43.787 Y23.704 E97.24710
G1 X-43.968 Y24.063 E97.27395
G1 X-44.063 Y24.461 E97.30126
G1 X-44.064 Y24.870 E97.32860
G1 X-43.970 Y25.269 E97.35593
G1 X-43.787 Y25.635 E97.38329
G1 X-43.520 Y25.954 E97.41112
G1 X-43.191 Y26.198 E97.43848
G1 X-42.903 Y26.321 E97.45940
G1 X-42.955 Y26.578 E97.47691
G1 X-49.326 Y26.578 E97.90254
G1 X-49.849 Y26.542 E97.93755
G1 X-50.355 Y26.446 E97.97196
G1 X-50.845 Y26.287 E98.00633
G1 X-51.310 Y26.068 E98.04069
G1 X-51.744 Y25.792 E98.07505
G1 X-52.141 Y25.464 E98.10942
G1 X-52.493 Y25.089 E98.14378
G1 X-52.795 Y24.673 E98.17814
G1 X-53.043 Y24.222 E98.21251
G1 X-53.232 Y23.744 E98.24687
G1 X-53.360 Y23.246 E98.28124
G1 X-53.425 Y22.729 E98.31602
G1 X-53.436 Y22.472 E98.33322
G1 X-53.436 Y-21.802 E101.29094
G1 X-53.425 Y-22.059 E101.30814
G1 X-53.360 Y-22.575 E101.34293
G1 X-53.232 Y-23.074 E101.37729
G1 X-53.043 Y-23.552 E101.41166
G1 X-52.795 Y-24.003 E101.44602
G1 X-52.493 Y-24.419 E101.48039
G1 X-52.141 Y-24.794 E101.51475
G1 X-51.744 Y-25.122 E101.54911
G1 X-51.310 Y-25.397 E101.58348
G1 X-50.845 Y-25.616 E101.61784
G1 X-50.355 Y-25.775 E101.65220
G1 X-49.849 Y-25.872 E101.68662
G1 X-49.326 Y-25.908 E101.72163
G1 X-42.956 Y-25.908 E102.14719
G1 X-42.903 Y-25.651 E102.16468
M101 ; extruder on
G1 X-43.191 Y-25.527 E102.18559 F1080.000
G1 X-43.519 Y-25.284 E102.21290
G1 X-43.783 Y-24.971 E102.24026
G1 X-43.970 Y-24.598 E102.26808
G1 X-44.064 Y-24.200 E102.29544
G1 X-44.063 Y-23.791 E102.32278
G1 X-43.968 Y-23.393 E102.35012
G1 X-43.783 Y-23.028 E102.37743
G1 X-43.525 Y-22.720 E102.40428
G1 X-43.197 Y-22.475 E102.43161
G1 X-42.815 Y-22.310 E102.45944
G1 X-42.412 Y-22.240 E102.48677
