; generated by Slic3r 1.2.9 on 2016-04-26 at 01:04:52

; external perimeters extrusion width = 0.40mm
; perimeters extrusion width = 0.67mm
; infill extrusion width = 0.67mm
; solid infill extrusion width = 0.67mm
; top infill extrusion width = 0.67mm

M127
M104 S230 T0 ; set temperature
(**** Start.gcode for Replicator 2 ****)
M103 ;disable RPM
M73 P0 ;enable build progress
G21 ;set units to mm
G90 ;set positioning to absolute
(**** begin homing ****)
G162 X Y F2500 ;home XY axes maximum
G161 Z F1100 ;home Z axis minimum
G92 Z-5 ;set Z to -5
G1 Z0.0 ;move Z to "0"
G161 Z F100 ;home Z axis minimum
M132 X Y Z A B ;Recall stored home offsets for XYZAB axis
(**** end homing ****)
G1 X-141 Y-74 Z75 F3300.0 ;move to waiting position
G130 X20 Y20 Z20 A20 B20 ;Lower stepper Vrefs while heating
M6 T0 ;wait for toolhead, and HBP to reach temperature
M70 P5 (We Be Making Things!)
G130 X127 Y127 Z40 A127 B127 ;Set Stepper motor Vref to defaults
M108 R3.0 T0
G0 X-141 Y-74 ;Position Nozzle
G0 Z1 ;Move above plate
G1 Z0.3 ;Position Height
M108 R5.0 ;Set Extruder Speed
M101 ;Start Extruder
G4 P3000 ;Create Anchor
G1 X-137 Y-70 Z0.1 F1000.0 ;Slow wipe
G0 Z0.3 ;and lift
(**** end of Start.gcode ****)
M73 P0
G1 Z0.300 F9000.000
(**** New Layer ****)
G1 E-2.00000 F1800.00000
M103 ; extruder off
G1 X-37.314 Y7.058 F9000.000
M101 ; extruder on
G1 E0.00000 F1800.00000
G1 X-41.633 Y-15.776 E1.55250 F4320.000
G1 X-42.005 Y-18.101 E1.70980
G1 X-42.258 Y-20.036 E1.84017
G1 X-42.478 Y-22.180 E1.98417
G1 X-42.637 Y-24.330 E2.12817
G1 X-42.733 Y-26.483 E2.27217
G1 X-42.767 Y-28.639 E2.41618
G1 X-42.739 Y-30.794 E2.56017
G1 X-42.648 Y-32.948 E2.70417
G1 X-42.496 Y-35.098 E2.84817
G1 X-42.281 Y-37.242 E2.99217
G1 X-42.005 Y-39.380 E3.13618
G1 X-41.667 Y-41.509 E3.28018
G1 X-41.227 Y-43.827 E3.43780
G1 X-40.808 Y-45.733 E3.56817
G1 X-40.287 Y-47.825 E3.71217
G1 X-39.706 Y-49.900 E3.85617
G1 X-39.065 Y-51.959 E4.00017
G1 X-38.296 Y-54.189 E4.15781
G1 X-37.607 Y-56.015 E4.28817
G1 X-36.791 Y-58.010 E4.43217
G1 X-35.917 Y-59.981 E4.57617
G1 X-34.604 Y-61.954 E4.73450
G1 X-32.713 Y-63.383 E4.89283
G1 X-30.456 Y-64.106 E5.05116
G1 X-27.626 Y-63.936 E5.24057
M101 ; extruder on
G1 X27.000 Y-49.299 E9.01861 F4320.000
G1 X28.086 Y-48.975 E9.09433
G1 X29.363 Y-48.513 E9.18508
G1 X30.576 Y-47.985 E9.27345
G1 X31.014 Y-47.772 E9.30600
G1 X32.209 Y-47.126 E9.39676
G1 X32.983 Y-46.652 E9.45739
G1 X34.103 Y-45.882 E9.54815
G1 X34.464 Y-45.611 E9.57831
G1 X35.171 Y-45.043 E9.63892
G1 X36.183 Y-44.137 E9.72969
G1 X37.136 Y-43.167 E9.82050
G1 X38.025 Y-42.140 E9.91122
G1 X38.305 Y-41.786 E9.94138
G1 X38.846 Y-41.057 E10.00203
G1 X39.597 Y-39.925 E10.09278
G1 X40.256 Y-38.778 E10.18115
G1 X40.481 Y-38.346 E10.21369
G1 X41.056 Y-37.115 E10.30446
G1 X41.550 Y-35.850 E10.39522
G1 X41.963 Y-34.555 E10.48599
G1 X42.292 Y-33.237 E10.57676
G1 X42.465 Y-32.346 E10.63739
G1 X42.652 Y-31.000 E10.72814
G1 X42.753 Y-29.646 E10.81890
G1 X42.768 Y-28.287 E10.90967
G1 X42.695 Y-26.930 E11.00044
G1 X35.767 Y53.188 E16.37276
G1 X35.698 Y53.736 E16.40964
G1 X35.532 Y54.608 E16.46897
G1 X35.394 Y55.143 E16.50586
G1 X35.120 Y55.988 E16.56518
G1 X34.917 Y56.501 E16.60207
G1 X34.539 Y57.305 E16.66139
G1 X34.273 Y57.788 E16.69828
G1 X33.797 Y58.538 E16.75760
G1 X33.472 Y58.985 E16.79448
G1 X32.906 Y59.669 E16.85381
G1 X32.528 Y60.072 E16.89070
G1 X31.881 Y60.679 E16.95002
G1 X31.456 Y61.031 E16.98691
G1 X30.737 Y61.553 E17.04623
G1 X30.271 Y61.849 E17.08311
G1 X29.493 Y62.277 E17.14243
G1 X28.993 Y62.512 E17.17933
G1 X28.167 Y62.839 E17.23865
G1 X27.642 Y63.010 E17.27554
G1 X26.782 Y63.230 E17.33486
G1 X26.240 Y63.334 E17.37174
G1 X25.419 Y63.441 E17.42703
G1 X24.368 Y63.497 E17.49736
G1 X-4.293 Y63.497 E19.41207
G1 X-5.605 Y63.373 E19.50010
G1 X-22.708 Y60.133 E20.66298
G1 X-24.929 Y59.308 E20.82131
G1 X-26.754 Y57.795 E20.97964
G1 X-27.976 Y55.765 E21.13797
G1 X-28.340 Y54.500 E21.22588
G1 X-37.302 Y7.117 E24.44745
G1 X-36.776 Y7.018 F9000.000
M101 ; extruder on
G1 X-41.107 Y-15.876 E26.00396 F4320.000
G1 X-41.474 Y-18.170 E26.15921
G1 X-41.748 Y-20.293 E26.30218
G1 X-41.962 Y-22.422 E26.44515
G1 X-42.113 Y-24.557 E26.58812
G1 X-42.203 Y-26.695 E26.73108
G1 X-42.231 Y-28.835 E26.87405
G1 X-42.198 Y-30.975 E27.01702
G1 X-42.102 Y-33.113 E27.15999
G1 X-41.945 Y-35.247 E27.30295
G1 X-41.727 Y-37.376 E27.44592
G1 X-41.447 Y-39.498 E27.58889
G1 X-41.138 Y-41.424 E27.71926
G1 X-40.742 Y-43.527 E27.86222
G1 X-40.241 Y-45.802 E28.01779
G1 X-39.719 Y-47.877 E28.16076
G1 X-39.136 Y-49.936 E28.30373
G1 X-38.554 Y-51.799 E28.43409
G1 X-37.859 Y-53.823 E28.57706
G1 X-37.037 Y-56.001 E28.73263
G1 X-36.295 Y-57.806 E28.86299
G1 X-35.428 Y-59.763 E29.00596
G1 X-34.153 Y-61.651 E29.15813
G1 X-32.308 Y-62.987 E29.31030
G1 X-30.117 Y-63.608 E29.46247
G1 X-27.765 Y-63.419 E29.62010
M101 ; extruder on
G1 X26.861 Y-48.782 E33.39814 F4320.000
G1 X28.326 Y-48.329 E33.50055
G1 X29.176 Y-48.011 E33.56118
G1 X30.390 Y-47.481 E33.64966
G1 X31.567 Y-46.875 E33.73814
G1 X31.930 Y-46.669 E33.76601
G1 X32.704 Y-46.195 E33.82663
G1 X33.795 Y-45.444 E33.91511
G1 X34.128 Y-45.193 E33.94298
G1 X35.152 Y-44.354 E34.03147
G1 X36.121 Y-43.450 E34.11995
G1 X36.750 Y-42.796 E34.18060
G1 X37.616 Y-41.794 E34.26905
G1 X37.875 Y-41.467 E34.29692
G1 X38.416 Y-40.738 E34.35757
G1 X39.147 Y-39.634 E34.44604
G1 X39.789 Y-38.516 E34.53212
G1 X39.998 Y-38.115 E34.56238
G1 X40.559 Y-36.915 E34.65086
G1 X41.041 Y-35.681 E34.73934
G1 X41.445 Y-34.420 E34.82783
G1 X41.766 Y-33.135 E34.91631
G1 X41.939 Y-32.244 E34.97694
G1 X42.121 Y-30.932 E35.06541
G1 X42.219 Y-29.611 E35.15389
G1 X42.232 Y-28.287 E35.24237
G1 X42.161 Y-26.964 E35.33086
G1 X35.236 Y53.121 E40.70097
G1 X35.167 Y53.669 E40.73785
G1 X35.013 Y54.475 E40.79268
G1 X34.876 Y55.010 E40.82957
G1 X34.622 Y55.791 E40.88440
G1 X34.419 Y56.304 E40.92129
G1 X34.069 Y57.047 E40.97612
G1 X33.803 Y57.530 E41.01300
G1 X33.364 Y58.223 E41.06783
G1 X33.039 Y58.670 E41.10471
G1 X32.516 Y59.302 E41.15955
G1 X32.138 Y59.705 E41.19644
G1 X31.540 Y60.267 E41.25126
G1 X31.114 Y60.619 E41.28815
G1 X30.450 Y61.101 E41.34298
G1 X29.984 Y61.397 E41.37986
G1 X29.265 Y61.792 E41.43469
G1 X28.765 Y62.027 E41.47158
G1 X28.002 Y62.330 E41.52641
G1 X27.477 Y62.500 E41.56330
G1 X26.682 Y62.704 E41.61813
G1 X26.140 Y62.808 E41.65501
G1 X25.381 Y62.907 E41.70612
G1 X24.368 Y62.961 E41.77391
G1 X-4.293 Y62.961 E43.68858
G1 X-5.505 Y62.847 E43.76994
G1 X-22.608 Y59.607 E44.93282
G1 X-24.738 Y58.800 E45.08499
G1 X-26.461 Y57.310 E45.23716
G1 X-27.813 Y54.400 E45.45151
G1 X-36.765 Y7.077 E48.66906
G1 E46.66906 F1800.00000
M103 ; extruder off
G1 X1.194 Y8.143 F9000.000
M101 ; extruder on
G1 E48.66906 F1800.00000
G1 X23.961 Y8.143 E50.18997 F1080.000
G1 X23.961 Y51.623 E53.09467
G1 X1.194 Y51.623 E54.61559
G1 X1.194 Y8.203 E57.51628
G1 X1.194 Y7.743 F9000.000
G1 E55.51628 F1800.00000
M103 ; extruder off
G1 X0.659 Y25.881 F9000.000
M101 ; extruder on
G1 E57.51628 F1800.00000
G1 X0.659 Y52.158 E59.27172 F2160.000
G1 X6.664 Y52.158 E59.67290
G1 X6.049 Y52.742 E59.72955
G1 X5.756 Y53.189 E59.76525
G1 X5.574 Y53.691 E59.80095
G1 X5.514 Y54.221 E59.83659
G1 X5.575 Y54.745 E59.87178
G1 X5.760 Y55.253 E59.90793
G1 X5.981 Y55.590 E59.93486
G1 X-3.453 Y55.590 E60.56513
G1 X-3.453 Y4.176 E63.99988
G1 X5.981 Y4.176 E64.63016
G1 X5.756 Y4.520 E64.65766
M101 ; extruder on
G1 X5.575 Y5.022 E64.69330 F2160.000
G1 X5.514 Y5.544 E64.72843
G1 X5.574 Y6.075 E64.76413
G1 X5.760 Y6.584 E64.80034
G1 X6.049 Y7.025 E64.83553
G1 X6.664 Y7.607 E64.89212
G1 X0.659 Y7.607 E65.29330
G1 X0.659 Y25.821 E66.51011
G1 E64.51011 F1800.00000
M103 ; extruder off
G1 X10.027 Y4.969 F9000.000
M101 ; extruder on
G1 E66.51011 F1800.00000
G1 X9.976 Y4.757 E66.52466 F1620.000
G1 X9.683 Y4.176 E66.56818
G1 X15.506 Y4.176 E66.95723
G1 X15.281 Y4.519 E66.98467
M101 ; extruder on
G1 X15.102 Y5.013 E67.01980 F1620.000
G1 X15.038 Y5.543 E67.05543
G1 X15.099 Y6.075 E67.09120
G1 X15.285 Y6.584 E67.12741
G1 X15.574 Y7.025 E67.16260
G1 X16.189 Y7.607 E67.21919
G1 X9.246 Y7.607 E67.68301
G1 X9.173 Y7.387 E67.69851
G1 X9.397 Y7.220 E67.71715
G1 X9.736 Y6.817 E67.75234
G1 X9.976 Y6.341 E67.78798
G1 X10.100 Y5.821 E67.82368
G1 X10.102 Y5.285 E67.85944
G1 X10.041 Y5.028 E67.87716
G1 E65.87716 F1800.00000
M103 ; extruder off
G1 X24.496 Y27.525 F9000.000
M101 ; extruder on
G1 E67.87716 F1800.00000
G1 X24.496 Y7.607 E69.20778 F2160.000
G1 X18.772 Y7.607 E69.59019
G1 X18.699 Y7.387 E69.60571
G1 X18.916 Y7.226 E69.62371
G1 X19.261 Y6.817 E69.65947
G1 X19.504 Y6.332 E69.69575
G1 X19.627 Y5.810 E69.73151
G1 X19.625 Y5.276 E69.76721
G1 X19.501 Y4.757 E69.80285
G1 X19.209 Y4.176 E69.84633
G1 X24.335 Y4.176 E70.18878
G1 X24.808 Y4.208 E70.22041
M101 ; extruder on
G1 X25.249 Y4.292 E70.25042 F2160.000
G1 X25.674 Y4.430 E70.28029
G1 X26.079 Y4.621 E70.31015
G1 X26.456 Y4.860 E70.34001
G1 X26.800 Y5.145 E70.36987
G1 X27.106 Y5.471 E70.39973
G1 X27.369 Y5.832 E70.42959
G1 X27.584 Y6.224 E70.45945
G1 X27.749 Y6.640 E70.48932
G1 X27.860 Y7.073 E70.51918
G1 X27.916 Y7.516 E70.54904
G1 X27.918 Y52.232 E73.53630
G1 X27.860 Y52.693 E73.56734
G1 X27.749 Y53.126 E73.59720
G1 X27.584 Y53.541 E73.62706
G1 X27.369 Y53.933 E73.65692
G1 X27.106 Y54.295 E73.68678
G1 X26.800 Y54.621 E73.71664
G1 X26.456 Y54.906 E73.74650
G1 X26.079 Y55.145 E73.77636
G1 X25.674 Y55.335 E73.80623
G1 X25.249 Y55.473 E73.83609
G1 X24.808 Y55.558 E73.86610
G1 X24.335 Y55.590 E73.89773
G1 X19.209 Y55.590 E74.24019
G1 X19.501 Y55.008 E74.28366
G1 X19.625 Y54.490 E74.31930
G1 X19.627 Y53.954 E74.35507
G1 X19.501 Y53.426 E74.39134
G1 X19.260 Y52.948 E74.42710
G1 X18.916 Y52.539 E74.46281
G1 X18.699 Y52.379 E74.48080
G1 X18.772 Y52.158 E74.49632
G1 X24.496 Y52.158 E74.87873
G1 X24.496 Y27.585 E76.52037
G1 E74.52037 F1800.00000
M103 ; extruder off
G1 X10.841 Y52.158 F9000.000
M101 ; extruder on
G1 E76.52037 F1800.00000
G1 X16.189 Y52.158 E76.87761 F1620.000
G1 X15.574 Y52.741 E76.93419
M101 ; extruder on
G1 X15.285 Y53.180 E76.96932 F1620.000
G1 X15.102 Y53.681 E77.00496
G1 X15.038 Y54.212 E77.04066
G1 X15.099 Y54.744 E77.07643
G1 X15.285 Y55.253 E77.11263
G1 X15.506 Y55.590 E77.13957
G1 X9.683 Y55.590 E77.52861
G1 X9.976 Y55.009 E77.57207
G1 X10.100 Y54.490 E77.60777
G1 X10.102 Y53.954 E77.64353
G1 X9.976 Y53.426 E77.67981
G1 X9.735 Y52.948 E77.71557
G1 X9.391 Y52.539 E77.75127
G1 X9.174 Y52.379 E77.76927
G1 X9.247 Y52.158 E77.78479
G1 X10.781 Y52.158 E77.88729
G1 E75.88729 F1800.00000
M103 ; extruder off
G1 X9.285 Y53.245 F9000.000
M101 ; extruder on
G1 E77.88729 F1800.00000
G1 X9.022 Y52.933 E77.91463 F1080.000
G1 X8.693 Y52.689 E77.94197
G1 X8.317 Y52.528 E77.96928
G1 X7.921 Y52.458 E77.99613
G1 X7.513 Y52.481 E78.02346
G1 X7.114 Y52.600 E78.05129
G1 X6.759 Y52.806 E78.07865
G1 X6.462 Y53.087 E78.10598
G1 X6.238 Y53.430 E78.13332
G1 X6.099 Y53.815 E78.16066
G1 X6.053 Y54.221 E78.18797
G1 X6.099 Y54.620 E78.21484
G1 X6.242 Y55.011 E78.24262
G1 X6.463 Y55.347 E78.26949
G1 X6.759 Y55.628 E78.29680
G1 X7.206 Y55.888 E78.33132
G1 X7.142 Y56.126 E78.34777
G1 X-3.989 Y56.126 E79.09139
G1 X-3.989 Y3.640 E82.59770
G1 X7.142 Y3.640 E83.34131
G1 X7.206 Y3.878 E83.35777
M101 ; extruder on
G1 X6.759 Y4.137 E83.39228 F1080.000
G1 X6.462 Y4.419 E83.41962
G1 X6.238 Y4.761 E83.44695
G1 X6.099 Y5.146 E83.47427
G1 X6.053 Y5.545 E83.50111
G1 X6.099 Y5.951 E83.52845
G1 X6.242 Y6.342 E83.55625
G1 X6.463 Y6.678 E83.58312
G1 X6.760 Y6.960 E83.61046
G1 X7.120 Y7.168 E83.63828
G1 X7.513 Y7.285 E83.66564
G1 X7.922 Y7.308 E83.69298
G1 X8.324 Y7.236 E83.72029
G1 X8.693 Y7.076 E83.74716
G1 X9.027 Y6.828 E83.77494
G1 X9.285 Y6.520 E83.80181
G1 X9.470 Y6.155 E83.82912
G1 X9.565 Y5.757 E83.85646
G1 X9.566 Y5.347 E83.88382
G1 X9.470 Y4.942 E83.91165
G1 X9.285 Y4.577 E83.93901
G1 X9.022 Y4.264 E83.96632
G1 X8.699 Y4.024 E83.99317
G1 X8.404 Y3.896 E84.01464
G1 X8.458 Y3.640 E84.03211
G1 X16.667 Y3.640 E84.58056
G1 X16.731 Y3.878 E84.59701
G1 X16.284 Y4.137 E84.63152
G1 X15.987 Y4.419 E84.65886
G1 X15.764 Y4.761 E84.68617
G1 X15.626 Y5.138 E84.71302
G1 X15.578 Y5.544 E84.74033
G1 X15.624 Y5.951 E84.76769
G1 X15.767 Y6.342 E84.79550
G1 X15.988 Y6.678 E84.82237
G1 X16.285 Y6.960 E84.84970
G1 X16.645 Y7.168 E84.87753
G1 X17.038 Y7.285 E84.90489
G1 X17.447 Y7.308 E84.93222
G1 X17.849 Y7.236 E84.95954
G1 X18.218 Y7.076 E84.98638
G1 X18.547 Y6.833 E85.01370
G1 X18.810 Y6.520 E85.04106
G1 X18.997 Y6.148 E85.06888
G1 X19.091 Y5.749 E85.09624
G1 X19.090 Y5.340 E85.12358
G1 X18.995 Y4.942 E85.15089
G1 X18.814 Y4.583 E85.17776
G1 X18.547 Y4.264 E85.20554
G1 X18.224 Y4.024 E85.23241
G1 X17.929 Y3.896 E85.25389
G1 X17.983 Y3.640 E85.27136
G1 X24.354 Y3.640 E85.69697
G1 X24.876 Y3.676 E85.73198
G1 X25.382 Y3.772 E85.76640
G1 X25.872 Y3.931 E85.80076
G1 X26.337 Y4.150 E85.83512
G1 X26.771 Y4.426 E85.86949
G1 X27.168 Y4.754 E85.90385
G1 X27.520 Y5.129 E85.93822
G1 X27.822 Y5.545 E85.97258
G1 X28.070 Y5.996 E86.00694
G1 X28.259 Y6.474 E86.04131
G1 X28.387 Y6.972 E86.07567
G1 X28.452 Y7.482 E86.11004
G1 X28.463 Y52.020 E89.08536
G1 X28.453 Y52.277 E89.10256
G1 X28.387 Y52.793 E89.13735
G1 X28.259 Y53.292 E89.17171
G1 X28.070 Y53.770 E89.20607
G1 X27.822 Y54.221 E89.24044
G1 X27.520 Y54.637 E89.27480
G1 X27.168 Y55.012 E89.30917
G1 X26.771 Y55.340 E89.34353
G1 X26.337 Y55.615 E89.37789
G1 X25.872 Y55.834 E89.41226
G1 X25.382 Y55.993 E89.44662
G1 X24.876 Y56.090 E89.48104
G1 X24.354 Y56.126 E89.51605
G1 X17.983 Y56.126 E89.94167
G1 X17.930 Y55.869 E89.95918
G1 X18.218 Y55.745 E89.98013
G1 X18.552 Y55.497 E90.00795
G1 X18.814 Y55.182 E90.03529
G1 X18.995 Y54.823 E90.06214
G1 X19.090 Y54.426 E90.08945
G1 X19.091 Y54.016 E90.11681
G1 X18.995 Y53.611 E90.14463
G1 X18.810 Y53.245 E90.17199
G1 X18.547 Y52.933 E90.19933
G1 X18.218 Y52.689 E90.22667
G1 X17.842 Y52.528 E90.25398
G1 X17.446 Y52.458 E90.28083
G1 X17.038 Y52.481 E90.30816
G1 X16.639 Y52.600 E90.33599
G1 X16.284 Y52.806 E90.36335
G1 X15.988 Y53.087 E90.39066
G1 X15.767 Y53.423 E90.41751
G1 X15.626 Y53.807 E90.44482
G1 X15.578 Y54.213 E90.47216
G1 X15.624 Y54.620 E90.49952
G1 X15.767 Y55.011 E90.52732
G1 X15.988 Y55.347 E90.55419
G1 X16.284 Y55.628 E90.58150
G1 X16.731 Y55.888 E90.61602
G1 X16.667 Y56.126 E90.63247
G1 X8.458 Y56.126 E91.18092
G1 X8.405 Y55.869 E91.19843
G1 X8.693 Y55.745 E91.21938
G1 X9.027 Y55.497 E91.24719
G1 X9.285 Y55.189 E91.27406
G1 X9.470 Y54.824 E91.30137
G1 X9.565 Y54.426 E91.32870
G1 X9.566 Y54.016 E91.35606
G1 X9.470 Y53.611 E91.38389
G1 X9.312 Y53.299 E91.40724
G1 X9.450 Y52.881 F9000.000
G1 E89.40724 F1800.00000
M103 ; extruder off
G1 X8.955 Y52.187 F9000.000
M101 ; extruder on
G1 E91.40724 F1800.00000
G1 X8.472 Y52.088 E91.44023 F1620.000
G1 X7.963 Y52.041 E91.47435
G1 X7.419 Y52.056 E91.51075
G1 X6.990 Y52.298 E91.54361
G1 X6.708 Y52.508 E91.56712
G1 E89.56712 F1800.00000
M103 ; extruder off
G1 X10.284 Y55.004 F9000.000
M101 ; extruder on
G1 E91.56712 F1800.00000
G1 X10.548 Y55.268 E91.59352 F4320.000
G1 X11.350 Y55.268 E91.65028
G1 X10.422 Y54.341 E91.74311
G1 X10.346 Y53.462 E91.80552
G1 X12.152 Y55.268 E91.98629
G1 X12.954 Y55.268 E92.04304
G1 X10.166 Y52.480 E92.32203
G1 X10.968 Y52.480 E92.37879
G1 X13.757 Y55.268 E92.65777
G1 X14.559 Y55.268 E92.71453
G1 X11.771 Y52.480 E92.99352
G1 X12.573 Y52.480 E93.05027
G1 X14.752 Y54.659 E93.26834
G1 X14.768 Y53.873 E93.32401
G1 X13.375 Y52.480 E93.46335
G1 X14.177 Y52.480 E93.52011
G1 X14.950 Y53.253 E93.59746
G1 X14.979 Y52.480 E93.65219
G1 X15.241 Y52.742 E93.67838
G1 E91.67838 F1800.00000
M103 ; extruder off
G1 X16.233 Y52.508 F9000.000
M101 ; extruder on
G1 E93.67838 F1800.00000
G1 X16.515 Y52.298 E93.70189 F1620.000
G1 X16.944 Y52.056 E93.73475
G1 X17.488 Y52.041 E93.77115
G1 X17.997 Y52.088 E93.80527
G1 X18.480 Y52.187 E93.83826
G1 E91.83826 F1800.00000
M103 ; extruder off
G1 X5.547 Y53.001 F9000.000
M101 ; extruder on
G1 E93.83826 F1800.00000
G1 X5.026 Y52.480 E93.88779 F4320.000
G1 X4.263 Y52.480 E93.93910
G1 X5.322 Y53.538 E94.03976
G1 X5.206 Y54.186 E94.08400
G1 X3.501 Y52.480 E94.24626
G1 X2.738 Y52.480 E94.29757
G1 X5.287 Y55.030 E94.54013
G1 X4.763 Y55.268 E94.57887
G1 X1.975 Y52.480 E94.84413
