; generated by Slic3r 1.2.9 on 2016-05-03 at 14:58:04

; external perimeters extrusion width = 0.40mm
; perimeters extrusion width = 0.67mm
; infill extrusion width = 0.67mm
; solid infill extrusion width = 0.67mm
; top infill extrusion width = 0.67mm

M127
M104 S230 T0 ; set temperature
(**** Start.gcode for Replicator 2 ****)
M103 ;disable RPM
M73 P0 ;enable build progress
G21 ;set units to mm
G90 ;set positioning to absolute
(**** begin homing ****)
G162 X Y F2500 ;home XY axes maximum
G161 Z F1100 ;home Z axis minimum
G92 Z-5 ;set Z to -5
G1 Z0.0 ;move Z to "0"
G161 Z F100 ;home Z axis minimum
M132 X Y Z A B ;Recall stored home offsets for XYZAB axis
(**** end homing ****)
G1 X-141 Y-74 Z75 F3300.0 ;move to waiting position
G130 X20 Y20 Z20 A20 B20 ;Lower stepper Vrefs while heating
M6 T0 ;wait for toolhead, and HBP to reach temperature
M70 P5 (We Be Making Things!)
G130 X127 Y127 Z40 A127 B127 ;Set Stepper motor Vref to defaults
M108 R3.0 T0
G0 X-141 Y-74 ;Position Nozzle
G0 Z1 ;Move above plate
G1 Z0.3 ;Position Height
M108 R5.0 ;Set Extruder Speed
M101 ;Start Extruder
G4 P3000 ;Create Anchor
G1 X-137 Y-70 Z0.1 F1000.0 ;Slow wipe
G0 Z0.3 ;and lift
(**** end of Start.gcode ****)
M73 P0
G1 Z0.300 F9000.000
(**** New Layer ****)
G1 E-2.00000 F1800.00000
M103 ; extruder off
G1 X38.893 Y5.128 F9000.000
M101 ; extruder on
G1 E0.00000 F1800.00000
G1 X32.882 Y50.711 E3.07151 F4320.000
G1 X32.183 Y52.975 E3.22984
G1 X30.775 Y54.882 E3.38817
G1 X28.816 Y56.216 E3.54650
G1 X25.872 Y56.858 E3.74781
G1 X-27.214 Y56.858 E7.29421
G1 X-29.550 Y56.460 E7.45254
G1 X-31.624 Y55.314 E7.61087
G1 X-33.203 Y53.546 E7.76920
G1 X-34.236 Y50.617 E7.97670
G1 X-41.860 Y-13.863 E12.31429
G1 X-42.152 Y-16.705 E12.50514
G1 X-42.344 Y-19.734 E12.70795
G1 X-42.412 Y-22.769 E12.91075
G1 X-42.356 Y-25.805 E13.11356
G1 X-42.176 Y-28.835 E13.31637
G1 X-41.872 Y-31.856 E13.51917
G1 X-41.445 Y-34.861 E13.72198
G1 X-40.896 Y-37.847 E13.92479
G1 X-40.155 Y-41.088 E14.14689
G1 X-39.352 Y-44.016 E14.34970
G1 X-38.524 Y-46.635 E14.53321
G1 X-38.336 Y-47.156 E14.57021
G1 X-37.987 Y-48.010 E14.63187
G1 X-37.649 Y-48.718 E14.68428
G1 X-37.165 Y-49.583 E14.75050
G1 X-36.781 Y-50.188 E14.79836
G1 X-36.154 Y-51.042 E14.86914
G1 X-35.743 Y-51.544 E14.91244
G1 X-34.971 Y-52.365 E14.98777
G1 X-34.552 Y-52.766 E15.02652
G1 X-33.633 Y-53.532 E15.10641
G1 X-33.223 Y-53.838 E15.14060
G1 X-32.161 Y-54.523 E15.22504
G1 X-31.547 Y-54.867 E15.27207
G1 X-30.578 Y-55.325 E15.34368
G1 X-29.990 Y-55.568 E15.38615
G1 X-28.907 Y-55.925 E15.46231
G1 X-28.361 Y-56.077 E15.50023
G1 X-27.794 Y-56.203 E15.53897
G1 X-26.682 Y-56.389 E15.61431
G1 X-26.037 Y-56.452 E15.65761
G1 X-24.979 Y-56.499 E15.72839
G1 X-24.262 Y-56.483 E15.77624
M101 ; extruder on
G1 X-23.274 Y-56.405 E15.84246 F4320.000
G1 X-22.498 Y-56.293 E15.89487
G1 X-21.195 Y-56.015 E15.98388
G1 X27.200 Y-43.040 E19.33106
G1 X28.390 Y-42.664 E19.41445
G1 X28.959 Y-42.456 E19.45496
G1 X30.131 Y-41.966 E19.53977
G1 X31.032 Y-41.524 E19.60685
G1 X31.802 Y-41.116 E19.66508
G1 X32.289 Y-40.832 E19.70274
G1 X33.391 Y-40.119 E19.79040
G1 X34.200 Y-39.524 E19.85748
G1 X35.281 Y-38.646 E19.95051
G1 X36.269 Y-37.720 E20.04101
G1 X36.959 Y-36.991 E20.10809
G1 X37.840 Y-35.967 E20.19829
G1 X38.673 Y-34.846 E20.29163
G1 X38.931 Y-34.468 E20.32219
G1 X39.673 Y-33.259 E20.41695
G1 X39.886 Y-32.878 E20.44609
G1 X40.146 Y-32.373 E20.48405
G1 X40.696 Y-31.210 E20.56999
G1 X40.918 Y-30.664 E20.60936
G1 X41.355 Y-29.477 E20.69389
G1 X41.534 Y-28.893 E20.73468
G1 X41.858 Y-27.692 E20.81778
G1 X41.990 Y-27.074 E20.86000
G1 X42.201 Y-25.869 E20.94168
G1 X42.280 Y-25.221 E20.98532
G1 X42.381 Y-24.024 E21.06558
G1 X42.403 Y-23.350 E21.11064
G1 X42.397 Y-22.170 E21.18947
G1 X42.359 Y-21.475 E21.23596
G1 X42.248 Y-20.321 E21.31337
G1 X38.901 Y5.069 E23.02426
G1 X38.370 Y4.999 F9000.000
M101 ; extruder on
G1 X32.351 Y50.641 E26.09978 F4320.000
G1 X31.665 Y52.813 E26.25195
G1 X30.274 Y54.617 E26.40412
G1 X28.349 Y55.834 E26.55629
G1 X25.872 Y56.322 E26.72496
G1 X-27.214 Y56.322 E30.27136
G1 X-29.457 Y55.925 E30.42353
G1 X-31.427 Y54.782 E30.57571
G1 X-32.886 Y53.033 E30.72788
G1 X-33.704 Y50.554 E30.90229
G1 X-41.328 Y-13.926 E35.23988
G1 X-41.619 Y-16.759 E35.43017
G1 X-41.809 Y-19.767 E35.63152
G1 X-41.876 Y-22.780 E35.83286
G1 X-41.820 Y-25.794 E36.03421
G1 X-41.641 Y-28.802 E36.23555
G1 X-41.339 Y-31.801 E36.43690
G1 X-40.915 Y-34.785 E36.63824
G1 X-40.369 Y-37.749 E36.83959
G1 X-39.638 Y-40.948 E37.05877
G1 X-38.842 Y-43.854 E37.26011
G1 X-38.013 Y-46.473 E37.44362
G1 X-37.840 Y-46.955 E37.47782
G1 X-37.491 Y-47.807 E37.53931
G1 X-37.179 Y-48.461 E37.58775
G1 X-36.698 Y-49.319 E37.65345
G1 X-36.344 Y-49.878 E37.69769
G1 X-35.725 Y-50.722 E37.76760
G1 X-35.345 Y-51.186 E37.80762
G1 X-34.585 Y-51.994 E37.88175
G1 X-34.198 Y-52.365 E37.91756
G1 X-33.785 Y-52.720 E37.95392
G1 X-32.918 Y-53.398 E38.02750
G1 X-31.879 Y-54.068 E38.11004
G1 X-31.294 Y-54.395 E38.15482
G1 X-30.355 Y-54.838 E38.22418
G1 X-29.794 Y-55.069 E38.26476
G1 X-28.748 Y-55.414 E38.33833
G1 X-28.223 Y-55.559 E38.37469
G1 X-27.700 Y-55.676 E38.41050
G1 X-26.605 Y-55.859 E38.48463
G1 X-26.009 Y-55.918 E38.52465
G1 X-25.224 Y-55.956 E38.57717
G1 X-24.302 Y-55.948 E38.63879
M101 ; extruder on
G1 X-23.321 Y-55.872 E38.70449 F4320.000
G1 X-22.604 Y-55.768 E38.75293
G1 X-21.333 Y-55.497 E38.83969
G1 X27.039 Y-42.530 E42.18531
G1 X28.228 Y-42.153 E42.26865
G1 X28.754 Y-41.961 E42.30608
G1 X29.924 Y-41.473 E42.39074
G1 X30.781 Y-41.051 E42.45459
G1 X31.551 Y-40.643 E42.51281
G1 X32.002 Y-40.381 E42.54762
G1 X33.098 Y-39.671 E42.63490
G1 X33.868 Y-39.104 E42.69876
G1 X34.919 Y-38.252 E42.78915
G1 X35.901 Y-37.331 E42.87906
G1 X36.558 Y-36.637 E42.94291
G1 X37.415 Y-35.641 E43.03069
G1 X38.241 Y-34.529 E43.12322
G1 X38.480 Y-34.180 E43.15146
G1 X39.411 Y-32.631 E43.27223
G1 X39.664 Y-32.139 E43.30916
G1 X40.201 Y-31.005 E43.39300
G1 X40.417 Y-30.475 E43.43125
G1 X40.844 Y-29.316 E43.51378
G1 X41.018 Y-28.750 E43.55334
G1 X41.335 Y-27.576 E43.63455
G1 X41.463 Y-26.978 E43.67543
G1 X41.670 Y-25.800 E43.75533
G1 X41.747 Y-25.173 E43.79752
G1 X41.846 Y-24.001 E43.87611
G1 X41.868 Y-23.350 E43.91961
G1 X41.862 Y-22.193 E43.99688
G1 X41.825 Y-21.523 E44.04170
G1 X41.717 Y-20.391 E44.11766
G1 X38.377 Y4.939 E45.82453
G1 E43.82453 F1800.00000
M103 ; extruder off
G1 X24.061 Y-15.853 F9000.000
M101 ; extruder on
G1 E45.82453 F1800.00000
G1 X-25.254 Y-2.639 E49.23523 F1080.000
G1 X-26.129 Y-5.322 E49.42378
G1 X-26.818 Y-7.777 E49.59411
G1 X-27.402 Y-10.259 E49.76443
G1 X-27.882 Y-12.763 E49.93476
G1 X-28.256 Y-15.285 E50.10509
G1 X-28.524 Y-17.820 E50.27542
G1 X-28.684 Y-20.365 E50.44575
G1 X-28.738 Y-22.914 E50.61608
G1 X-28.684 Y-25.463 E50.78641
G1 X-28.524 Y-28.008 E50.95674
G1 X-28.256 Y-30.543 E51.12707
G1 X-27.882 Y-33.065 E51.29740
G1 X-27.402 Y-35.569 E51.46773
G1 X-26.818 Y-38.051 E51.63805
G1 X-26.130 Y-40.505 E51.80835
G1 X-25.819 Y-41.467 E51.87586
M101 ; extruder on
G1 X-25.253 Y-43.189 E51.99693 F1080.000
G1 X24.061 Y-29.975 E55.40759
G1 X23.988 Y-29.704 E55.42637
G1 X24.569 Y-29.475 E55.46807
G1 X25.367 Y-29.037 E55.52892
G1 X26.105 Y-28.502 E55.58978
G1 X26.770 Y-27.880 E55.65064
G1 X27.349 Y-27.181 E55.71128
G1 X27.502 Y-26.952 E55.72965
G1 X27.841 Y-26.408 E55.77248
G1 X28.228 Y-25.585 E55.83325
G1 X28.510 Y-24.719 E55.89405
G1 X28.681 Y-23.823 E55.95503
G1 X28.739 Y-22.914 E56.01587
G1 X28.681 Y-22.005 E56.07672
G1 X28.563 Y-21.377 E56.11940
G1 X28.510 Y-21.108 E56.13770
G1 X28.228 Y-20.243 E56.19850
G1 X27.841 Y-19.420 E56.25927
G1 X27.349 Y-18.647 E56.32046
G1 X26.770 Y-17.948 E56.38110
G1 X26.105 Y-17.325 E56.44196
G1 X25.367 Y-16.791 E56.50282
G1 X24.569 Y-16.353 E56.56367
G1 X23.988 Y-16.124 E56.60537
G1 X24.045 Y-15.911 E56.62014
G1 X24.164 Y-15.466 F9000.000
G1 E54.62014 F1800.00000
M103 ; extruder off
G1 X28.239 Y-11.792 F9000.000
M101 ; extruder on
G1 E56.62014 F1800.00000
G1 X28.067 Y-11.681 E56.63380 F2160.000
G1 X27.038 Y-11.139 E56.71149
G1 X25.965 Y-10.690 E56.78918
G1 X24.839 Y-10.334 E56.86812
G1 X-23.216 Y2.543 E60.19173
G1 X-24.016 Y2.705 E60.24626
G1 X-24.794 Y2.766 E60.29839
G1 X-25.582 Y2.730 E60.35104
G1 X-26.357 Y2.599 E60.40356
G1 X-27.110 Y2.374 E60.45608
G1 X-27.847 Y2.052 E60.50983
G1 X-28.697 Y1.526 E60.57658
G1 X-29.305 Y1.022 E60.62938
G1 X-29.699 Y0.613 E60.66727
G1 X-29.836 Y0.460 E60.68097
G1 X-30.307 Y-0.181 E60.73416
G1 X-30.691 Y-0.867 E60.78669
G1 X-30.996 Y-1.611 E60.84037
G1 X-31.809 Y-4.181 E61.02045
G1 X-32.521 Y-6.799 E61.20168
G1 X-33.125 Y-9.443 E61.38291
G1 X-33.621 Y-12.110 E61.56414
G1 X-34.008 Y-14.795 E61.74536
G1 X-34.285 Y-17.494 E61.92659
G1 X-34.402 Y-19.405 E62.05449
G1 X-34.451 Y-20.202 E62.10782
G1 X-34.506 Y-22.914 E62.28905
G1 X-34.451 Y-25.626 E62.47028
G1 X-34.285 Y-28.334 E62.65151
G1 X-34.008 Y-31.032 E62.83273
G1 X-33.621 Y-33.718 E63.01396
G1 X-33.125 Y-36.385 E63.19519
G1 X-32.521 Y-39.029 E63.37642
G1 X-31.809 Y-41.647 E63.55765
G1 X-30.996 Y-44.217 E63.73773
G1 X-30.691 Y-44.961 E63.79141
G1 X-30.307 Y-45.646 E63.84394
G1 X-29.836 Y-46.288 E63.89713
G1 X-29.303 Y-46.852 E63.94895
G1 X-29.208 Y-46.159 E63.99565
G1 X-28.989 Y-45.629 E64.03403
G1 X-28.624 Y-45.148 E64.07431
G1 X-28.126 Y-44.770 E64.11609
G1 X-27.595 Y-44.550 E64.15448
G1 X-26.998 Y-44.468 E64.19474
G1 X-26.378 Y-44.552 E64.23653
G1 X-25.848 Y-44.772 E64.27492
G1 X-25.367 Y-45.136 E64.31517
G1 X-24.988 Y-45.633 E64.35696
G1 X-24.768 Y-46.164 E64.39536
G1 X-24.686 Y-46.761 E64.43559
G1 X-24.769 Y-47.381 E64.47740
G1 X-24.989 Y-47.912 E64.51580
G1 X-25.482 Y-48.563 E64.57031
G1 X-24.794 Y-48.594 E64.61629
G1 X-24.223 Y-48.551 E64.65456
M101 ; extruder on
G1 X-24.016 Y-48.533 E64.66841 F2160.000
G1 X-23.216 Y-48.371 E64.72295
G1 X24.839 Y-35.494 E68.04656
G1 X25.967 Y-35.137 E68.12558
G1 X27.038 Y-34.689 E68.20315
G1 X28.067 Y-34.147 E68.28088
G1 X29.043 Y-33.515 E68.35857
G1 X29.959 Y-32.798 E68.43626
G1 X30.807 Y-32.002 E68.51395
G1 X31.586 Y-31.129 E68.59208
G1 X32.273 Y-30.203 E68.66914
G1 X32.881 Y-29.209 E68.74701
G1 X33.397 Y-28.167 E68.82470
G1 X33.818 Y-27.083 E68.90238
G1 X34.141 Y-25.965 E68.98006
G1 X34.362 Y-24.824 E69.05774
G1 X34.392 Y-24.538 E69.07694
G1 X34.177 Y-24.444 E69.09258
G1 X33.711 Y-24.970 E69.13951
G1 X33.167 Y-25.346 E69.18375
G1 X32.538 Y-25.584 E69.22866
G1 X31.830 Y-25.653 E69.27617
G1 X31.244 Y-25.582 E69.31565
G1 X30.659 Y-25.378 E69.35699
G1 X30.069 Y-24.970 E69.40495
G1 X29.623 Y-24.467 E69.44986
G1 X29.410 Y-24.036 E69.48196
G1 X29.180 Y-24.068 E69.49742
G1 X29.029 Y-24.855 E69.55099
G1 X28.727 Y-25.783 E69.61616
G1 X28.312 Y-26.664 E69.68127
G1 X27.779 Y-27.501 E69.74755
G1 X27.161 Y-28.247 E69.81228
G1 X26.447 Y-28.916 E69.87765
G1 X25.654 Y-29.491 E69.94302
G1 X24.796 Y-29.961 E70.00838
G1 X24.629 Y-30.027 E70.02040
G1 X24.717 Y-30.354 E70.04303
G1 X-25.604 Y-43.837 E73.52332
G1 X-26.643 Y-40.660 E73.74663
G1 X-27.337 Y-38.185 E73.91837
G1 X-27.926 Y-35.681 E74.09020
G1 X-28.410 Y-33.155 E74.26204
G1 X-28.788 Y-30.611 E74.43387
G1 X-29.058 Y-28.053 E74.60570
G1 X-29.220 Y-25.486 E74.77754
G1 X-29.274 Y-22.914 E74.94937
G1 X-29.220 Y-20.342 E75.12121
G1 X-29.058 Y-17.775 E75.29304
G1 X-28.788 Y-15.217 E75.46488
G1 X-28.410 Y-12.673 E75.63671
G1 X-27.926 Y-10.147 E75.80854
G1 X-27.337 Y-7.643 E75.98038
G1 X-26.642 Y-5.167 E76.15221
G1 X-25.606 Y-1.990 E76.37542
G1 X24.717 Y-15.474 E79.85582
G1 X24.629 Y-15.801 E79.87845
G1 X24.796 Y-15.867 E79.89048
G1 X25.654 Y-16.337 E79.95584
G1 X26.447 Y-16.911 E80.02120
G1 X27.161 Y-17.581 E80.08657
G1 X27.779 Y-18.327 E80.15131
G1 X28.312 Y-19.163 E80.21758
G1 X28.727 Y-20.045 E80.28270
G1 X29.029 Y-20.973 E80.34786
G1 X29.178 Y-21.749 E80.40066
G1 X29.404 Y-21.783 E80.41592
G1 X29.629 Y-21.354 E80.44830
G1 X30.069 Y-20.858 E80.49254
G1 X30.614 Y-20.482 E80.53678
G1 X31.233 Y-20.247 E80.58101
G1 X31.890 Y-20.167 E80.62525
G1 X32.537 Y-20.246 E80.66876
G1 X33.121 Y-20.450 E80.71010
G1 X33.711 Y-20.858 E80.75806
G1 X34.177 Y-21.384 E80.80499
G1 X34.392 Y-21.290 E80.82064
G1 X34.362 Y-21.004 E80.83983
G1 X34.141 Y-19.862 E80.91751
G1 X33.818 Y-18.745 E80.99519
G1 X33.397 Y-17.661 E81.07288
G1 X32.881 Y-16.619 E81.15056
G1 X32.274 Y-15.627 E81.22825
G1 X31.581 Y-14.694 E81.30593
G1 X30.807 Y-13.826 E81.38362
G1 X29.958 Y-13.029 E81.46142
G1 X29.047 Y-12.315 E81.53874
G1 X28.289 Y-11.825 E81.59903
G1 E79.59903 F1800.00000
M103 ; extruder off
G1 X31.362 Y-20.771 F9000.000
M101 ; extruder on
G1 E81.59903 F1800.00000
G1 X30.864 Y-20.960 E81.63458 F1620.000
G1 X30.426 Y-21.262 E81.67012
G1 X30.074 Y-21.660 E81.70567
G1 X29.826 Y-22.131 E81.74122
G1 X29.699 Y-22.648 E81.77676
G1 X29.699 Y-23.180 E81.81231
G1 X29.813 Y-23.644 E81.84426
G1 X30.071 Y-24.165 E81.88308
G1 X30.426 Y-24.566 E81.91886
G1 X30.904 Y-24.896 E81.95767
G1 X31.366 Y-25.057 E81.99032
M101 ; extruder on
G1 X31.837 Y-25.115 E82.02201 F1620.000
G1 X32.415 Y-25.058 E82.06082
G1 X32.916 Y-24.868 E82.09661
G1 X33.354 Y-24.566 E82.13216
G1 X33.707 Y-24.168 E82.16770
G1 X33.929 Y-23.744 E82.19966
G1 X34.081 Y-23.184 E82.23847
G1 X34.081 Y-22.648 E82.27426
G1 X33.954 Y-22.131 E82.30981
G1 X33.707 Y-21.660 E82.34535
G1 X33.354 Y-21.262 E82.38090
G1 X32.876 Y-20.932 E82.41971
G1 X32.414 Y-20.770 E82.45235
G1 X31.890 Y-20.707 E82.48764
G1 X31.421 Y-20.764 E82.51918
G1 X31.073 Y-20.494 F9000.000
G1 E80.51918 F1800.00000
M103 ; extruder off
G1 X34.737 Y-20.120 F9000.000
M101 ; extruder on
G1 E82.51918 F1800.00000
G1 X34.662 Y-19.737 E82.54527 F1080.000
G1 X34.326 Y-18.574 E82.62616
G1 X33.888 Y-17.445 E82.70704
G1 X33.351 Y-16.360 E82.78792
G1 X32.719 Y-15.327 E82.86881
G1 X31.997 Y-14.355 E82.94970
G1 X31.191 Y-13.451 E83.03059
G1 X30.308 Y-12.622 E83.11152
G1 X29.356 Y-11.877 E83.19227
G1 X28.338 Y-11.219 E83.27326
G1 X27.267 Y-10.654 E83.35415
G1 X26.150 Y-10.187 E83.43504
G1 X24.989 Y-9.819 E83.51638
G1 X-23.094 Y3.064 E86.84189
G1 X-23.939 Y3.236 E86.89953
G1 X-24.180 Y3.257 E86.91566
G1 X-24.787 Y3.302 E86.95631
G1 X-25.638 Y3.264 E87.01328
G1 X-26.479 Y3.122 E87.07019
G1 X-27.295 Y2.878 E87.12711
G1 X-28.081 Y2.534 E87.18446
G1 X-28.290 Y2.422 E87.20029
G1 X-29.013 Y1.959 E87.25764
G1 X-29.670 Y1.415 E87.31465
G1 X-30.252 Y0.799 E87.37123
G1 X-30.758 Y0.109 E87.42840
G1 X-31.175 Y-0.634 E87.48532
G1 X-31.500 Y-1.428 E87.54265
G1 X-32.323 Y-4.030 E87.72493
G1 X-33.041 Y-6.669 E87.90762
G1 X-33.650 Y-9.335 E88.09032
G1 X-34.150 Y-12.023 E88.27301
G1 X-34.540 Y-14.730 E88.45570
G1 X-34.819 Y-17.450 E88.63839
G1 X-34.937 Y-19.372 E88.76701
G1 X-34.986 Y-20.180 E88.82108
G1 X-35.042 Y-22.914 E89.00377
G1 X-34.986 Y-25.648 E89.18646
G1 X-34.819 Y-28.378 E89.36915
G1 X-34.540 Y-31.098 E89.55184
G1 X-34.150 Y-33.805 E89.73453
G1 X-33.650 Y-36.493 E89.91722
G1 X-33.041 Y-39.159 E90.09991
G1 X-32.323 Y-41.798 E90.28260
G1 X-31.500 Y-44.399 E90.46488
G1 X-31.175 Y-45.194 E90.52222
G1 X-30.758 Y-45.937 E90.57914
G1 X-30.252 Y-46.627 E90.63630
G1 X-30.091 Y-46.806 E90.65237
G1 X-29.670 Y-47.243 E90.69289
G1 X-29.013 Y-47.787 E90.74990
G1 X-28.489 Y-48.122 E90.79145
G1 X-28.307 Y-47.925 E90.80939
G1 X-28.523 Y-47.638 E90.83344
G1 X-28.690 Y-47.235 E90.86254
G1 X-28.752 Y-46.779 E90.89332
G1 X-28.687 Y-46.300 E90.92558
G1 X-28.520 Y-45.897 E90.95472
G1 X-28.242 Y-45.530 E90.98550
G1 X-27.857 Y-45.238 E91.01776
G1 X-27.454 Y-45.071 E91.04690
G1 X-26.998 Y-45.008 E91.07767
G1 X-26.519 Y-45.073 E91.10994
G1 X-26.116 Y-45.240 E91.13909
G1 X-25.749 Y-45.519 E91.16985
G1 X-25.456 Y-45.903 E91.20212
G1 X-25.289 Y-46.306 E91.23127
G1 X-25.227 Y-46.762 E91.26203
G1 X-25.291 Y-47.241 E91.29430
G1 X-25.458 Y-47.644 E91.32345
G1 X-25.735 Y-48.010 E91.35412
G1 X-26.098 Y-48.292 E91.38484
G1 X-26.523 Y-48.471 E91.41567
G1 X-26.989 Y-48.532 E91.44707
G1 X-27.010 Y-48.791 E91.46446
G1 X-26.479 Y-48.950 E91.50154
G1 X-25.638 Y-49.092 E91.55846
G1 X-24.787 Y-49.130 E91.61542
G1 X-24.180 Y-49.085 E91.65608
M101 ; extruder on
G1 X-23.939 Y-49.064 E91.67220 F1080.000
G1 X-23.094 Y-48.892 E91.72985
G1 X24.989 Y-36.008 E95.05535
G1 X26.150 Y-35.641 E95.13673
G1 X27.267 Y-35.174 E95.21757
G1 X28.338 Y-34.609 E95.29848
