; generated by Slic3r 1.2.9 on 2016-05-03 at 19:13:13

; external perimeters extrusion width = 0.40mm
; perimeters extrusion width = 0.67mm
; infill extrusion width = 0.67mm
; solid infill extrusion width = 0.67mm
; top infill extrusion width = 0.67mm

M127
M104 S230 T0 ; set temperature
(**** Start.gcode for Replicator 2 ****)
M103 ;disable RPM
M73 P0 ;enable build progress
G21 ;set units to mm
G90 ;set positioning to absolute
(**** begin homing ****)
G162 X Y F2500 ;home XY axes maximum
G161 Z F1100 ;home Z axis minimum
G92 Z-5 ;set Z to -5
G1 Z0.0 ;move Z to "0"
G161 Z F100 ;home Z axis minimum
M132 X Y Z A B ;Recall stored home offsets for XYZAB axis
(**** end homing ****)
G1 X-141 Y-74 Z75 F3300.0 ;move to waiting position
G130 X20 Y20 Z20 A20 B20 ;Lower stepper Vrefs while heating
M6 T0 ;wait for toolhead, and HBP to reach temperature
M70 P5 (We Be Making Things!)
G130 X127 Y127 Z40 A127 B127 ;Set Stepper motor Vref to defaults
M108 R3.0 T0
G0 X-141 Y-74 ;Position Nozzle
G0 Z1 ;Move above plate
G1 Z0.3 ;Position Height
M108 R5.0 ;Set Extruder Speed
M101 ;Start Extruder
G4 P3000 ;Create Anchor
G1 X-137 Y-70 Z0.1 F1000.0 ;Slow wipe
G0 Z0.3 ;and lift
(**** end of Start.gcode ****)
M73 P0
G1 Z0.300 F9000.000
(**** New Layer ****)
G1 E-2.00000 F1800.00000
M103 ; extruder off
G1 X0.000 Y-18.275 F9000.000
M101 ; extruder on
G1 E0.00000 F1800.00000
G1 X21.234 Y-18.275 E1.41856 F4320.000
G1 X21.697 Y-18.260 E1.44948
M101 ; extruder on
G1 X22.198 Y-18.222 E1.48308 F4320.000
G1 X23.081 Y-18.096 E1.54262
G1 X23.694 Y-17.955 E1.58465
G1 X24.316 Y-17.775 E1.62793
G1 X24.805 Y-17.593 E1.66276
G1 X25.604 Y-17.242 E1.72107
G1 X26.471 Y-16.745 E1.78782
G1 X26.753 Y-16.563 E1.81030
G1 X27.417 Y-16.060 E1.86592
G1 X27.755 Y-15.771 E1.89560
G1 X28.453 Y-15.079 E1.96129
G1 X28.780 Y-14.697 E1.99490
G1 X29.283 Y-14.033 E2.05051
G1 X29.649 Y-13.451 E2.09648
G1 X29.988 Y-12.831 E2.14367
G1 X30.179 Y-12.409 E2.17460
G1 X30.476 Y-11.651 E2.22898
G1 X30.675 Y-10.973 E2.27617
G1 X30.828 Y-10.303 E2.32213
G1 X30.942 Y-9.478 E2.37776
G1 X30.996 Y-8.514 E2.44226
G1 X30.996 Y8.514 E3.57981
G1 X30.942 Y9.478 E3.64430
G1 X30.828 Y10.303 E3.69993
G1 X30.675 Y10.973 E3.74589
G1 X30.495 Y11.595 E3.78914
G1 X30.313 Y12.084 E3.82399
G1 X29.962 Y12.884 E3.88233
G1 X29.649 Y13.451 E3.92558
G1 X29.316 Y13.984 E3.96762
G1 X28.780 Y14.697 E4.02716
G1 X28.453 Y15.079 E4.06077
G1 X27.755 Y15.771 E4.12645
G1 X27.417 Y16.060 E4.15614
G1 X26.753 Y16.563 E4.21177
G1 X26.171 Y16.929 E4.25771
G1 X25.603 Y17.242 E4.30101
G1 X24.805 Y17.593 E4.35931
G1 X24.316 Y17.775 E4.39416
G1 X23.694 Y17.955 E4.43742
G1 X23.023 Y18.108 E4.48338
G1 X22.198 Y18.222 E4.53900
G1 X21.697 Y18.260 E4.57259
G1 X21.234 Y18.275 E4.60351
G1 X-21.234 Y18.275 E7.44064
G1 X-22.198 Y18.222 E7.50514
G1 X-23.023 Y18.108 E7.56077
G1 X-23.694 Y17.955 E7.60672
G1 X-24.372 Y17.756 E7.65391
G1 X-24.805 Y17.593 E7.68483
G1 X-25.551 Y17.268 E7.73921
G1 X-26.171 Y16.929 E7.78642
G1 X-26.753 Y16.563 E7.83237
G1 X-27.417 Y16.060 E7.88799
G1 X-27.799 Y15.732 E7.92160
G1 X-28.453 Y15.079 E7.98338
G1 X-28.781 Y14.697 E8.01699
G1 X-29.316 Y13.984 E8.07653
G1 X-29.649 Y13.451 E8.11856
G1 X-29.962 Y12.883 E8.16184
G1 X-30.179 Y12.409 E8.19668
G1 X-30.476 Y11.651 E8.25106
G1 X-30.675 Y10.973 E8.29826
G1 X-30.828 Y10.303 E8.34422
G1 X-30.942 Y9.478 E8.39984
G1 X-30.980 Y8.976 E8.43345
G1 X-30.996 Y8.514 E8.46435
G1 X-30.996 Y-8.514 E9.60190
G1 X-30.942 Y-9.478 E9.66639
G1 X-30.828 Y-10.303 E9.72203
G1 X-30.675 Y-10.973 E9.76798
G1 X-30.476 Y-11.651 E9.81518
G1 X-30.179 Y-12.409 E9.86956
G1 X-29.962 Y-12.883 E9.90441
G1 X-29.649 Y-13.451 E9.94768
G1 X-29.283 Y-14.033 E9.99364
G1 X-28.781 Y-14.697 E10.04926
G1 X-28.453 Y-15.079 E10.08287
G1 X-27.799 Y-15.732 E10.14464
G1 X-27.417 Y-16.060 E10.17825
G1 X-26.705 Y-16.595 E10.23779
G1 X-26.171 Y-16.929 E10.27982
G1 X-25.604 Y-17.242 E10.32310
G1 X-25.129 Y-17.458 E10.35794
G1 X-24.372 Y-17.756 E10.41232
G1 X-23.694 Y-17.955 E10.45952
G1 X-23.023 Y-18.108 E10.50549
G1 X-22.198 Y-18.222 E10.56110
G1 X-21.234 Y-18.275 E10.62560
G1 X-0.060 Y-18.275 E12.04016
G1 X-0.060 Y-17.740 F9000.000
M101 ; extruder on
G1 X21.234 Y-17.740 E13.46273 F4320.000
G1 X21.662 Y-17.726 E13.49130
M101 ; extruder on
G1 X22.156 Y-17.688 E13.52443 F4320.000
G1 X22.976 Y-17.571 E13.57976
G1 X23.569 Y-17.434 E13.62039
G1 X24.144 Y-17.268 E13.66038
G1 X24.600 Y-17.098 E13.69288
G1 X25.367 Y-16.761 E13.74884
G1 X26.191 Y-16.288 E13.81232
G1 X26.456 Y-16.117 E13.83339
G1 X27.069 Y-15.653 E13.88480
G1 X27.402 Y-15.368 E13.91402
G1 X28.050 Y-14.725 E13.97503
G1 X28.373 Y-14.349 E14.00816
G1 X28.838 Y-13.736 E14.05956
G1 X29.192 Y-13.171 E14.10413
G1 X29.507 Y-12.594 E14.14804
G1 X29.684 Y-12.204 E14.17663
G1 X29.969 Y-11.479 E14.22867
G1 X30.154 Y-10.848 E14.27258
G1 X30.303 Y-10.198 E14.31713
G1 X30.408 Y-9.436 E14.36855
G1 X30.460 Y-8.514 E14.43024
G1 X30.460 Y8.514 E15.56779
G1 X30.408 Y9.436 E15.62947
G1 X30.303 Y10.198 E15.68088
G1 X30.154 Y10.848 E15.72544
G1 X29.988 Y11.423 E15.76542
G1 X29.819 Y11.879 E15.79792
G1 X29.481 Y12.647 E15.85392
G1 X29.192 Y13.171 E15.89390
G1 X28.870 Y13.687 E15.93453
G1 X28.373 Y14.349 E15.98986
G1 X28.050 Y14.725 E16.02300
G1 X27.402 Y15.368 E16.08400
G1 X27.069 Y15.653 E16.11322
G1 X26.456 Y16.117 E16.16463
G1 X25.891 Y16.472 E16.20918
G1 X25.367 Y16.761 E16.24919
G1 X24.600 Y17.098 E16.30515
G1 X24.144 Y17.268 E16.33766
G1 X23.569 Y17.434 E16.37764
G1 X22.919 Y17.583 E16.42220
G1 X22.156 Y17.688 E16.47361
G1 X21.662 Y17.726 E16.50673
G1 X21.234 Y17.740 E16.53531
G1 X-21.234 Y17.740 E19.37244
G1 X-22.156 Y17.688 E19.43413
G1 X-22.919 Y17.582 E19.48554
G1 X-23.569 Y17.434 E19.53009
G1 X-24.199 Y17.249 E19.57401
G1 X-24.600 Y17.098 E19.60258
G1 X-25.314 Y16.787 E19.65462
G1 X-25.891 Y16.472 E19.69855
G1 X-26.456 Y16.117 E19.74310
G1 X-27.069 Y15.653 E19.79451
G1 X-27.446 Y15.330 E19.82765
G1 X-28.050 Y14.725 E19.88474
G1 X-28.373 Y14.349 E19.91788
G1 X-28.870 Y13.687 E19.97321
G1 X-29.192 Y13.171 E20.01383
G1 X-29.481 Y12.646 E20.05383
G1 X-29.684 Y12.204 E20.08634
G1 X-29.969 Y11.479 E20.13838
G1 X-30.154 Y10.848 E20.18230
G1 X-30.303 Y10.198 E20.22686
G1 X-30.408 Y9.436 E20.27826
G1 X-30.446 Y8.941 E20.31140
G1 X-30.460 Y8.514 E20.33996
G1 X-30.460 Y-8.514 E21.47751
G1 X-30.408 Y-9.436 E21.53920
G1 X-30.303 Y-10.198 E21.59062
G1 X-30.154 Y-10.848 E21.63516
G1 X-29.969 Y-11.479 E21.67908
G1 X-29.684 Y-12.204 E21.73113
G1 X-29.481 Y-12.646 E21.76363
G1 X-29.192 Y-13.171 E21.80363
G1 X-28.838 Y-13.736 E21.84819
G1 X-28.373 Y-14.349 E21.89959
G1 X-28.050 Y-14.725 E21.93273
G1 X-27.446 Y-15.330 E21.98982
G1 X-27.069 Y-15.653 E22.02296
G1 X-26.407 Y-16.150 E22.07829
G1 X-25.891 Y-16.472 E22.11892
G1 X-25.367 Y-16.761 E22.15892
G1 X-24.925 Y-16.964 E22.19141
G1 X-24.200 Y-17.249 E22.24346
G1 X-23.569 Y-17.434 E22.28738
G1 X-22.918 Y-17.583 E22.33194
G1 X-22.156 Y-17.688 E22.38334
G1 X-21.234 Y-17.740 E22.44503
G1 X-0.120 Y-17.740 E23.85558
G1 E21.85558 F1800.00000
M103 ; extruder off
G1 X11.156 Y10.368 F9000.000
M101 ; extruder on
G1 E23.85558 F1800.00000
G1 X-21.202 Y10.368 E26.01725 F2160.000
G1 X-21.515 Y10.344 E26.03824
G1 X-21.786 Y10.281 E26.05681
G1 X-22.096 Y10.153 E26.07919
G1 X-22.282 Y10.039 E26.09377
G1 X-22.581 Y9.780 E26.12019
G1 X-22.724 Y9.614 E26.13482
G1 X-22.896 Y9.328 E26.15710
G1 X-23.001 Y9.067 E26.17590
G1 X-23.055 Y8.844 E26.19123
G1 X-23.089 Y8.476 E26.21597
G1 X-23.089 Y-8.482 E27.34882
G1 X-23.065 Y-8.795 E27.36980
G1 X-23.001 Y-9.066 E27.38837
G1 X-22.873 Y-9.375 E27.41076
G1 X-22.759 Y-9.561 E27.42533
G1 X-22.501 Y-9.861 E27.45175
G1 X-22.334 Y-10.003 E27.46639
G1 X-22.049 Y-10.176 E27.48866
G1 X-21.788 Y-10.281 E27.50747
G1 X-21.565 Y-10.334 E27.52280
G1 X-21.196 Y-10.368 E27.54753
G1 X21.260 Y-10.364 E30.38383
M101 ; extruder on
G1 X21.515 Y-10.344 E30.40088 F2160.000
G1 X21.790 Y-10.280 E30.41977
G1 X22.049 Y-10.176 E30.43842
G1 X22.334 Y-10.004 E30.46064
G1 X22.544 Y-9.823 E30.47914
G1 X22.724 Y-9.613 E30.49763
G1 X22.896 Y-9.328 E30.51986
G1 X23.001 Y-9.067 E30.53866
G1 X23.055 Y-8.844 E30.55399
G1 X23.089 Y-8.476 E30.57872
G1 X23.085 Y8.540 E31.71544
G1 X23.065 Y8.794 E31.73250
G1 X23.001 Y9.066 E31.75112
G1 X22.873 Y9.375 E31.77351
G1 X22.759 Y9.561 E31.78808
G1 X22.501 Y9.861 E31.81451
G1 X22.334 Y10.003 E31.82914
G1 X22.049 Y10.176 E31.85142
G1 X21.788 Y10.281 E31.87022
G1 X21.565 Y10.334 E31.88555
G1 X21.196 Y10.368 E31.91028
G1 X11.216 Y10.368 E32.57703
G1 X11.216 Y10.904 F9000.000
M101 ; extruder on
G1 X-21.223 Y10.904 E34.74408 F1080.000
G1 X-21.597 Y10.875 E34.76919
G1 X-21.951 Y10.792 E34.79343
G1 X-22.340 Y10.631 E34.82155
G1 X-22.598 Y10.473 E34.84183
G1 X-22.962 Y10.159 E34.87389
G1 X-23.159 Y9.928 E34.89419
G1 X-23.377 Y9.569 E34.92227
G1 X-23.513 Y9.231 E34.94659
G1 X-23.585 Y8.932 E34.96714
G1 X-23.624 Y8.500 E34.99610
G1 X-23.624 Y-8.502 E36.13196
G1 X-23.595 Y-8.877 E36.15707
G1 X-23.513 Y-9.230 E36.18131
G1 X-23.352 Y-9.619 E36.20942
G1 X-23.193 Y-9.878 E36.22971
G1 X-22.880 Y-10.242 E36.26176
G1 X-22.649 Y-10.439 E36.28207
G1 X-22.289 Y-10.656 E36.31015
G1 X-21.951 Y-10.792 E36.33447
G1 X-21.652 Y-10.864 E36.35502
G1 X-21.221 Y-10.904 E36.38398
G1 X21.281 Y-10.900 E39.22332
M101 ; extruder on
G1 X21.597 Y-10.875 E39.24450 F1080.000
G1 X21.952 Y-10.792 E39.26885
G1 X22.289 Y-10.656 E39.29311
G1 X22.648 Y-10.439 E39.32117
G1 X22.924 Y-10.203 E39.34538
G1 X23.160 Y-9.928 E39.36959
G1 X23.377 Y-9.569 E39.39765
G1 X23.513 Y-9.231 E39.42197
G1 X23.585 Y-8.932 E39.44253
G1 X23.624 Y-8.500 E39.47148
G1 X23.620 Y8.561 E40.61125
G1 X23.596 Y8.877 E40.63242
G1 X23.513 Y9.230 E40.65668
G1 X23.352 Y9.619 E40.68480
G1 X23.193 Y9.878 E40.70508
G1 X22.880 Y10.242 E40.73714
G1 X22.649 Y10.439 E40.75744
G1 X22.289 Y10.656 E40.78552
G1 X21.951 Y10.792 E40.80984
G1 X21.652 Y10.864 E40.83040
G1 X21.221 Y10.904 E40.85935
G1 X11.276 Y10.904 E41.52373
G1 X11.016 Y10.558 F9000.000
G1 E39.52373 F1800.00000
M103 ; extruder off
G1 X22.493 Y-9.229 F9000.000
M101 ; extruder on
G1 E41.52373 F1800.00000
G1 X21.949 Y-9.772 E41.57555 F4320.000
G1 X20.914 Y-10.043 E41.64765
G1 X22.767 Y-8.190 E41.82426
G1 X22.767 Y-7.426 E41.87576
G1 X20.150 Y-10.043 E42.12523
G1 X19.386 Y-10.043 E42.17675
G1 X22.767 Y-6.662 E42.49906
G1 X22.766 Y-5.898 E42.55057
G1 X18.621 Y-10.043 E42.94573
G1 X17.857 Y-10.043 E42.99726
G1 X22.766 Y-5.134 E43.46527
G1 X22.766 Y-4.370 E43.51678
G1 X17.092 Y-10.043 E44.05765
G1 X16.328 Y-10.043 E44.10917
G1 X22.766 Y-3.605 E44.72289
G1 X22.766 Y-2.841 E44.77439
G1 X15.564 Y-10.043 E45.46096
G1 X14.799 Y-10.043 E45.51249
G1 X22.766 Y-2.077 E46.27190
G1 X22.765 Y-1.313 E46.32341
G1 X14.035 Y-10.043 E47.15568
G1 X13.271 Y-10.044 E47.20720
G1 X22.765 Y-0.549 E48.11232
G1 X22.765 Y0.215 E48.16383
G1 X12.506 Y-10.044 E49.14180
G1 X11.742 Y-10.044 E49.19332
G1 X22.765 Y0.979 E50.24414
G1 X22.765 Y1.744 E50.29565
G1 X10.977 Y-10.044 E51.41932
G1 X10.213 Y-10.044 E51.47085
G1 X22.765 Y2.508 E52.66737
G1 X22.764 Y3.272 E52.71888
G1 X9.449 Y-10.044 E53.98825
G1 X8.684 Y-10.044 E54.03977
G1 X22.764 Y4.036 E55.38200
G1 X22.764 Y4.800 E55.43350
G1 X7.920 Y-10.044 E56.84858
G1 X7.156 Y-10.044 E56.90010
G1 X22.764 Y5.564 E58.38803
G1 X22.764 Y6.328 E58.43953
G1 X6.391 Y-10.044 E60.00031
G1 X5.627 Y-10.044 E60.05183
G1 X22.764 Y7.093 E61.68546
G1 X22.763 Y7.857 E61.73697
G1 X4.862 Y-10.044 E63.44344
G1 X4.098 Y-10.044 E63.49497
G1 X22.763 Y8.621 E65.27430
G1 X22.618 Y9.240 E65.31718
G1 X3.334 Y-10.044 E67.15558
G1 X2.569 Y-10.044 E67.20711
G1 X22.279 Y9.665 E69.08597
G1 X21.811 Y9.962 E69.12329
G1 X1.805 Y-10.045 E71.03045
G1 X1.041 Y-10.045 E71.08198
G1 X21.132 Y10.047 E72.99726
G1 X20.367 Y10.047 E73.04878
G1 X0.276 Y-10.045 E74.96406
G1 X-0.488 Y-10.045 E75.01558
G1 X19.603 Y10.047 E76.93087
G1 X18.839 Y10.047 E76.98239
G1 X-1.253 Y-10.045 E78.89769
G1 X-2.017 Y-10.045 E78.94922
G1 X18.075 Y10.047 E80.86452
G1 X17.310 Y10.047 E80.91604
G1 X-2.781 Y-10.045 E82.83135
G1 X-3.546 Y-10.045 E82.88288
G1 X16.546 Y10.047 E84.79819
G1 X15.782 Y10.047 E84.84971
G1 X-4.310 Y-10.045 E86.76504
G1 X-5.075 Y-10.045 E86.81656
G1 X15.017 Y10.047 E88.73189
G1 X14.253 Y10.047 E88.78341
G1 X-5.839 Y-10.045 E90.69875
G1 X-6.603 Y-10.045 E90.75027
G1 X13.489 Y10.047 E92.66562
G1 X12.724 Y10.047 E92.71714
G1 X-7.368 Y-10.045 E94.63249
G1 X-8.132 Y-10.045 E94.68401
G1 X11.960 Y10.047 E96.59937
G1 X11.196 Y10.047 E96.65089
G1 X-8.896 Y-10.046 E98.56625
G1 X-9.661 Y-10.046 E98.61778
G1 X10.431 Y10.047 E100.53315
G1 X9.667 Y10.047 E100.58467
G1 X-10.425 Y-10.046 E102.50004
G1 X-11.190 Y-10.046 E102.55157
G1 X8.903 Y10.047 E104.46695
G1 X8.139 Y10.047 E104.51847
G1 X-11.954 Y-10.046 E106.43386
G1 X-12.718 Y-10.046 E106.48538
G1 X7.374 Y10.047 E108.40078
G1 X6.610 Y10.047 E108.45230
G1 X-13.483 Y-10.046 E110.36770
G1 X-14.247 Y-10.046 E110.41923
G1 X5.846 Y10.047 E112.33464
G1 X5.081 Y10.047 E112.38616
G1 X-15.011 Y-10.046 E114.30157
G1 X-15.776 Y-10.046 E114.35310
G1 X4.317 Y10.047 E116.26852
G1 X3.553 Y10.047 E116.32004
G1 X-16.540 Y-10.046 E118.23547
G1 X-17.305 Y-10.046 E118.28699
G1 X2.788 Y10.047 E120.20243
G1 X2.024 Y10.047 E120.25395
G1 X-18.069 Y-10.046 E122.16939
G1 X-18.833 Y-10.046 E122.22092
G1 X1.260 Y10.047 E124.13637
G1 X0.495 Y10.047 E124.18789
G1 X-19.598 Y-10.047 E126.10334
G1 X-20.362 Y-10.047 E126.15487
G1 X-0.269 Y10.047 E128.07033
G1 X-1.033 Y10.047 E128.12185
G1 X-21.126 Y-10.047 E130.03732
G1 X-21.807 Y-9.963 E130.08355
G1 X-1.797 Y10.047 E131.99106
G1 X-2.562 Y10.047 E132.04258
G1 X-22.276 Y-9.667 E133.92190
G1 X-22.617 Y-9.244 E133.95854
G1 X-3.326 Y10.047 E135.79751
G1 X-4.090 Y10.047 E135.84903
G1 X-22.763 Y-8.626 E137.62910
G1 X-22.767 Y-7.866 E137.68038
G1 X-4.855 Y10.047 E139.38794
G1 X-5.619 Y10.047 E139.43946
G1 X-22.767 Y-7.101 E141.07416
G1 X-22.767 Y-6.337 E141.12568
G1 X-6.383 Y10.047 E142.68752
G1 X-7.148 Y10.047 E142.73904
G1 X-22.767 Y-5.573 E144.22801
G1 X-22.767 Y-4.808 E144.27953
G1 X-7.912 Y10.047 E145.69565
G1 X-8.676 Y10.047 E145.74717
G1 X-22.767 Y-4.044 E147.09043
G1 X-22.767 Y-3.280 E147.14195
G1 X-9.441 Y10.047 E148.41235
G1 X-10.205 Y10.047 E148.46387
G1 X-22.767 Y-2.516 E149.66140
G1 X-22.767 Y-1.751 E149.71292
G1 X-10.969 Y10.047 E150.83760
G1 X-11.733 Y10.047 E150.88912
G1 X-22.767 Y-0.987 E151.94093
G1 X-22.767 Y-0.223 E151.99245
G1 X-12.498 Y10.047 E152.97141
G1 X-13.262 Y10.047 E153.02293
G1 X-22.767 Y0.542 E153.92902
G1 X-22.767 Y1.306 E153.98054
G1 X-14.026 Y10.047 E154.81378
G1 X-14.791 Y10.047 E154.86530
G1 X-22.767 Y2.070 E155.62567
G1 X-22.767 Y2.835 E155.67719
G1 X-15.555 Y10.047 E156.36470
G1 X-16.319 Y10.047 E156.41622
G1 X-22.767 Y3.599 E157.03088
G1 X-22.767 Y4.363 E157.08240
G1 X-17.084 Y10.047 E157.62419
G1 X-17.848 Y10.047 E157.67571
G1 X-22.767 Y5.128 E158.14464
G1 X-22.767 Y5.892 E158.19616
G1 X-18.612 Y10.047 E158.59223
G1 X-19.377 Y10.047 E158.64375
G1 X-22.767 Y6.656 E158.96696
G1 X-22.767 Y7.420 E159.01848
G1 X-20.141 Y10.047 E159.26883
G1 X-20.905 Y10.047 E159.32035
G1 X-22.767 Y8.185 E159.49784
G1 X-22.501 Y9.215 E159.56958
G1 X-21.954 Y9.762 E159.62173
M126
M104 S220 T0 ; set temperature
M73 P1
G1 Z0.500 F9000.000
(**** New Layer ****)
G1 E157.62173 F1800.00000
M103 ; extruder off
G1 X-0.354 Y-10.756 F9000.000
M101 ; extruder on
G1 E159.62173 F1800.00000
G1 X21.364 Y-10.751 E160.75635 F2400.000
M101 ; extruder on
G1 X21.559 Y-10.736 E160.76661 F2400.000
G1 X21.881 Y-10.663 E160.78381
G1 X22.180 Y-10.548 E160.80056
G1 X22.581 Y-10.309 E160.82497
G1 X22.822 Y-10.102 E160.84157
G1 X23.030 Y-9.861 E160.85817
G1 X23.268 Y-9.459 E160.88258
G1 X23.385 Y-9.156 E160.89960
G1 X23.435 Y-8.948 E160.91074
G1 X23.482 Y-8.488 E160.93488
G1 X23.482 Y8.488 E161.82183
G1 X23.456 Y8.841 E161.84028
G1 X23.384 Y9.160 E161.85740
G1 X23.268 Y9.459 E161.87415
G1 X23.030 Y9.861 E161.89856
G1 X22.822 Y10.102 E161.91516
G1 X22.581 Y10.309 E161.93176
G1 X22.180 Y10.548 E161.95617
G1 X21.876 Y10.665 E161.97318
G1 X21.669 Y10.715 E161.98432
G1 X21.209 Y10.761 E162.00847
G1 X-21.209 Y10.761 E164.22456
G1 X-21.561 Y10.735 E164.24302
G1 X-21.881 Y10.663 E164.26013
G1 X-22.186 Y10.545 E164.27724
