; generated by Slic3r 1.2.9 on 2016-04-25 at 00:05:48

; external perimeters extrusion width = 0.40mm
; perimeters extrusion width = 0.67mm
; infill extrusion width = 0.67mm
; solid infill extrusion width = 0.67mm
; top infill extrusion width = 0.67mm

M127
M104 S230 T0 ; set temperature
(**** Start.gcode for Replicator 2 ****)
M103 ;disable RPM
M73 P0 ;enable build progress
G21 ;set units to mm
G90 ;set positioning to absolute
(**** begin homing ****)
G162 X Y F2500 ;home XY axes maximum
G161 Z F1100 ;home Z axis minimum
G92 Z-5 ;set Z to -5
G1 Z0.0 ;move Z to "0"
G161 Z F100 ;home Z axis minimum
M132 X Y Z A B ;Recall stored home offsets for XYZAB axis
(**** end homing ****)
G1 X-141 Y-74 Z75 F3300.0 ;move to waiting position
G130 X20 Y20 Z20 A20 B20 ;Lower stepper Vrefs while heating
M6 T0 ;wait for toolhead, and HBP to reach temperature
M70 P5 (We Be Making Things!)
G130 X127 Y127 Z40 A127 B127 ;Set Stepper motor Vref to defaults
M108 R3.0 T0
G0 X-141 Y-74 ;Position Nozzle
G0 Z1 ;Move above plate
G1 Z0.3 ;Position Height
M108 R5.0 ;Set Extruder Speed
M101 ;Start Extruder
G4 P3000 ;Create Anchor
G1 X-137 Y-70 Z0.1 F1000.0 ;Slow wipe
G0 Z0.3 ;and lift
(**** end of Start.gcode ****)
M73 P0
G1 Z0.300 F9000.000
(**** New Layer ****)
G1 E-2.00000 F1800.00000
M103 ; extruder off
G1 X56.062 Y12.513 F9000.000
M101 ; extruder on
G1 E0.00000 F1800.00000
G1 X45.793 Y58.521 E3.14918 F4320.000
G1 X45.624 Y59.153 E3.19292
G1 X45.309 Y60.170 E3.26401
G1 X45.006 Y60.979 E3.32176
G1 X44.547 Y62.007 E3.39694
G1 X44.179 Y62.721 E3.45062
G1 X43.570 Y63.739 E3.52986
G1 X43.156 Y64.355 E3.57948
G1 X42.393 Y65.342 E3.66279
G1 X42.099 Y65.693 E3.69337
G1 X41.677 Y66.148 E3.73485
G1 X41.033 Y66.793 E3.79574
G1 X40.577 Y67.215 E3.83721
G1 X39.509 Y68.071 E3.92867
G1 X39.057 Y68.401 E3.96607
G1 X38.623 Y68.686 E4.00072
G1 X37.409 Y69.403 E4.09493
G1 X36.891 Y69.662 E4.13365
G1 X35.864 Y70.121 E4.20880
G1 X35.054 Y70.425 E4.26658
G1 X34.184 Y70.696 E4.32747
G1 X33.822 Y70.802 E4.35264
G1 X33.139 Y70.963 E4.39951
G1 X31.931 Y71.181 E4.48150
G1 X31.174 Y71.268 E4.53244
G1 X29.613 Y71.348 E4.63684
G1 X-41.641 Y71.348 E9.39697
G1 X-43.201 Y71.268 E9.50137
G1 X-44.180 Y71.143 E9.56728
G1 X-45.167 Y70.963 E9.63429
G1 X-45.850 Y70.802 E9.68116
G1 X-47.081 Y70.425 E9.76722
G1 X-47.684 Y70.207 E9.81002
G1 X-48.918 Y69.662 E9.90015
G1 X-49.437 Y69.403 E9.93887
G1 X-50.651 Y68.686 E10.03308
G1 X-51.267 Y68.271 E10.08271
G1 X-52.254 Y67.509 E10.16602
G1 X-52.772 Y67.065 E10.21157
G1 X-53.705 Y66.148 E10.29895
G1 X-54.127 Y65.693 E10.34043
G1 X-54.420 Y65.342 E10.37100
G1 X-55.313 Y64.173 E10.46928
G1 X-56.069 Y62.959 E10.56481
G1 X-56.315 Y62.525 E10.59813
G1 X-56.574 Y62.006 E10.63686
G1 X-57.033 Y60.979 E10.71202
G1 X-57.337 Y60.170 E10.76979
G1 X-57.608 Y59.299 E10.83068
G1 X-57.714 Y58.938 E10.85585
G1 X-57.874 Y58.255 E10.90272
G1 X-58.092 Y57.047 E10.98471
G1 X-58.179 Y56.290 E11.03564
G1 X-58.249 Y55.125 E11.11356
G1 X-60.823 Y-12.994 E15.66756
G1 X-60.817 Y-57.571 E18.64552
G1 X-60.756 Y-58.447 E18.70417
G1 X-60.687 Y-58.994 E18.74106
G1 X-60.520 Y-59.867 E18.80038
G1 X-60.383 Y-60.401 E18.83727
G1 X-60.109 Y-61.246 E18.89659
G1 X-59.905 Y-61.759 E18.93348
G1 X-59.527 Y-62.563 E18.99279
G1 X-59.261 Y-63.047 E19.02969
G1 X-58.785 Y-63.796 E19.08901
G1 X-58.461 Y-64.243 E19.12589
G1 X-57.895 Y-64.927 E19.18522
G1 X-57.517 Y-65.330 E19.22210
G1 X-56.869 Y-65.938 E19.28143
G1 X-56.444 Y-66.290 E19.31832
G1 X-55.726 Y-66.812 E19.37764
G1 X-55.260 Y-67.107 E19.41452
G1 X-54.481 Y-67.535 E19.47385
G1 X-53.982 Y-67.770 E19.51074
G1 X-53.156 Y-68.097 E19.57005
G1 X-52.631 Y-68.268 E19.60694
G1 X-51.771 Y-68.489 E19.66627
G1 X-51.228 Y-68.592 E19.70316
G1 X-50.408 Y-68.699 E19.75844
G1 X-49.622 Y-68.750 E19.81108
G1 X34.522 Y-71.955 E25.43641
G1 X36.872 Y-71.647 E25.59474
M101 ; extruder on
G1 X39.879 Y-69.800 E25.83050 F4320.000
G1 X41.374 Y-68.247 E25.97450
G1 X42.688 Y-66.804 E26.10487
G1 X44.226 Y-65.015 E26.26250
G1 X45.455 Y-63.499 E26.39287
G1 X46.765 Y-61.787 E26.53688
G1 X48.026 Y-60.039 E26.68087
G1 X49.193 Y-58.319 E26.81973
G1 X50.500 Y-56.263 E26.98250
G1 X51.600 Y-54.409 E27.12650
G1 X52.549 Y-52.704 E27.25688
G1 X53.545 Y-50.792 E27.40087
G1 X54.572 Y-48.668 E27.55850
G1 X55.370 Y-46.887 E27.68888
G1 X56.197 Y-44.896 E27.83287
G1 X57.035 Y-42.691 E27.99050
G1 X57.764 Y-40.581 E28.13963
G1 X58.387 Y-38.597 E28.27850
G1 X58.920 Y-36.720 E28.40887
G1 X59.499 Y-34.433 E28.56651
G1 X59.924 Y-32.528 E28.69687
G1 X60.320 Y-30.487 E28.83574
G1 X60.683 Y-28.285 E28.98488
G1 X60.971 Y-26.149 E29.12887
G1 X61.215 Y-23.802 E29.28651
G1 X61.361 Y-21.856 E29.41689
G1 X61.463 Y-19.703 E29.56087
G1 X61.503 Y-17.548 E29.70487
G1 X61.475 Y-15.188 E29.86250
G1 X61.395 Y-13.238 E29.99288
G1 X61.248 Y-11.088 E30.13688
G1 X61.096 Y-10.039 E30.20767
G1 X56.075 Y12.455 E31.74735
G1 X55.552 Y12.338 F9000.000
M101 ; extruder on
G1 X45.270 Y58.404 E34.90054 F4320.000
G1 X45.110 Y59.005 E34.94210
G1 X44.798 Y60.010 E35.01242
G1 X44.511 Y60.774 E35.06693
G1 X44.058 Y61.787 E35.14102
G1 X43.819 Y62.266 E35.17680
G1 X43.583 Y62.682 E35.20874
G1 X43.111 Y63.462 E35.26963
G1 X42.719 Y64.046 E35.31663
G1 X41.971 Y65.012 E35.39824
G1 X41.550 Y65.503 E35.44148
G1 X40.654 Y66.414 E35.52685
G1 X40.220 Y66.815 E35.56632
G1 X39.178 Y67.649 E35.65547
G1 X38.747 Y67.964 E35.69117
G1 X38.346 Y68.227 E35.72319
G1 X37.150 Y68.934 E35.81601
G1 X36.671 Y69.174 E35.85180
G1 X35.840 Y69.548 E35.91270
G1 X35.451 Y69.712 E35.94085
G1 X34.895 Y69.914 E35.98042
G1 X33.674 Y70.288 E36.06570
G1 X33.043 Y70.436 E36.10902
G1 X31.842 Y70.653 E36.19055
G1 X31.141 Y70.733 E36.23764
G1 X29.613 Y70.812 E36.33988
G1 X-41.641 Y70.812 E41.10000
G1 X-43.169 Y70.733 E41.20224
G1 X-44.090 Y70.615 E41.26429
G1 X-45.070 Y70.436 E41.33084
G1 X-45.701 Y70.288 E41.37416
G1 X-46.922 Y69.914 E41.45944
G1 X-47.479 Y69.712 E41.49901
G1 X-48.698 Y69.174 E41.58806
G1 X-49.177 Y68.934 E41.62384
G1 X-50.374 Y68.227 E41.71667
G1 X-50.957 Y67.835 E41.76367
G1 X-51.923 Y67.087 E41.84528
G1 X-52.415 Y66.666 E41.88851
G1 X-53.326 Y65.770 E41.97389
G1 X-53.999 Y65.012 E42.04160
G1 X-54.746 Y64.046 E42.12321
G1 X-55.139 Y63.462 E42.17021
G1 X-55.846 Y62.266 E42.26303
G1 X-56.086 Y61.787 E42.29882
G1 X-56.460 Y60.955 E42.35971
G1 X-56.624 Y60.567 E42.38788
G1 X-56.826 Y60.010 E42.42743
G1 X-57.199 Y58.790 E42.51273
G1 X-57.348 Y58.158 E42.55604
G1 X-57.564 Y56.957 E42.63757
G1 X-57.645 Y56.257 E42.68465
G1 X-57.714 Y55.095 E42.76241
G1 X-60.288 Y-12.994 E47.31442
G1 X-60.282 Y-57.549 E50.29091
G1 X-60.224 Y-58.379 E50.34652
G1 X-60.155 Y-58.927 E50.38340
G1 X-60.002 Y-59.733 E50.43823
G1 X-59.864 Y-60.268 E50.47512
G1 X-59.611 Y-61.049 E50.52995
G1 X-59.407 Y-61.562 E50.56683
G1 X-59.058 Y-62.305 E50.62166
G1 X-58.792 Y-62.789 E50.65855
G1 X-58.352 Y-63.482 E50.71338
G1 X-58.028 Y-63.928 E50.75027
G1 X-57.504 Y-64.561 E50.80509
G1 X-57.126 Y-64.963 E50.84198
G1 X-56.528 Y-65.525 E50.89682
G1 X-56.103 Y-65.877 E50.93370
G1 X-55.439 Y-66.359 E50.98853
G1 X-54.973 Y-66.655 E51.02541
G1 X-54.164 Y-67.093 E51.08686
G1 X-53.754 Y-67.286 E51.11712
G1 X-52.991 Y-67.588 E51.17195
G1 X-52.465 Y-67.759 E51.20884
G1 X-51.670 Y-67.963 E51.26367
G1 X-51.128 Y-68.066 E51.30055
G1 X-50.370 Y-68.165 E51.35165
G1 X-49.601 Y-68.215 E51.40310
G1 X34.543 Y-71.420 E57.02843
G1 X36.799 Y-71.108 E57.18060
M101 ; extruder on
G1 X39.494 Y-69.428 E57.39277 F4320.000
G1 X40.978 Y-67.886 E57.53573
G1 X42.417 Y-66.302 E57.67870
G1 X43.810 Y-64.677 E57.82167
G1 X45.039 Y-63.161 E57.95204
G1 X46.452 Y-61.311 E58.10760
G1 X47.591 Y-59.726 E58.23796
G1 X48.792 Y-57.955 E58.38094
G1 X50.040 Y-55.989 E58.53650
G1 X51.132 Y-54.148 E58.67947
G1 X52.081 Y-52.443 E58.80984
G1 X53.154 Y-50.377 E58.96540
G1 X54.083 Y-48.449 E59.10837
G1 X54.881 Y-46.668 E59.23875
G1 X55.702 Y-44.691 E59.38171
G1 X56.530 Y-42.515 E59.53727
G1 X57.253 Y-40.419 E59.68536
G1 X57.871 Y-38.451 E59.82321
G1 X58.405 Y-36.574 E59.95357
G1 X58.977 Y-34.316 E60.10915
G1 X59.401 Y-32.412 E60.23951
G1 X59.794 Y-30.386 E60.37734
G1 X60.155 Y-28.199 E60.52545
G1 X60.440 Y-26.078 E60.66841
G1 X60.681 Y-23.762 E60.82398
G1 X60.827 Y-21.816 E60.95436
G1 X60.928 Y-19.678 E61.09731
G1 X60.967 Y-17.538 E61.24028
G1 X60.940 Y-15.210 E61.39585
G1 X60.860 Y-13.260 E61.52623
G1 X60.714 Y-11.125 E61.66919
G1 X60.573 Y-10.156 E61.73462
G1 X55.565 Y12.279 E63.27029
G1 E61.27029 F1800.00000
M103 ; extruder off
G1 X-20.432 Y-8.487 F9000.000
M101 ; extruder on
G1 E63.27029 F1800.00000
G1 X-20.589 Y-8.331 E63.28510 F4320.000
G1 X-49.357 Y-8.331 E65.20698
G1 X-49.930 Y-8.369 E65.24537
G1 X-50.504 Y-8.478 E65.28439
G1 X-51.012 Y-8.633 E65.31985
G1 X-51.592 Y-8.906 E65.36269
G1 X-52.101 Y-9.229 E65.40295
G1 X-52.552 Y-9.603 E65.44208
G1 X-52.952 Y-10.031 E65.48121
G1 X-53.295 Y-10.506 E65.52035
G1 X-53.577 Y-11.020 E65.55948
G1 X-53.791 Y-11.565 E65.59861
G1 X-53.933 Y-12.116 E65.63662
G1 X-54.007 Y-12.693 E65.67554
G1 X-54.020 Y-12.995 E65.69571
G1 X-54.020 Y-57.287 E68.65465
G1 X-54.007 Y-57.589 E68.67483
G1 X-53.933 Y-58.167 E68.71374
G1 X-53.786 Y-58.734 E68.75287
G1 X-53.569 Y-59.278 E68.79201
G1 X-53.286 Y-59.791 E68.83114
G1 X-52.941 Y-60.264 E68.87027
G1 X-52.539 Y-60.690 E68.90940
G1 X-52.087 Y-61.063 E68.94854
G1 X-51.592 Y-61.376 E68.98767
G1 X-51.062 Y-61.624 E69.02680
G1 X-50.504 Y-61.804 E69.06593
G1 X-49.930 Y-61.913 E69.10495
G1 X-49.366 Y-61.951 E69.14274
G1 X-43.622 Y-61.943 E69.52648
M101 ; extruder on
G1 X-20.589 Y-61.952 E71.06522 F4320.000
G1 X-20.432 Y-61.795 E71.08004
G1 X-20.432 Y-8.547 E74.63724
G1 E72.63724 F1800.00000
M103 ; extruder off
G1 X-15.064 Y-12.255 F9000.000
M101 ; extruder on
G1 E74.63724 F1800.00000
G1 X-15.556 Y-12.967 E74.69505 F4320.000
G1 X-16.027 Y-13.753 E74.75624
G1 X-16.455 Y-14.582 E74.81857
G1 X-16.826 Y-15.429 E74.88033
G1 X-17.139 Y-16.289 E74.94152
G1 X-17.399 Y-17.176 E75.00328
G1 X-17.604 Y-18.087 E75.06561
G1 X-17.748 Y-18.991 E75.12680
G1 X-17.835 Y-19.912 E75.18856
G1 X-17.863 Y-20.836 E75.25032
G1 X-17.831 Y-21.768 E75.31265
G1 X-17.740 Y-22.688 E75.37441
G1 X-17.593 Y-23.592 E75.43560
G1 X-17.386 Y-24.493 E75.49736
G1 X-17.122 Y-25.379 E75.55912
G1 X-16.800 Y-26.255 E75.62145
G1 X-16.425 Y-27.100 E75.68321
G1 X-16.001 Y-27.912 E75.74440
G1 X-15.522 Y-28.703 E75.80615
G1 X-14.989 Y-29.468 E75.86849
G1 X-14.412 Y-30.191 E75.93025
G1 X-13.797 Y-30.869 E75.99143
G1 X-13.134 Y-31.514 E76.05319
G1 X-12.431 Y-32.114 E76.11495
G1 X-11.604 Y-32.734 E76.18401
G1 X-11.258 Y-32.679 E76.20738
G1 X-11.055 Y-32.725 E76.22132
G1 X28.046 Y-60.112 E79.41045
G1 X28.165 Y-60.319 E79.42639
G1 X28.188 Y-60.592 E79.44475
G1 X34.719 Y-65.165 E79.97731
G1 X34.915 Y-65.146 E79.99052
M101 ; extruder on
G1 X36.343 Y-63.667 E80.12787 F4320.000
G1 X37.660 Y-62.221 E80.25849
G1 X38.939 Y-60.732 E80.38963
G1 X40.173 Y-59.210 E80.52051
G1 X41.362 Y-57.653 E80.65139
G1 X42.503 Y-56.066 E80.78201
G1 X43.603 Y-54.440 E80.91315
G1 X44.653 Y-52.786 E81.04403
G1 X45.652 Y-51.105 E81.17465
G1 X46.605 Y-49.393 E81.30553
G1 X47.508 Y-47.655 E81.43641
G1 X48.361 Y-45.891 E81.56729
G1 X49.162 Y-44.103 E81.69817
G1 X49.911 Y-42.293 E81.82905
G1 X50.607 Y-40.462 E81.95993
G1 X51.251 Y-38.611 E82.09081
G1 X51.841 Y-36.743 E82.22169
G1 X52.376 Y-34.859 E82.35257
G1 X52.857 Y-32.959 E82.48345
G1 X53.283 Y-31.047 E82.61432
G1 X53.654 Y-29.123 E82.74521
G1 X53.969 Y-27.190 E82.87609
G1 X54.228 Y-25.248 E83.00696
G1 X54.430 Y-23.299 E83.13784
G1 X54.577 Y-21.346 E83.26872
G1 X54.667 Y-19.389 E83.39960
G1 X54.700 Y-17.430 E83.53048
G1 X54.677 Y-15.471 E83.66136
G1 X54.597 Y-13.513 E83.79224
G1 X54.455 Y-11.462 E83.92959
G1 X54.316 Y-11.321 E83.94280
G1 X46.375 Y-10.626 E84.47536
G1 X46.180 Y-10.821 E84.49372
G1 X45.956 Y-10.903 E84.50966
G1 X-1.600 Y-6.749 E87.69879
G1 X-1.786 Y-6.654 E87.71274
G1 X-2.015 Y-6.389 E87.73611
G1 X-3.039 Y-6.333 E87.80459
G1 X-3.963 Y-6.340 E87.86635
G1 X-4.885 Y-6.407 E87.92811
G1 X-5.762 Y-6.527 E87.98719
G1 X-6.716 Y-6.718 E88.05219
G1 X-7.600 Y-6.957 E88.11338
G1 X-8.475 Y-7.254 E88.17514
G1 X-9.330 Y-7.607 E88.23690
G1 X-10.160 Y-8.013 E88.29866
G1 X-10.970 Y-8.476 E88.36099
G1 X-11.742 Y-8.985 E88.42275
G1 X-12.479 Y-9.543 E88.48451
G1 X-13.179 Y-10.146 E88.54627
G1 X-13.840 Y-10.793 E88.60803
G1 X-14.458 Y-11.481 E88.66979
G1 X-15.030 Y-12.206 E88.73149
G1 E86.73149 F1800.00000
M103 ; extruder off
G1 X-14.996 Y-1.414 F9000.000
M101 ; extruder on
G1 E88.73149 F1800.00000
G1 X29.594 Y-1.553 E91.71035 F4320.000
M101 ; extruder on
G1 X30.742 Y-1.488 E91.78719 F4320.000
G1 X30.988 Y-1.448 E91.80382
G1 X31.907 Y-1.281 E91.86623
G1 X33.025 Y-0.941 E91.94430
G1 X34.084 Y-0.474 E92.02163
G1 X34.303 Y-0.355 E92.03827
G1 X35.100 Y0.125 E92.10044
G1 X36.028 Y0.836 E92.17851
G1 X36.859 Y1.646 E92.25606
G1 X37.026 Y1.831 E92.27269
G1 X37.733 Y2.750 E92.35018
G1 X38.331 Y3.754 E92.42824
G1 X38.806 Y4.822 E92.50631
G1 X39.084 Y5.712 E92.56864
G1 X39.153 Y5.952 E92.58527
G1 X39.360 Y7.103 E92.66342
G1 X39.429 Y8.259 E92.74076
G1 X39.429 Y54.733 E95.84546
G1 X39.416 Y54.969 E95.86126
G1 X39.359 Y55.900 E95.92361
G1 X39.151 Y57.048 E96.00153
G1 X38.808 Y58.163 E96.07945
G1 X38.340 Y59.219 E96.15663
G1 X37.740 Y60.232 E96.23527
G1 X37.035 Y61.150 E96.31260
G1 X36.869 Y61.335 E96.32921
G1 X36.041 Y62.145 E96.40661
G1 X35.116 Y62.855 E96.48451
G1 X34.321 Y63.336 E96.54656
G1 X34.104 Y63.456 E96.56316
G1 X33.047 Y63.924 E96.64035
G1 X31.932 Y64.267 E96.71826
G1 X31.015 Y64.435 E96.78054
G1 X30.770 Y64.476 E96.79715
G1 X29.617 Y64.545 E96.87433
G1 X-41.644 Y64.545 E101.63497
G1 X-42.812 Y64.474 E101.71312
G1 X-43.960 Y64.267 E101.79104
G1 X-45.075 Y63.924 E101.86895
G1 X-46.131 Y63.456 E101.94613
G1 X-47.143 Y62.855 E102.02478
G1 X-48.068 Y62.145 E102.10268
G1 X-48.247 Y61.985 E102.11871
G1 X-49.057 Y61.156 E102.19611
G1 X-49.767 Y60.232 E102.27401
G1 X-50.363 Y59.229 E102.35192
G1 X-50.836 Y58.163 E102.42984
G1 X-51.178 Y57.048 E102.50776
G1 X-51.388 Y55.886 E102.58664
G1 X-51.456 Y54.733 E102.66382
G1 X-51.456 Y8.472 E105.75426
G1 X-51.390 Y7.335 E105.83036
G1 X-51.189 Y6.202 E105.90724
G1 X-50.857 Y5.100 E105.98413
G1 X-50.399 Y4.044 E106.06101
G1 X-49.820 Y3.050 E106.13790
G1 X-49.129 Y2.130 E106.21478
G1 X-48.334 Y1.297 E106.29167
G1 X-47.448 Y0.563 E106.36855
G1 X-46.482 Y-0.063 E106.44543
G1 X-45.449 Y-0.571 E106.52232
G1 X-44.364 Y-0.954 E106.59920
G1 X-43.226 Y-1.211 E106.67712
G1 X-42.085 Y-1.330 E106.75380
G1 X-15.056 Y-1.414 E108.55946
G1 E106.55946 F1800.00000
M103 ; extruder off
G1 X-21.000 Y-8.898 F9000.000
M101 ; extruder on
G1 E108.55946 F1800.00000
G1 X-30.380 Y-8.898 E109.18608 F1080.000
G1 X-29.783 Y-9.433 E109.23958
G1 X-29.519 Y-9.788 E109.26915
G1 X-29.331 Y-10.189 E109.29871
G1 X-29.227 Y-10.619 E109.32828
G1 X-29.211 Y-11.061 E109.35785
G1 X-29.283 Y-11.498 E109.38742
G1 X-29.441 Y-11.911 E109.41698
G1 X-29.679 Y-12.285 E109.44655
G1 X-29.986 Y-12.603 E109.47612
G1 X-30.351 Y-12.854 E109.50569
G1 X-30.758 Y-13.027 E109.53525
G1 X-31.192 Y-13.116 E109.56482
G1 X-31.634 Y-13.116 E109.59439
G1 X-32.068 Y-13.027 E109.62396
G1 X-32.475 Y-12.854 E109.65352
G1 X-32.840 Y-12.603 E109.68309
G1 X-33.147 Y-12.285 E109.71266
G1 X-33.385 Y-11.911 E109.74223
G1 X-33.543 Y-11.498 E109.77180
G1 X-33.615 Y-11.061 E109.80136
G1 X-33.599 Y-10.619 E109.83093
G1 X-33.495 Y-10.189 E109.86050
G1 X-33.307 Y-9.788 E109.89007
G1 X-33.043 Y-9.433 E109.91963
G1 X-32.446 Y-8.898 E109.97313
G1 X-42.686 Y-8.898 E110.65720
G1 X-42.090 Y-9.433 E110.71070
G1 X-41.825 Y-9.788 E110.74026
G1 X-41.638 Y-10.189 E110.76983
G1 X-41.533 Y-10.619 E110.79940
G1 X-41.517 Y-11.061 E110.82897
G1 X-41.590 Y-11.498 E110.85853
G1 X-41.748 Y-11.911 E110.88810
G1 X-41.985 Y-12.285 E110.91767
G1 X-42.292 Y-12.603 E110.94724
G1 X-42.657 Y-12.854 E110.97681
G1 X-43.064 Y-13.027 E111.00637
G1 X-43.498 Y-13.116 E111.03594
G1 X-43.941 Y-13.116 E111.06551
G1 X-44.374 Y-13.027 E111.09508
G1 X-44.782 Y-12.854 E111.12464
G1 X-45.146 Y-12.603 E111.15421
G1 X-45.453 Y-12.285 E111.18378
G1 X-45.691 Y-11.911 E111.21335
G1 X-45.849 Y-11.498 E111.24291
G1 X-45.921 Y-11.061 E111.27248
G1 X-45.905 Y-10.619 E111.30205
