; generated by Slic3r 1.2.9 on 2016-04-25 at 17:04:43

; external perimeters extrusion width = 0.40mm
; perimeters extrusion width = 0.67mm
; infill extrusion width = 0.67mm
; solid infill extrusion width = 0.67mm
; top infill extrusion width = 0.67mm

M127
M104 S230 T0 ; set temperature
(**** Start.gcode for Replicator 2 ****)
M103 ;disable RPM
M73 P0 ;enable build progress
G21 ;set units to mm
G90 ;set positioning to absolute
(**** begin homing ****)
G162 X Y F2500 ;home XY axes maximum
G161 Z F1100 ;home Z axis minimum
G92 Z-5 ;set Z to -5
G1 Z0.0 ;move Z to "0"
G161 Z F100 ;home Z axis minimum
M132 X Y Z A B ;Recall stored home offsets for XYZAB axis
(**** end homing ****)
G1 X-141 Y-74 Z75 F3300.0 ;move to waiting position
G130 X20 Y20 Z20 A20 B20 ;Lower stepper Vrefs while heating
M6 T0 ;wait for toolhead, and HBP to reach temperature
M70 P5 (We Be Making Things!)
G130 X127 Y127 Z40 A127 B127 ;Set Stepper motor Vref to defaults
M108 R3.0 T0
G0 X-141 Y-74 ;Position Nozzle
G0 Z1 ;Move above plate
G1 Z0.3 ;Position Height
M108 R5.0 ;Set Extruder Speed
M101 ;Start Extruder
G4 P3000 ;Create Anchor
G1 X-137 Y-70 Z0.1 F1000.0 ;Slow wipe
G0 Z0.3 ;and lift
(**** end of Start.gcode ****)
M73 P0
G1 Z0.300 F9000.000
(**** New Layer ****)
G1 E-2.00000 F1800.00000
M103 ; extruder off
G1 X14.661 Y-13.690 F9000.000
M101 ; extruder on
G1 E0.00000 F1800.00000
G1 X34.532 Y7.591 E1.94512 F4320.000
G1 X35.191 Y8.418 E2.01573
G1 X35.458 Y8.810 E2.04744
G1 X35.986 Y9.725 E2.11803
G1 X36.192 Y10.152 E2.14973
G1 X36.578 Y11.136 E2.22034
G1 X36.718 Y11.590 E2.25205
G1 X36.953 Y12.620 E2.32264
G1 X37.024 Y13.089 E2.35436
G1 X37.103 Y14.143 E2.42495
G1 X37.103 Y14.618 E2.45665
G1 X37.024 Y15.672 E2.52726
G1 X36.953 Y16.141 E2.55896
G1 X36.718 Y17.171 E2.62956
G1 X36.578 Y17.625 E2.66128
G1 X36.192 Y18.609 E2.73187
G1 X35.986 Y19.036 E2.76359
G1 X35.458 Y19.951 E2.83417
G1 X35.191 Y20.343 E2.86588
G1 X34.532 Y21.170 E2.93648
G1 X34.209 Y21.518 E2.96819
G1 X33.434 Y22.236 E3.03879
G1 X33.063 Y22.532 E3.07049
G1 X32.190 Y23.128 E3.14109
G1 X31.779 Y23.365 E3.17279
G1 X30.827 Y23.823 E3.24340
G1 X30.385 Y23.997 E3.27511
G1 X29.375 Y24.308 E3.34571
G1 X28.912 Y24.414 E3.37741
G1 X27.867 Y24.571 E3.44801
G1 X26.866 Y24.627 E3.51503
G1 X-26.866 Y24.627 E7.10458
G1 X-27.868 Y24.571 E7.17161
G1 X-28.912 Y24.414 E7.24220
G1 X-29.375 Y24.308 E7.27390
G1 X-30.385 Y23.997 E7.34450
G1 X-30.827 Y23.823 E7.37620
G1 X-31.779 Y23.365 E7.44680
G1 X-32.190 Y23.128 E7.47850
G1 X-33.063 Y22.532 E7.54910
G1 X-33.434 Y22.237 E7.58081
G1 X-34.209 Y21.518 E7.65141
G1 X-34.531 Y21.170 E7.68311
G1 X-35.190 Y20.344 E7.75371
G1 X-35.458 Y19.952 E7.78541
G1 X-35.986 Y19.036 E7.85601
G1 X-36.192 Y18.609 E7.88771
G1 X-36.578 Y17.625 E7.95831
G1 X-36.718 Y17.172 E7.99001
G1 X-36.953 Y16.141 E8.06062
G1 X-37.024 Y15.672 E8.09232
G1 X-37.103 Y14.618 E8.16292
G1 X-37.103 Y14.166 E8.19312
G1 X-37.024 Y13.090 E8.26522
G1 X-36.953 Y12.620 E8.29694
G1 X-36.718 Y11.590 E8.36752
G1 X-36.579 Y11.137 E8.39922
G1 X-36.193 Y10.153 E8.46982
G1 X-35.987 Y9.726 E8.50152
G1 X-35.458 Y8.810 E8.57212
G1 X-35.191 Y8.418 E8.60382
G1 X-34.532 Y7.592 E8.67442
G1 X-34.194 Y7.227 E8.70767
G1 X-7.413 Y-21.452 E11.32902
G1 X-6.994 Y-21.865 E11.36836
G1 X-6.227 Y-22.514 E11.43551
G1 X-5.399 Y-23.086 E11.50267
G1 X-4.520 Y-23.573 E11.56983
G1 X-3.597 Y-23.972 E11.63698
G1 X-2.640 Y-24.278 E11.70414
G1 X-1.657 Y-24.489 E11.77130
G1 X-0.658 Y-24.603 E11.83846
G1 X0.347 Y-24.618 E11.90561
M101 ; extruder on
G1 X0.659 Y-24.603 E11.92648 F4320.000
G1 X1.657 Y-24.489 E11.99359
G1 X2.641 Y-24.278 E12.06083
G1 X3.591 Y-23.974 E12.12747
G1 X4.238 Y-23.706 E12.17425
G1 X5.132 Y-23.246 E12.24141
G1 X5.976 Y-22.700 E12.30857
G1 X6.227 Y-22.514 E12.32940
G1 X6.763 Y-22.074 E12.37574
G1 X7.413 Y-21.452 E12.43589
G1 X14.620 Y-13.734 E13.14129
G1 X14.228 Y-13.369 F9000.000
M101 ; extruder on
G1 X34.139 Y7.955 E15.09030 F4320.000
G1 X34.748 Y8.719 E15.15556
G1 X35.015 Y9.111 E15.18727
G1 X35.504 Y9.957 E15.25252
G1 X35.710 Y10.385 E15.28422
G1 X36.067 Y11.294 E15.34948
G1 X36.206 Y11.748 E15.38118
G1 X36.424 Y12.700 E15.44643
G1 X36.495 Y13.169 E15.47814
G1 X36.567 Y14.143 E15.54339
G1 X36.567 Y14.618 E15.57509
G1 X36.494 Y15.592 E15.64035
G1 X36.424 Y16.061 E15.67205
G1 X36.206 Y17.013 E15.73730
G1 X36.066 Y17.467 E15.76902
G1 X35.710 Y18.376 E15.83427
G1 X35.504 Y18.804 E15.86599
G1 X35.015 Y19.650 E15.93122
G1 X34.748 Y20.042 E15.96292
G1 X34.139 Y20.805 E16.02818
G1 X33.816 Y21.153 E16.05989
G1 X33.100 Y21.818 E16.12514
G1 X32.729 Y22.114 E16.15685
G1 X31.922 Y22.664 E16.22210
G1 X31.511 Y22.901 E16.25380
G1 X30.631 Y23.325 E16.31906
G1 X30.189 Y23.498 E16.35076
G1 X29.256 Y23.786 E16.41601
G1 X28.793 Y23.892 E16.44772
G1 X27.827 Y24.037 E16.51297
G1 X26.866 Y24.091 E16.57731
G1 X-26.866 Y24.091 E20.16687
G1 X-27.827 Y24.037 E20.23122
G1 X-28.793 Y23.892 E20.29646
G1 X-29.256 Y23.786 E20.32816
G1 X-30.189 Y23.498 E20.39342
G1 X-30.631 Y23.325 E20.42512
G1 X-31.511 Y22.901 E20.49037
G1 X-31.922 Y22.664 E20.52207
G1 X-32.729 Y22.114 E20.58732
G1 X-33.100 Y21.818 E20.61902
G1 X-33.816 Y21.153 E20.68428
G1 X-34.139 Y20.806 E20.71598
G1 X-34.748 Y20.042 E20.78123
G1 X-35.015 Y19.650 E20.81293
G1 X-35.504 Y18.804 E20.87819
G1 X-35.709 Y18.376 E20.90989
G1 X-36.066 Y17.467 E20.97514
G1 X-36.206 Y17.014 E21.00684
G1 X-36.424 Y16.062 E21.07209
G1 X-36.494 Y15.592 E21.10379
G1 X-36.567 Y14.618 E21.16905
G1 X-36.567 Y14.166 E21.19925
G1 X-36.495 Y13.170 E21.26600
G1 X-36.424 Y12.700 E21.29772
G1 X-36.207 Y11.748 E21.36295
G1 X-36.067 Y11.295 E21.39465
G1 X-35.710 Y10.385 E21.45991
G1 X-35.504 Y9.958 E21.49161
G1 X-35.016 Y9.112 E21.55686
G1 X-34.749 Y8.720 E21.58856
G1 X-34.140 Y7.956 E21.65382
G1 X-33.802 Y7.593 E21.68695
G1 X-7.022 Y-21.086 E24.30829
G1 X-6.634 Y-21.468 E24.34465
G1 X-5.907 Y-22.084 E24.40830
G1 X-5.124 Y-22.626 E24.47194
G1 X-4.291 Y-23.089 E24.53559
G1 X-3.417 Y-23.467 E24.59923
G1 X-2.510 Y-23.758 E24.66288
G1 X-1.578 Y-23.959 E24.72652
G1 X-0.632 Y-24.068 E24.79017
G1 X0.321 Y-24.083 E24.85381
M101 ; extruder on
G1 X0.633 Y-24.068 E24.87468 F4320.000
G1 X1.578 Y-23.959 E24.93828
G1 X2.511 Y-23.758 E25.00201
G1 X3.410 Y-23.470 E25.06508
G1 X4.009 Y-23.222 E25.10841
G1 X4.857 Y-22.786 E25.17206
G1 X5.657 Y-22.270 E25.23571
G1 X5.908 Y-22.084 E25.25654
G1 X6.403 Y-21.677 E25.29937
G1 X7.022 Y-21.086 E25.35653
G1 X14.187 Y-13.413 E26.05793
G1 E24.05793 F1800.00000
M103 ; extruder off
G1 X3.443 Y-13.413 F9000.000
M101 ; extruder on
G1 E26.05793 F1800.00000
G1 X3.443 Y-8.409 E26.39219 F4320.000
G1 X3.286 Y-8.252 E26.40702
G1 X0.582 Y-8.252 E26.58768
G1 X0.268 Y-7.938 E26.61732
G1 X0.268 Y-2.370 E26.98931
G1 X0.111 Y-2.213 E27.00413
G1 X-3.286 Y-2.213 E27.23106
G1 X-3.443 Y-2.370 E27.24588
G1 X-3.443 Y-14.384 E28.04845
G1 X-3.426 Y-14.724 E28.07124
G1 X-3.375 Y-15.059 E28.09381
G1 X-3.296 Y-15.374 E28.11550
G1 X-3.183 Y-15.692 E28.13808
G1 X-3.039 Y-15.998 E28.16065
G1 X-2.866 Y-16.288 E28.18322
G1 X-2.665 Y-16.559 E28.20579
G1 X-2.448 Y-16.800 E28.22743
G1 X-2.179 Y-17.046 E28.25181
G1 X-1.907 Y-17.247 E28.27438
G1 X-1.629 Y-17.414 E28.29607
G1 X-1.324 Y-17.559 E28.31864
G1 X-1.006 Y-17.673 E28.34121
G1 X-0.678 Y-17.756 E28.36378
G1 X-0.344 Y-17.806 E28.38635
G1 X-0.007 Y-17.823 E28.40892
G1 X0.317 Y-17.808 E28.43056
M101 ; extruder on
G1 X0.665 Y-17.758 E28.45406 F4320.000
G1 X0.993 Y-17.677 E28.47664
G1 X1.311 Y-17.564 E28.49921
G1 X1.629 Y-17.414 E28.52265
G1 X1.918 Y-17.239 E28.54522
G1 X2.189 Y-17.038 E28.56779
G1 X2.430 Y-16.820 E28.58949
G1 X2.648 Y-16.580 E28.61113
G1 X2.859 Y-16.299 E28.63463
G1 X3.033 Y-16.009 E28.65720
G1 X3.178 Y-15.704 E28.67977
G1 X3.293 Y-15.386 E28.70234
G1 X3.375 Y-15.059 E28.72491
G1 X3.426 Y-14.724 E28.74748
G1 X3.443 Y-14.390 E28.76983
G1 X3.443 Y-13.473 E28.83114
G1 E26.83114 F1800.00000
M103 ; extruder off
G1 X3.443 Y10.938 F9000.000
M101 ; extruder on
G1 E28.83114 F1800.00000
G1 X26.881 Y10.938 E30.39692 F4320.000
M101 ; extruder on
G1 X27.389 Y10.978 E30.43097 F4320.000
G1 X27.871 Y11.088 E30.46401
G1 X28.351 Y11.274 E30.49838
G1 X28.797 Y11.530 E30.53276
G1 X29.215 Y11.863 E30.56847
G1 X29.564 Y12.242 E30.60284
G1 X29.842 Y12.650 E30.63589
G1 X30.067 Y13.113 E30.67026
G1 X30.224 Y13.624 E30.70597
G1 X30.300 Y14.133 E30.74035
G1 X30.298 Y14.648 E30.77472
G1 X30.220 Y15.156 E30.80910
G1 X30.074 Y15.629 E30.84214
G1 X29.852 Y16.093 E30.87652
G1 X29.551 Y16.535 E30.91223
G1 X29.200 Y16.911 E30.94660
G1 X28.813 Y17.219 E30.97964
G1 X28.369 Y17.478 E31.01402
G1 X27.871 Y17.673 E31.04973
G1 X27.389 Y17.783 E31.08277
G1 X26.881 Y17.823 E31.11681
G1 X-26.881 Y17.823 E34.70837
G1 X-27.389 Y17.783 E34.74241
G1 X-27.871 Y17.673 E34.77545
G1 X-28.350 Y17.487 E34.80982
G1 X-28.797 Y17.231 E34.84420
G1 X-29.215 Y16.897 E34.87991
G1 X-29.564 Y16.519 E34.91428
G1 X-29.852 Y16.093 E34.94865
G1 X-30.074 Y15.629 E34.98303
G1 X-30.224 Y15.137 E35.01740
G1 X-30.298 Y14.648 E35.05044
G1 X-30.300 Y14.133 E35.08482
G1 X-30.220 Y13.605 E35.12053
G1 X-30.067 Y13.114 E35.15490
G1 X-29.842 Y12.651 E35.18928
G1 X-29.564 Y12.242 E35.22231
G1 X-29.215 Y11.864 E35.25669
G1 X-28.797 Y11.530 E35.29240
G1 X-28.369 Y11.283 E35.32544
G1 X-27.890 Y11.094 E35.35981
G1 X-27.369 Y10.975 E35.39552
G1 X-26.871 Y10.938 E35.42890
G1 X3.383 Y10.938 E37.45002
G1 E35.45002 F1800.00000
M103 ; extruder off
G1 X-0.300 Y-2.781 F9000.000
M101 ; extruder on
G1 E37.45002 F1800.00000
G1 X-2.875 Y-2.781 E37.62205 F1620.000
G1 X-2.875 Y-14.373 E38.39646
G1 X-2.861 Y-14.662 E38.41579
G1 X-2.819 Y-14.941 E38.43464
G1 X-2.751 Y-15.215 E38.45349
G1 X-2.658 Y-15.474 E38.47186
G1 X-2.535 Y-15.736 E38.49120
G1 X-2.390 Y-15.977 E38.51002
G1 X-2.222 Y-16.204 E38.52887
G1 X-2.033 Y-16.413 E38.54771
G1 X-1.824 Y-16.603 E38.56656
G1 X-1.597 Y-16.771 E38.58541
G1 X-1.355 Y-16.916 E38.60425
G1 X-1.100 Y-17.036 E38.62310
G1 X-0.834 Y-17.131 E38.64194
G1 X-0.561 Y-17.200 E38.66079
G1 X-0.282 Y-17.241 E38.67964
G1 X-0.000 Y-17.255 E38.69848
G1 X0.275 Y-17.242 E38.71686
M101 ; extruder on
G1 X0.561 Y-17.200 E38.73619 F1620.000
G1 X0.834 Y-17.131 E38.75502
G1 X1.100 Y-17.036 E38.77386
G1 X1.355 Y-16.916 E38.79271
G1 X1.597 Y-16.771 E38.81156
G1 X1.824 Y-16.603 E38.83040
G1 X2.033 Y-16.413 E38.84925
G1 X2.222 Y-16.204 E38.86809
G1 X2.390 Y-15.977 E38.88694
G1 X2.535 Y-15.736 E38.90579
G1 X2.656 Y-15.481 E38.92463
G1 X2.751 Y-15.215 E38.94348
G1 X2.819 Y-14.941 E38.96232
G1 X2.861 Y-14.662 E38.98117
G1 X2.875 Y-14.373 E39.00051
G1 X2.875 Y-8.820 E39.37149
G1 X-0.300 Y-8.820 E39.58360
G1 X-0.300 Y-2.841 E39.98302
G1 X-0.646 Y-2.981 F9000.000
G1 E37.98302 F1800.00000
M103 ; extruder off
G1 X1.043 Y-11.848 F9000.000
M101 ; extruder on
G1 E39.98302 F1800.00000
G1 X1.422 Y-12.035 E40.01122 F1620.000
G1 X1.710 Y-12.236 E40.03469
G1 X1.970 Y-12.473 E40.05817
G1 X2.339 Y-12.907 E40.09624
G1 X2.339 Y-9.355 E40.33348
M101 ; extruder on
G1 X-0.836 Y-9.355 E40.54558 F1620.000
G1 X-0.836 Y-3.317 E40.94901
G1 X-2.339 Y-3.317 E41.04946
G1 X-2.339 Y-12.862 E41.68716
G1 X-1.844 Y-12.350 E41.73476
G1 X-1.569 Y-12.131 E41.75823
G1 X-1.268 Y-11.949 E41.78171
G1 X-0.947 Y-11.807 E41.80518
G1 X-0.610 Y-11.707 E41.82866
G1 X-0.263 Y-11.651 E41.85214
G1 X0.088 Y-11.640 E41.87561
G1 X0.438 Y-11.673 E41.89909
G1 X0.780 Y-11.751 E41.92256
G1 X0.987 Y-11.827 E41.93727
G1 X0.802 Y-12.330 F9000.000
M101 ; extruder on
G1 X0.628 Y-12.266 E41.94968 F1620.000
G1 X0.352 Y-12.203 E41.96856
G1 X0.071 Y-12.176 E41.98745
G1 X-0.212 Y-12.185 E42.00633
G1 X-0.491 Y-12.230 E42.02521
G1 X-0.762 Y-12.311 E42.04409
G1 X-1.020 Y-12.425 E42.06297
G1 X-1.262 Y-12.571 E42.08185
G1 X-1.483 Y-12.748 E42.10073
G1 X-1.679 Y-12.951 E42.11961
G1 X-1.841 Y-13.167 E42.13767
G1 X-1.987 Y-13.423 E42.15731
G1 X-2.093 Y-13.685 E42.17625
G1 X-2.162 Y-13.947 E42.19430
G1 X-2.201 Y-14.238 E42.21395
G1 X-2.201 Y-14.522 E42.23289
G1 X-2.165 Y-14.802 E42.25177
G1 X-2.093 Y-15.075 E42.27065
G1 X-1.987 Y-15.337 E42.28953
G1 X-1.849 Y-15.584 E42.30841
G1 X-1.679 Y-15.810 E42.32729
G1 X-1.483 Y-16.013 E42.34618
G1 X-1.272 Y-16.182 E42.36423
G1 X-1.021 Y-16.336 E42.38387
G1 X-0.762 Y-16.450 E42.40281
G1 X-0.491 Y-16.531 E42.42169
G1 X-0.212 Y-16.576 E42.44057
M101 ; extruder on
G1 X0.058 Y-16.585 E42.45863 F1620.000
G1 X0.351 Y-16.558 E42.47827
G1 X0.628 Y-16.495 E42.49721
G1 X0.893 Y-16.397 E42.51609
G1 X1.143 Y-16.267 E42.53497
G1 X1.365 Y-16.112 E42.55303
G1 X1.584 Y-15.916 E42.57267
G1 X1.768 Y-15.700 E42.59161
G1 X1.922 Y-15.463 E42.61049
G1 X2.044 Y-15.208 E42.62937
G1 X2.133 Y-14.940 E42.64826
G1 X2.185 Y-14.675 E42.66631
G1 X2.206 Y-14.381 E42.68595
G1 X2.188 Y-14.098 E42.70489
G1 X2.133 Y-13.821 E42.72377
G1 X2.044 Y-13.553 E42.74266
G1 X1.922 Y-13.298 E42.76154
G1 X1.768 Y-13.061 E42.78042
G1 X1.584 Y-12.846 E42.79930
G1 X1.375 Y-12.656 E42.81818
G1 X1.143 Y-12.494 E42.83706
G1 X0.858 Y-12.351 E42.85839
G1 X0.776 Y-12.146 F9000.000
G1 E40.85839 F1800.00000
M103 ; extruder off
G1 X2.018 Y-11.669 F9000.000
M101 ; extruder on
G1 E42.85839 F1800.00000
G1 X1.756 Y-11.931 E42.88405 F4320.000
G1 X1.265 Y-11.636 E42.92382
G1 X2.018 Y-10.883 E42.99768
G1 X2.018 Y-10.096 E43.05226
G1 X0.690 Y-11.424 E43.18253
G1 X0.008 Y-11.319 E43.23039
G1 X1.650 Y-9.677 E43.39149
G1 X0.863 Y-9.677 E43.44606
G1 X-0.869 Y-11.410 E43.61603
G1 X-2.018 Y-11.772 E43.69959
G1 X0.077 Y-9.677 E43.90509
G1 X-0.710 Y-9.677 E43.95967
G1 X-2.018 Y-10.985 E44.08799
G1 X-2.018 Y-10.198 E44.14256
G1 X-1.157 Y-9.338 E44.22699
G1 X-1.157 Y-8.551 E44.28156
G1 X-2.018 Y-9.412 E44.36598
G1 X-2.018 Y-8.625 E44.42055
G1 X-1.157 Y-7.765 E44.50498
G1 X-1.157 Y-6.978 E44.55955
G1 X-2.018 Y-7.839 E44.64397
G1 X-2.018 Y-7.052 E44.69854
G1 X-1.157 Y-6.192 E44.78297
G1 X-1.157 Y-5.405 E44.83754
G1 X-2.018 Y-6.265 E44.92196
G1 X-2.018 Y-5.479 E44.97653
G1 X-1.157 Y-4.618 E45.06096
G1 X-1.157 Y-3.832 E45.11553
G1 X-2.018 Y-4.692 E45.19995
G1 X-2.018 Y-3.906 E45.25452
G1 X-1.751 Y-3.638 E45.28074
G1 E43.28074 F1800.00000
M103 ; extruder off
G1 X-2.054 Y-12.977 F9000.000
M101 ; extruder on
G1 E45.28074 F1800.00000
G1 X-2.281 Y-13.275 E45.30578 F1620.000
G1 X-2.477 Y-13.577 E45.32977
G1 X-2.516 Y-13.883 E45.35038
G1 X-2.538 Y-14.365 E45.38263
G1 X-2.494 Y-14.862 E45.41596
G1 X-2.408 Y-15.184 E45.43826
G1 X-2.238 Y-15.577 E45.46688
G1 X-2.111 Y-15.791 E45.48347
G1 X-1.936 Y-16.023 E45.50289
G1 X-1.795 Y-16.175 E45.51676
G1 X-1.467 Y-16.452 E45.54547
G1 X-1.197 Y-16.620 E45.56666
G1 X-0.881 Y-16.761 E45.58982
G1 X-0.569 Y-16.855 E45.61155
G1 X-0.249 Y-16.908 E45.63323
G1 X-0.000 Y-16.919 E45.64987
G1 X0.399 Y-16.887 E45.67662
G1 X0.727 Y-16.814 E45.69905
G1 X1.024 Y-16.704 E45.72022
G1 X1.312 Y-16.553 E45.74196
G1 X1.576 Y-16.371 E45.76335
G1 X1.820 Y-16.152 E45.78529
G1 X2.032 Y-15.902 E45.80716
G1 X2.214 Y-15.623 E45.82945
G1 X2.353 Y-15.337 E45.85063
G1 X2.455 Y-15.028 E45.87237
G1 X2.516 Y-14.714 E45.89376
G1 X2.540 Y-14.365 E45.91716
G1 X2.491 Y-13.677 E45.96322
G1 X2.140 Y-13.112 E46.00768
M73 P1
G1 Z0.300 F9000.000
(**** New Layer ****)
G1 E44.00768 F1800.00000
M103 ; extruder off
G1 X2.140 Y11.505 F9000.000
M101 ; extruder on
G1 E46.00768 F1800.00000
G1 X26.855 Y11.505 E47.65874 F1080.000
G1 X27.273 Y11.537 E47.68676
M101 ; extruder on
G1 X27.714 Y11.634 E47.71694 F1080.000
G1 X28.113 Y11.791 E47.74557
G1 X28.485 Y12.006 E47.77427
G1 X28.821 Y12.274 E47.80297
G1 X29.113 Y12.588 E47.83167
G1 X29.355 Y12.943 E47.86036
G1 X29.541 Y13.330 E47.88906
G1 X29.668 Y13.741 E47.91776
G1 X29.729 Y14.144 E47.94503
G1 X29.732 Y14.596 E47.97521
G1 X29.668 Y15.020 E48.00384
G1 X29.541 Y15.430 E48.03253
G1 X29.355 Y15.818 E48.06123
G1 X29.113 Y16.172 E48.08993
G1 X28.821 Y16.487 E48.11863
G1 X28.485 Y16.755 E48.14733
G1 X28.113 Y16.970 E48.17602
G1 X27.713 Y17.127 E48.20472
G1 X27.294 Y17.222 E48.23342
G1 X26.855 Y17.255 E48.26287
G1 X-26.855 Y17.255 E51.85092
G1 X-27.294 Y17.222 E51.88037
G1 X-27.713 Y17.127 E51.90907
G1 X-28.113 Y16.970 E51.93776
G1 X-28.485 Y16.755 E51.96646
G1 X-28.821 Y16.487 E51.99516
G1 X-29.113 Y16.173 E52.02385
G1 X-29.355 Y15.818 E52.05255
G1 X-29.541 Y15.431 E52.08125
G1 X-29.668 Y15.020 E52.10994
