; generated by Slic3r 1.2.9 on 2016-04-22 at 23:42:08

; external perimeters extrusion width = 0.40mm
; perimeters extrusion width = 0.67mm
; infill extrusion width = 0.67mm
; solid infill extrusion width = 0.67mm
; top infill extrusion width = 0.67mm

M127
M104 S230 T0 ; set temperature
(**** Start.gcode for Replicator 2 ****)
M103 ;disable RPM
M73 P0 ;enable build progress
G21 ;set units to mm
G90 ;set positioning to absolute
(**** begin homing ****)
G162 X Y F2500 ;home XY axes maximum
G161 Z F1100 ;home Z axis minimum
G92 Z-5 ;set Z to -5
G1 Z0.0 ;move Z to "0"
G161 Z F100 ;home Z axis minimum
M132 X Y Z A B ;Recall stored home offsets for XYZAB axis
(**** end homing ****)
G1 X-141 Y-74 Z75 F3300.0 ;move to waiting position
G130 X20 Y20 Z20 A20 B20 ;Lower stepper Vrefs while heating
M6 T0 ;wait for toolhead, and HBP to reach temperature
M70 P5 (We Be Making Things!)
G130 X127 Y127 Z40 A127 B127 ;Set Stepper motor Vref to defaults
M108 R3.0 T0
G0 X-141 Y-74 ;Position Nozzle
G0 Z1 ;Move above plate
G1 Z0.3 ;Position Height
M108 R5.0 ;Set Extruder Speed
M101 ;Start Extruder
G4 P3000 ;Create Anchor
G1 X-137 Y-70 Z0.1 F1000.0 ;Slow wipe
G0 Z0.3 ;and lift
(**** end of Start.gcode ****)
M73 P0
G1 Z0.300 F9000.000
(**** New Layer ****)
G1 E-2.00000 F1800.00000
M103 ; extruder off
G1 X-45.185 Y-17.582 F9000.000
M101 ; extruder on
G1 E0.00000 F1800.00000
G1 X-33.491 Y-47.637 E2.15446 F4320.000
G1 X-32.687 Y-49.586 E2.29531
G1 X-31.711 Y-51.768 E2.45502
G1 X-30.863 Y-53.526 E2.58538
G1 X-29.867 Y-55.455 E2.73041
G1 X-28.706 Y-57.544 E2.89012
G1 X-27.709 Y-59.222 E3.02048
G1 X-26.549 Y-61.057 E3.16552
G1 X-25.337 Y-62.858 E3.31055
G1 X-24.074 Y-64.624 E3.45558
G1 X-22.760 Y-66.352 E3.60061
G1 X-21.396 Y-68.041 E3.74565
G1 X-19.561 Y-69.677 E3.90991
G1 X-17.299 Y-70.643 E4.07417
G1 X-14.848 Y-70.836 E4.23843
G1 X-11.680 Y-69.843 E4.46022
M101 ; extruder on
G1 X37.296 Y-41.567 E8.23826 F4320.000
G1 X38.276 Y-40.964 E8.31510
G1 X39.419 Y-40.168 E8.40814
G1 X40.509 Y-39.300 E8.50120
G1 X41.541 Y-38.365 E8.59426
G1 X42.511 Y-37.366 E8.68730
G1 X42.835 Y-37.004 E8.71974
G1 X43.715 Y-35.925 E8.81277
G1 X44.252 Y-35.193 E8.87341
G1 X45.000 Y-34.050 E8.96471
G1 X45.701 Y-32.816 E9.05950
G1 X46.309 Y-31.562 E9.15258
G1 X46.836 Y-30.273 E9.24561
G1 X47.279 Y-28.953 E9.33865
G1 X47.638 Y-27.606 E9.43176
G1 X47.909 Y-26.241 E9.52475
G1 X53.222 Y4.214 E11.59001
G1 X53.318 Y5.062 E11.64705
G1 X53.382 Y6.202 E11.72331
G1 X53.394 Y53.096 E14.85606
G1 X53.318 Y54.660 E14.96067
G1 X53.222 Y55.507 E15.01766
G1 X53.031 Y56.631 E15.09377
G1 X52.842 Y57.462 E15.15076
G1 X52.533 Y58.535 E15.22532
G1 X52.244 Y59.362 E15.28386
G1 X51.808 Y60.416 E15.36005
G1 X51.438 Y61.183 E15.41696
G1 X50.887 Y62.181 E15.49308
G1 X50.433 Y62.903 E15.55006
G1 X49.774 Y63.832 E15.62618
G1 X49.242 Y64.499 E15.68316
G1 X48.482 Y65.350 E15.75937
G1 X47.880 Y65.952 E15.81627
G1 X47.030 Y66.711 E15.89242
G1 X46.363 Y67.243 E15.94937
G1 X45.433 Y67.903 E16.02554
G1 X44.712 Y68.356 E16.08246
G1 X43.715 Y68.907 E16.15859
G1 X42.946 Y69.277 E16.21557
G1 X41.893 Y69.713 E16.29169
G1 X41.088 Y69.995 E16.34868
G1 X39.993 Y70.310 E16.42479
G1 X39.162 Y70.500 E16.48178
G1 X38.039 Y70.691 E16.55790
G1 X37.191 Y70.787 E16.61488
G1 X35.627 Y70.862 E16.71950
G1 X-36.068 Y70.850 E21.50912
G1 X-37.285 Y70.781 E21.59056
G1 X-38.042 Y70.691 E21.64146
G1 X-39.248 Y70.485 E21.72323
G1 X-39.997 Y70.310 E21.77455
G1 X-41.059 Y70.004 E21.84842
G1 X-41.896 Y69.712 E21.90764
G1 X-43.014 Y69.249 E21.98849
G1 X-43.717 Y68.906 E22.04073
G1 X-44.770 Y68.323 E22.12114
G1 X-45.436 Y67.901 E22.17382
G1 X-46.338 Y67.261 E22.24769
G1 X-47.032 Y66.710 E22.30690
G1 X-47.919 Y65.917 E22.38639
G1 X-48.484 Y65.347 E22.43999
G1 X-49.273 Y64.465 E22.51905
G1 X-49.775 Y63.831 E22.57308
G1 X-50.456 Y62.871 E22.65169
G1 X-50.888 Y62.180 E22.70617
G1 X-51.453 Y61.156 E22.78429
G1 X-51.809 Y60.414 E22.83926
G1 X-52.254 Y59.339 E22.91696
G1 X-52.526 Y58.556 E22.97234
G1 X-52.833 Y57.494 E23.04621
G1 X-53.032 Y56.630 E23.10543
G1 X-53.224 Y55.497 E23.18219
G1 X-53.318 Y54.659 E23.23851
G1 X-53.394 Y53.096 E23.34310
G1 X-53.394 Y6.843 E26.43303
G1 X-53.311 Y5.206 E26.54252
G1 X-53.206 Y4.320 E26.60212
G1 X-52.997 Y3.146 E26.68178
G1 X-52.789 Y2.278 E26.74141
G1 X-52.445 Y1.137 E26.82106
G1 X-52.252 Y0.579 E26.86045
G1 X-45.207 Y-17.526 E28.15834
G1 X-44.708 Y-17.332 F9000.000
M101 ; extruder on
G1 X-32.992 Y-47.443 E30.31681 F4320.000
G1 X-32.192 Y-49.382 E30.45693
G1 X-31.229 Y-51.536 E30.61456
G1 X-30.381 Y-53.293 E30.74493
G1 X-29.391 Y-55.208 E30.88893
G1 X-28.347 Y-57.094 E31.03293
G1 X-27.142 Y-59.122 E31.19057
G1 X-26.097 Y-60.771 E31.32093
G1 X-24.893 Y-62.559 E31.46493
G1 X-23.638 Y-64.311 E31.60893
G1 X-22.334 Y-66.027 E31.75293
G1 X-20.980 Y-67.704 E31.89693
G1 X-19.201 Y-69.271 E32.05526
G1 X-17.005 Y-70.161 E32.21359
G1 X-14.638 Y-70.276 E32.37192
G1 X-11.948 Y-69.379 E32.56133
M101 ; extruder on
G1 X37.028 Y-41.103 E36.33937 F4320.000
G1 X37.993 Y-40.509 E36.41507
G1 X39.108 Y-39.732 E36.50583
G1 X40.170 Y-38.885 E36.59660
G1 X41.177 Y-37.972 E36.68738
G1 X42.123 Y-36.997 E36.77813
G1 X42.424 Y-36.660 E36.80829
G1 X43.283 Y-35.609 E36.89904
G1 X43.820 Y-34.877 E36.95968
G1 X44.549 Y-33.762 E37.04865
G1 X45.232 Y-32.557 E37.14120
G1 X45.825 Y-31.334 E37.23200
G1 X46.338 Y-30.076 E37.32274
G1 X46.770 Y-28.788 E37.41350
G1 X47.119 Y-27.474 E37.50432
G1 X47.383 Y-26.142 E37.59503
G1 X52.694 Y4.304 E39.65969
G1 X52.783 Y5.092 E39.71272
G1 X52.847 Y6.232 E39.78898
G1 X52.858 Y53.096 E42.91971
G1 X52.783 Y54.630 E43.02232
G1 X52.694 Y55.418 E43.07529
G1 X52.503 Y56.541 E43.15141
G1 X52.327 Y57.314 E43.20438
G1 X52.018 Y58.386 E43.27894
G1 X51.750 Y59.157 E43.33347
G1 X51.313 Y60.211 E43.40966
G1 X50.970 Y60.924 E43.46256
G1 X50.418 Y61.922 E43.53868
G1 X49.997 Y62.593 E43.59165
G1 X49.337 Y63.522 E43.66777
G1 X48.843 Y64.142 E43.72074
G1 X48.083 Y64.993 E43.79693
G1 X47.523 Y65.552 E43.84983
G1 X46.673 Y66.312 E43.92598
G1 X46.053 Y66.806 E43.97892
G1 X45.124 Y67.466 E44.05509
G1 X44.453 Y67.887 E44.10800
G1 X43.456 Y68.438 E44.18413
G1 X42.741 Y68.782 E44.23710
G1 X41.688 Y69.218 E44.31322
G1 X40.940 Y69.480 E44.36619
G1 X39.845 Y69.796 E44.44231
G1 X39.072 Y69.972 E44.49528
G1 X37.949 Y70.163 E44.57140
G1 X37.161 Y70.252 E44.62437
G1 X35.627 Y70.327 E44.72698
G1 X-36.038 Y70.316 E49.51459
G1 X-37.249 Y70.246 E49.59561
G1 X-37.952 Y70.163 E49.64292
G1 X-39.153 Y69.958 E49.72429
G1 X-39.848 Y69.795 E49.77200
G1 X-40.911 Y69.489 E49.84587
G1 X-41.691 Y69.217 E49.90107
G1 X-42.805 Y68.756 E49.98159
G1 X-43.458 Y68.437 E50.03015
G1 X-44.507 Y67.857 E50.11025
G1 X-45.126 Y67.464 E50.15923
G1 X-46.028 Y66.824 E50.23310
G1 X-46.675 Y66.310 E50.28830
G1 X-47.559 Y65.520 E50.36755
G1 X-48.085 Y64.990 E50.41737
G1 X-48.871 Y64.110 E50.49622
G1 X-49.338 Y63.521 E50.54645
G1 X-50.017 Y62.563 E50.62488
G1 X-50.419 Y61.920 E50.67552
G1 X-50.984 Y60.899 E50.75350
G1 X-51.314 Y60.209 E50.80460
G1 X-51.758 Y59.136 E50.88219
G1 X-52.012 Y58.408 E50.93367
G1 X-52.318 Y57.346 E51.00754
G1 X-52.504 Y56.540 E51.06274
G1 X-52.696 Y55.408 E51.13946
G1 X-52.783 Y54.629 E51.19182
G1 X-52.858 Y53.096 E51.29440
G1 X-52.858 Y6.843 E54.38433
G1 X-52.776 Y5.238 E54.49171
G1 X-52.679 Y4.414 E54.54713
G1 X-52.470 Y3.240 E54.62678
G1 X-52.277 Y2.433 E54.68221
G1 X-51.932 Y1.292 E54.76186
G1 X-51.753 Y0.774 E54.79848
G1 X-44.730 Y-17.276 E56.09236
G1 X-44.231 Y-17.082 F9000.000
M101 ; extruder on
G1 X-32.492 Y-47.248 E58.25484 F4320.000
G1 X-31.697 Y-49.177 E58.39422
G1 X-30.746 Y-51.303 E58.54979
G1 X-29.898 Y-53.060 E58.68015
G1 X-28.916 Y-54.962 E58.82312
G1 X-27.879 Y-56.834 E58.96609
G1 X-26.689 Y-58.836 E59.12166
G1 X-25.644 Y-60.484 E59.25202
G1 X-24.449 Y-62.259 E59.39499
G1 X-23.203 Y-63.999 E59.53795
G1 X-21.908 Y-65.702 E59.68092
G1 X-20.563 Y-67.367 E59.82389
G1 X-18.844 Y-68.861 E59.97606
G1 X-16.716 Y-69.674 E60.12823
G1 X-14.438 Y-69.707 E60.28041
G1 X-12.216 Y-68.916 E60.43803
M101 ; extruder on
G1 X36.761 Y-40.639 E64.21607 F4320.000
G1 X37.711 Y-40.053 E64.29062
G1 X38.797 Y-39.295 E64.37910
G1 X39.832 Y-38.470 E64.46759
G1 X40.813 Y-37.579 E64.55608
G1 X41.735 Y-36.629 E64.64455
G1 X42.013 Y-36.317 E64.67243
G1 X42.851 Y-35.292 E64.76089
G1 X43.388 Y-34.560 E64.82153
G1 X44.097 Y-33.474 E64.90822
G1 X44.763 Y-32.298 E64.99849
G1 X45.340 Y-31.105 E65.08699
G1 X45.840 Y-29.879 E65.17546
G1 X46.260 Y-28.623 E65.26393
G1 X46.600 Y-27.342 E65.35246
G1 X46.856 Y-26.044 E65.44090
G1 X52.166 Y4.393 E67.50496
G1 X52.248 Y5.122 E67.55397
G1 X52.312 Y6.262 E67.63023
G1 X52.322 Y53.096 E70.75895
G1 X52.248 Y54.600 E70.85955
G1 X52.166 Y55.328 E70.90851
G1 X51.975 Y56.451 E70.98463
G1 X51.812 Y57.166 E71.03359
G1 X51.504 Y58.237 E71.10810
G1 X51.255 Y58.952 E71.15867
G1 X50.818 Y60.006 E71.23485
G1 X50.501 Y60.665 E71.28374
G1 X49.950 Y61.663 E71.35987
G1 X49.560 Y62.283 E71.40882
G1 X48.900 Y63.212 E71.48494
G1 X48.443 Y63.785 E71.53390
G1 X47.684 Y64.636 E71.61009
G1 X47.166 Y65.153 E71.65898
G1 X46.316 Y65.913 E71.73512
G1 X45.743 Y66.369 E71.78405
G1 X44.814 Y67.029 E71.86022
G1 X44.194 Y67.418 E71.90912
G1 X43.196 Y67.970 E71.98525
G1 X42.536 Y68.288 E72.03420
G1 X41.484 Y68.724 E72.11032
G1 X40.792 Y68.966 E72.15928
G1 X39.697 Y69.281 E72.23540
G1 X38.982 Y69.444 E72.28436
G1 X37.859 Y69.635 E72.36048
G1 X37.131 Y69.717 E72.40944
G1 X35.627 Y69.791 E72.51004
G1 X-36.008 Y69.781 E77.29565
G1 X-37.213 Y69.712 E77.37624
G1 X-37.863 Y69.635 E77.41997
G1 X-39.057 Y69.431 E77.50093
G1 X-39.700 Y69.280 E77.54503
G1 X-40.763 Y68.974 E77.61890
G1 X-41.486 Y68.723 E77.67009
G1 X-42.595 Y68.263 E77.75027
G1 X-43.199 Y67.968 E77.79515
G1 X-44.244 Y67.390 E77.87495
G1 X-44.816 Y67.027 E77.92022
G1 X-45.718 Y66.387 E77.99409
G1 X-46.318 Y65.911 E78.04528
G1 X-47.200 Y65.123 E78.12429
G1 X-47.686 Y64.633 E78.17034
G1 X-48.470 Y63.756 E78.24898
G1 X-48.901 Y63.211 E78.29540
G1 X-49.579 Y62.256 E78.37365
G1 X-49.950 Y61.661 E78.42046
G1 X-50.514 Y60.642 E78.49830
G1 X-50.819 Y60.004 E78.54553
G1 X-51.263 Y58.932 E78.62300
G1 X-51.497 Y58.260 E78.67059
G1 X-51.803 Y57.197 E78.74446
G1 X-51.975 Y56.451 E78.79564
G1 X-52.168 Y55.319 E78.87231
G1 X-52.248 Y54.599 E78.92071
G1 X-52.322 Y53.096 E79.02128
G1 X-52.322 Y6.843 E82.11121
G1 X-52.241 Y5.269 E82.21649
G1 X-52.151 Y4.508 E82.26771
G1 X-51.943 Y3.334 E82.34736
G1 X-51.764 Y2.588 E82.39859
G1 X-51.419 Y1.447 E82.47824
G1 X-51.254 Y0.968 E82.51209
G1 X-44.252 Y-17.026 E83.80196
G1 E81.80196 F1800.00000
M103 ; extruder off
G1 X-23.796 Y-17.787 F9000.000
M101 ; extruder on
G1 E83.80196 F1800.00000
G1 X-23.835 Y-19.678 E83.92833 F1080.000
G1 X-23.814 Y-21.569 E84.05470
G1 X-23.735 Y-23.459 E84.18107
G1 X-23.596 Y-25.346 E84.30743
G1 X-23.398 Y-27.227 E84.43381
G1 X-23.132 Y-29.156 E84.56389
G1 X-22.825 Y-30.966 E84.68653
G1 X-22.451 Y-32.820 E84.81290
G1 X-22.019 Y-34.662 E84.93927
G1 X-21.530 Y-36.489 E85.06564
G1 X-20.983 Y-38.300 E85.19200
G1 X-20.380 Y-40.093 E85.31838
G1 X-19.700 Y-41.917 E85.44846
G1 X-19.006 Y-43.617 E85.57110
G1 X-18.237 Y-45.345 E85.69747
G1 X-17.427 Y-47.025 E85.82205
G1 X-16.538 Y-48.725 E85.95021
G1 X-15.610 Y-50.373 E86.07658
G1 X-14.630 Y-51.991 E86.20295
G1 X-13.569 Y-53.624 E86.33303
M101 ; extruder on
G1 X-12.859 Y-54.645 E86.41612 F1080.000
G1 X30.683 Y-29.512 E89.77478
G1 X30.085 Y-28.477 E89.85456
G1 X30.390 Y-28.281 E89.87877
G1 X30.883 Y-27.895 E89.92057
G1 X31.351 Y-27.453 E89.96361
G1 X31.776 Y-26.968 E90.00665
G1 X32.153 Y-26.446 E90.04969
G1 X32.481 Y-25.892 E90.09273
G1 X32.755 Y-25.308 E90.13577
G1 X32.973 Y-24.702 E90.17881
G1 X33.134 Y-24.079 E90.22185
G1 X33.236 Y-23.442 E90.26489
G1 X33.278 Y-22.800 E90.30793
G1 X33.260 Y-22.156 E90.35097
G1 X33.182 Y-21.516 E90.39401
G1 X33.045 Y-20.887 E90.43705
G1 X32.849 Y-20.273 E90.48009
G1 X32.597 Y-19.680 E90.52313
G1 X32.291 Y-19.113 E90.56617
G1 X31.933 Y-18.577 E90.60921
G1 X31.526 Y-18.077 E90.65227
G1 X31.061 Y-17.606 E90.69652
G1 X30.583 Y-17.202 E90.73832
G1 X30.054 Y-16.834 E90.78136
G1 X29.493 Y-16.517 E90.82440
G1 X28.905 Y-16.254 E90.86744
G1 X28.295 Y-16.047 E90.91048
G1 X27.668 Y-15.898 E90.95352
G1 X27.030 Y-15.808 E90.99656
G1 X26.686 Y-15.792 E91.01954
G1 X26.686 Y-14.598 E91.09927
G1 X-23.589 Y-14.603 E94.45793
G1 X-23.697 Y-15.898 E94.54474
G1 X-23.792 Y-17.727 E94.66710
G1 X-24.148 Y-17.976 F9000.000
G1 E92.66710 F1800.00000
M103 ; extruder off
G1 X15.075 Y-43.694 F9000.000
M101 ; extruder on
G1 E94.66710 F1800.00000
G1 X33.385 Y-33.121 E96.07958 F2160.000
G1 X33.786 Y-33.815 E96.13315
G1 X34.496 Y-33.309 E96.19140
G1 X35.158 Y-32.770 E96.24846
G1 X35.785 Y-32.190 E96.30551
G1 X36.373 Y-31.570 E96.36256
G1 X36.920 Y-30.915 E96.41961
G1 X37.425 Y-30.226 E96.47666
G1 X37.885 Y-29.506 E96.53371
G1 X38.297 Y-28.759 E96.59077
G1 X38.662 Y-27.986 E96.64782
G1 X38.976 Y-27.192 E96.70487
G1 X39.239 Y-26.380 E96.76192
G1 X39.449 Y-25.552 E96.81897
G1 X39.606 Y-24.713 E96.87602
G1 X39.710 Y-23.865 E96.93308
G1 X39.759 Y-23.012 E96.99013
G1 X39.753 Y-22.158 E97.04718
G1 X39.693 Y-21.306 E97.10423
G1 X39.583 Y-20.486 E97.15954
G1 X39.458 Y-19.858 E97.20229
G1 X39.168 Y-19.887 E97.22175
G1 X39.168 Y-20.217 E97.24384
G1 X39.085 Y-20.688 E97.27580
G1 X38.921 Y-21.138 E97.30775
G1 X38.681 Y-21.554 E97.33984
G1 X38.366 Y-21.926 E97.37244
G1 X38.008 Y-22.226 E97.40359
G1 X37.594 Y-22.465 E97.43554
G1 X37.145 Y-22.629 E97.46750
G1 X36.674 Y-22.712 E97.49945
G1 X36.196 Y-22.712 E97.53140
G1 X35.725 Y-22.629 E97.56335
G1 X35.275 Y-22.465 E97.59530
G1 X34.859 Y-22.225 E97.62739
G1 X34.487 Y-21.909 E97.65999
G1 X34.187 Y-21.552 E97.69115
G1 X33.913 Y-21.077 E97.72779
G1 X33.656 Y-21.176 E97.74618
G1 X33.711 Y-21.426 E97.76326
G1 X33.795 Y-22.115 E97.80965
G1 X33.814 Y-22.810 E97.85604
G1 X33.769 Y-23.502 E97.90243
G1 X33.659 Y-24.188 E97.94882
G1 X33.486 Y-24.860 E97.99520
G1 X33.250 Y-25.514 E98.04159
G1 X32.955 Y-26.142 E98.08798
G1 X32.602 Y-26.740 E98.13437
G1 X32.195 Y-27.303 E98.18076
G1 X31.737 Y-27.825 E98.22714
G1 X31.232 Y-28.302 E98.27353
G1 X30.799 Y-28.641 E98.31034
G1 X31.414 Y-29.708 E98.39260
G1 X-13.018 Y-55.355 E101.81996
G1 X-14.014 Y-53.923 E101.93650
G1 X-15.084 Y-52.276 E102.06771
G1 X-16.072 Y-50.643 E102.19522
G1 X-17.009 Y-48.980 E102.32271
G1 X-17.905 Y-47.265 E102.45201
G1 X-18.723 Y-45.570 E102.57771
G1 X-19.499 Y-43.827 E102.70519
G1 X-20.199 Y-42.112 E102.82894
G1 X-20.885 Y-40.272 E102.96014
G1 X-21.493 Y-38.463 E103.08766
G1 X-22.045 Y-36.636 E103.21515
G1 X-22.539 Y-34.792 E103.34264
G1 X-22.975 Y-32.934 E103.47013
G1 X-23.352 Y-31.064 E103.59762
G1 X-23.661 Y-29.237 E103.72137
G1 X-23.930 Y-27.292 E103.85257
G1 X-24.129 Y-25.393 E103.98009
G1 X-24.270 Y-23.490 E104.10758
G1 X-24.350 Y-21.583 E104.23507
G1 X-24.370 Y-19.675 E104.36256
G1 X-24.331 Y-17.767 E104.49005
G1 X-24.232 Y-15.861 E104.61754
G1 X-24.081 Y-14.067 E104.73782
G1 X27.222 Y-14.063 E108.16518
G1 X27.222 Y-15.294 E108.24745
G1 X27.768 Y-15.371 E108.28425
G1 X28.443 Y-15.532 E108.33064
G1 X29.101 Y-15.755 E108.37703
G1 X29.735 Y-16.039 E108.42342
G1 X30.339 Y-16.380 E108.46980
G1 X30.909 Y-16.777 E108.51619
G1 X31.425 Y-17.212 E108.56129
G1 X31.925 Y-17.719 E108.60889
G1 X32.364 Y-18.259 E108.65535
G1 X32.750 Y-18.836 E108.70174
G1 X33.080 Y-19.447 E108.74813
G1 X33.352 Y-20.086 E108.79452
G1 X33.429 Y-20.330 E108.81160
G1 X33.701 Y-20.288 E108.82999
G1 X33.701 Y-19.739 E108.86663
G1 X33.784 Y-19.268 E108.89859
G1 X33.948 Y-18.819 E108.93054
G1 X34.187 Y-18.404 E108.96249
G1 X34.495 Y-18.038 E108.99444
G1 X34.861 Y-17.731 E109.02639
G1 X35.277 Y-17.490 E109.05848
G1 X35.736 Y-17.326 E109.09108
G1 X36.196 Y-17.245 E109.12224
G1 X36.674 Y-17.245 E109.15419
G1 X37.145 Y-17.328 E109.18614
G1 X37.594 Y-17.491 E109.21809
G1 X38.008 Y-17.731 E109.25004
G1 X38.375 Y-18.038 E109.28199
G1 X38.682 Y-18.404 E109.31395
G1 X38.849 Y-18.694 E109.33628
G1 X39.115 Y-18.574 E109.35572
G1 X38.917 Y-17.989 E109.39700
G1 X38.593 Y-17.199 E109.45405
G1 X38.219 Y-16.431 E109.51110
G1 X37.809 Y-15.711 E109.56641
G1 X37.327 Y-14.974 E109.62525
G1 X36.814 Y-14.292 E109.68225
G1 X36.258 Y-13.644 E109.73931
