; generated by Slic3r 1.2.9 on 2016-04-20 at 23:41:22

; external perimeters extrusion width = 0.40mm
; perimeters extrusion width = 0.67mm
; infill extrusion width = 0.67mm
; solid infill extrusion width = 0.67mm
; top infill extrusion width = 0.67mm

M127
M104 S230 T0 ; set temperature
(**** Start.gcode for Replicator 2 ****)
M103 ;disable RPM
M73 P0 ;enable build progress
G21 ;set units to mm
G90 ;set positioning to absolute
(**** begin homing ****)
G162 X Y F2500 ;home XY axes maximum
G161 Z F1100 ;home Z axis minimum
G92 Z-5 ;set Z to -5
G1 Z0.0 ;move Z to "0"
G161 Z F100 ;home Z axis minimum
M132 X Y Z A B ;Recall stored home offsets for XYZAB axis
(**** end homing ****)
G1 X-141 Y-74 Z75 F3300.0 ;move to waiting position
G130 X20 Y20 Z20 A20 B20 ;Lower stepper Vrefs while heating
M6 T0 ;wait for toolhead, and HBP to reach temperature
M70 P5 (We Be Making Things!)
G130 X127 Y127 Z40 A127 B127 ;Set Stepper motor Vref to defaults
M108 R3.0 T0
G0 X-141 Y-74 ;Position Nozzle
G0 Z1 ;Move above plate
G1 Z0.3 ;Position Height
M108 R5.0 ;Set Extruder Speed
M101 ;Start Extruder
G4 P3000 ;Create Anchor
G1 X-137 Y-70 Z0.1 F1000.0 ;Slow wipe
G0 Z0.3 ;and lift
(**** end of Start.gcode ****)
M73 P0
G1 Z0.300 F9000.000
(**** New Layer ****)
G1 E-2.00000 F1800.00000
M103 ; extruder off
G1 X-0.124 Y-39.817 F9000.000
M101 ; extruder on
G1 E0.00000 F1800.00000
G1 X35.945 Y-39.919 E2.40962 F4320.000
M101 ; extruder on
G1 X37.098 Y-39.858 E2.48678 F4320.000
G1 X37.812 Y-39.779 E2.53479
G1 X38.952 Y-39.588 E2.61197
G1 X39.655 Y-39.429 E2.66011
G1 X40.731 Y-39.122 E2.73487
G1 X41.446 Y-38.875 E2.78543
G1 X42.513 Y-38.436 E2.86251
G1 X43.164 Y-38.123 E2.91075
G1 X44.174 Y-37.568 E2.98771
G1 X44.787 Y-37.184 E3.03608
G1 X45.727 Y-36.519 E3.11300
G1 X46.294 Y-36.068 E3.16140
G1 X47.130 Y-35.324 E3.23617
G1 X47.667 Y-34.790 E3.28672
G1 X48.433 Y-33.935 E3.36344
G1 X48.887 Y-33.367 E3.41205
G1 X49.552 Y-32.432 E3.48869
G1 X49.941 Y-31.815 E3.53737
G1 X50.495 Y-30.813 E3.61387
G1 X50.813 Y-30.155 E3.66269
G1 X51.242 Y-29.122 E3.73746
G1 X51.494 Y-28.408 E3.78801
G1 X51.811 Y-27.309 E3.86442
G1 X51.974 Y-26.595 E3.91334
G1 X52.166 Y-25.466 E3.98987
G1 X52.248 Y-24.740 E4.03866
G1 X52.322 Y-23.233 E4.13946
G1 X52.322 Y23.233 E7.24365
G1 X52.248 Y24.737 E7.34425
G1 X52.166 Y25.465 E7.39321
G1 X51.979 Y26.567 E7.46783
G1 X51.812 Y27.303 E7.51829
G1 X51.497 Y28.398 E7.59441
G1 X51.255 Y29.090 E7.64337
G1 X50.819 Y30.143 E7.71952
G1 X50.501 Y30.803 E7.76844
G1 X49.950 Y31.800 E7.84456
G1 X49.560 Y32.421 E7.89352
G1 X48.900 Y33.350 E7.96964
G1 X48.443 Y33.923 E8.01860
G1 X47.684 Y34.772 E8.09471
G1 X47.166 Y35.291 E8.14368
G1 X46.316 Y36.050 E8.21979
G1 X45.743 Y36.507 E8.26875
G1 X44.814 Y37.166 E8.34487
G1 X44.194 Y37.556 E8.39383
G1 X43.196 Y38.107 E8.46995
G1 X42.536 Y38.425 E8.51890
G1 X41.484 Y38.861 E8.59502
G1 X40.792 Y39.103 E8.64398
G1 X39.697 Y39.419 E8.72012
G1 X38.982 Y39.582 E8.76906
G1 X37.859 Y39.773 E8.84518
G1 X37.131 Y39.855 E8.89414
G1 X35.627 Y39.929 E8.99474
G1 X-35.714 Y39.928 E13.76067
G1 X-37.213 Y39.849 E13.86094
G1 X-37.863 Y39.772 E13.90467
G1 X-39.057 Y39.568 E13.98564
G1 X-39.700 Y39.418 E14.02974
G1 X-40.859 Y39.083 E14.11032
G1 X-41.486 Y38.860 E14.15481
G1 X-42.508 Y38.437 E14.22867
G1 X-43.199 Y38.106 E14.27986
G1 X-44.244 Y37.528 E14.35966
G1 X-44.816 Y37.165 E14.40493
G1 X-45.785 Y36.477 E14.48430
G1 X-46.318 Y36.048 E14.52999
G1 X-47.200 Y35.260 E14.60900
G1 X-47.686 Y34.771 E14.65505
G1 X-48.470 Y33.893 E14.73369
G1 X-48.901 Y33.349 E14.78012
G1 X-49.579 Y32.393 E14.85837
G1 X-49.950 Y31.799 E14.90518
G1 X-50.514 Y30.779 E14.98301
G1 X-50.819 Y30.141 E15.03024
G1 X-51.263 Y29.070 E15.10772
G1 X-51.497 Y28.397 E15.15530
G1 X-51.816 Y27.289 E15.23237
G1 X-51.975 Y26.588 E15.28036
G1 X-52.161 Y25.498 E15.35423
G1 X-52.248 Y24.737 E15.40542
G1 X-52.322 Y23.233 E15.50600
G1 X-52.311 Y-23.403 E18.62154
G1 X-52.241 Y-24.593 E18.70121
G1 X-52.151 Y-25.355 E18.75242
G1 X-51.942 Y-26.529 E18.83208
G1 X-51.764 Y-27.274 E18.88330
G1 X-51.419 Y-28.416 E18.96295
G1 X-51.155 Y-29.135 E19.01418
G1 X-50.678 Y-30.229 E19.09384
G1 X-50.331 Y-30.912 E19.14506
G1 X-49.730 Y-31.942 E19.22471
G1 X-49.305 Y-32.580 E19.27595
G1 X-48.588 Y-33.533 E19.35560
G1 X-48.091 Y-34.117 E19.40683
G1 X-47.267 Y-34.979 E19.48648
G1 X-46.705 Y-35.501 E19.53771
G1 X-45.786 Y-36.260 E19.61736
G1 X-45.167 Y-36.712 E19.66859
G1 X-44.165 Y-37.359 E19.74824
G1 X-43.497 Y-37.736 E19.79947
G1 X-42.427 Y-38.260 E19.87912
G1 X-41.719 Y-38.556 E19.93035
G1 X-40.594 Y-38.952 E20.01000
G1 X-39.857 Y-39.163 E20.06123
G1 X-38.694 Y-39.424 E20.14088
G1 X-37.937 Y-39.548 E20.19211
G1 X-36.751 Y-39.670 E20.27177
G1 X-36.099 Y-39.705 E20.31541
G1 X-0.184 Y-39.817 E22.71470
G1 E20.71470 F1800.00000
M103 ; extruder off
G1 X-0.168 Y-34.621 F9000.000
M101 ; extruder on
G1 E22.71470 F1800.00000
G1 X35.651 Y-34.731 E25.10762 F4320.000
M101 ; extruder on
G1 X36.847 Y-34.667 E25.18761 F4320.000
G1 X38.121 Y-34.458 E25.27390
G1 X39.365 Y-34.108 E25.36021
G1 X40.506 Y-33.643 E25.44250
G1 X41.758 Y-32.961 E25.53774
G1 X42.752 Y-32.259 E25.61910
G1 X43.720 Y-31.402 E25.70540
G1 X44.631 Y-30.385 E25.79667
G1 X45.337 Y-29.393 E25.87800
G1 X45.967 Y-28.265 E25.96430
G1 X46.466 Y-27.073 E26.05063
G1 X46.811 Y-25.891 E26.13288
G1 X47.058 Y-24.486 E26.22822
G1 X47.126 Y-23.252 E26.31075
G1 X47.126 Y23.252 E29.41746
G1 X47.058 Y24.483 E29.49984
G1 X46.829 Y25.829 E29.59101
G1 X46.468 Y27.066 E29.67715
G1 X45.971 Y28.256 E29.76330
G1 X45.343 Y29.383 E29.84945
G1 X44.594 Y30.432 E29.93559
G1 X43.731 Y31.391 E30.02174
G1 X42.826 Y32.200 E30.10287
G1 X41.713 Y32.990 E30.19404
G1 X40.650 Y33.577 E30.27517
G1 X39.460 Y34.074 E30.36131
G1 X38.149 Y34.452 E30.45248
G1 X36.877 Y34.664 E30.53862
G1 X35.646 Y34.732 E30.62101
G1 X-35.672 Y34.732 E35.38539
G1 X-36.959 Y34.655 E35.47155
G1 X-38.163 Y34.449 E35.55314
G1 X-39.327 Y34.117 E35.63402
G1 X-40.593 Y33.605 E35.72526
G1 X-41.722 Y32.984 E35.81133
G1 X-42.775 Y32.241 E35.89739
G1 X-43.737 Y31.385 E35.98347
G1 X-44.598 Y30.426 E36.06954
G1 X-45.385 Y29.317 E36.16040
G1 X-46.004 Y28.186 E36.24651
G1 X-46.494 Y26.994 E36.33262
G1 X-46.846 Y25.754 E36.41873
G1 X-47.050 Y24.556 E36.49988
G1 X-47.122 Y23.341 E36.58119
G1 X-47.125 Y-23.078 E39.68229
G1 X-47.042 Y-24.406 E39.77112
G1 X-46.819 Y-25.657 E39.85602
G1 X-46.433 Y-26.950 E39.94616
G1 X-45.899 Y-28.189 E40.03631
G1 X-45.222 Y-29.356 E40.12645
G1 X-44.414 Y-30.437 E40.21660
G1 X-43.485 Y-31.415 E40.30674
G1 X-42.447 Y-32.278 E40.39688
G1 X-41.378 Y-32.972 E40.48205
G1 X-40.033 Y-33.641 E40.58238
G1 X-38.759 Y-34.084 E40.67253
G1 X-37.441 Y-34.375 E40.76267
G1 X-36.116 Y-34.508 E40.85165
G1 X-0.228 Y-34.620 E43.24917
G1 X-0.226 Y-34.085 F9000.000
M101 ; extruder on
G1 X35.608 Y-34.197 E45.64312 F4320.000
M101 ; extruder on
G1 X36.802 Y-34.133 E45.72300 F4320.000
G1 X37.973 Y-33.940 E45.80227
G1 X39.244 Y-33.582 E45.89051
G1 X40.343 Y-33.131 E45.96984
G1 X41.423 Y-32.539 E46.05213
G1 X42.430 Y-31.830 E46.13442
G1 X43.352 Y-31.013 E46.21670
G1 X44.204 Y-30.062 E46.30197
G1 X44.892 Y-29.095 E46.38127
G1 X45.491 Y-28.019 E46.46356
G1 X45.965 Y-26.882 E46.54586
G1 X46.297 Y-25.743 E46.62512
G1 X46.524 Y-24.440 E46.71342
G1 X46.590 Y-23.244 E46.79345
G1 X46.590 Y23.244 E49.89915
G1 X46.524 Y24.438 E49.97903
G1 X46.310 Y25.695 E50.06417
G1 X45.968 Y26.875 E50.14631
G1 X45.495 Y28.010 E50.22844
G1 X44.898 Y29.085 E50.31057
G1 X44.184 Y30.086 E50.39271
G1 X43.363 Y31.001 E50.47484
G1 X42.480 Y31.791 E50.55397
G1 X41.441 Y32.528 E50.63911
G1 X40.404 Y33.101 E50.71824
G1 X39.269 Y33.574 E50.80037
G1 X38.044 Y33.927 E50.88551
G1 X36.832 Y34.130 E50.96765
G1 X35.638 Y34.197 E51.04752
G1 X-35.660 Y34.196 E55.81060
G1 X-36.883 Y34.124 E55.89244
G1 X-38.054 Y33.925 E55.97183
G1 X-39.178 Y33.603 E56.04991
G1 X-40.371 Y33.117 E56.13598
G1 X-41.447 Y32.524 E56.21806
G1 X-42.450 Y31.815 E56.30014
G1 X-43.367 Y30.997 E56.38222
G1 X-44.188 Y30.082 E56.46430
G1 X-44.923 Y29.045 E56.54926
G1 X-45.515 Y27.968 E56.63136
G1 X-45.983 Y26.831 E56.71346
G1 X-46.321 Y25.650 E56.79557
G1 X-46.519 Y24.482 E56.87470
G1 X-46.590 Y23.267 E56.95603
G1 X-46.590 Y-23.055 E60.05055
G1 X-46.512 Y-24.327 E60.13571
G1 X-46.295 Y-25.547 E60.21851
G1 X-45.925 Y-26.780 E60.30445
G1 X-45.414 Y-27.960 E60.39040
G1 X-44.768 Y-29.073 E60.47634
G1 X-43.996 Y-30.102 E60.56229
G1 X-43.108 Y-31.033 E60.64824
G1 X-42.118 Y-31.855 E60.73418
G1 X-41.088 Y-32.522 E60.81620
G1 X-39.841 Y-33.141 E60.90919
G1 X-38.626 Y-33.565 E60.99514
G1 X-37.370 Y-33.843 E61.08108
G1 X-36.101 Y-33.973 E61.16633
G1 X-0.286 Y-34.085 E63.55894
G1 X-0.285 Y-33.549 F9000.000
M101 ; extruder on
G1 X35.609 Y-33.661 E65.95682 F4320.000
M101 ; extruder on
G1 X36.758 Y-33.599 E66.03370 F4320.000
G1 X37.884 Y-33.412 E66.10995
G1 X39.054 Y-33.082 E66.19121
G1 X40.124 Y-32.641 E66.26850
G1 X41.151 Y-32.077 E66.34677
G1 X42.108 Y-31.402 E66.42504
G1 X42.961 Y-30.643 E66.50130
G1 X43.776 Y-29.740 E66.58257
G1 X44.446 Y-28.797 E66.65984
G1 X45.015 Y-27.773 E66.73811
G1 X45.465 Y-26.691 E66.81639
G1 X45.782 Y-25.594 E66.89265
G1 X45.990 Y-24.395 E66.97392
G1 X46.055 Y-23.237 E67.05144
G1 X46.055 Y23.237 E70.15614
G1 X45.990 Y24.393 E70.23351
G1 X45.792 Y25.561 E70.31263
G1 X45.467 Y26.684 E70.39075
G1 X45.019 Y27.764 E70.46888
G1 X44.452 Y28.787 E70.54700
G1 X43.775 Y29.741 E70.62512
G1 X42.995 Y30.612 E70.70324
G1 X42.134 Y31.381 E70.78036
G1 X41.168 Y32.067 E70.85948
G1 X40.158 Y32.625 E70.93660
G1 X39.078 Y33.073 E71.01472
G1 X37.940 Y33.401 E71.09384
G1 X36.787 Y33.596 E71.17197
G1 X35.631 Y33.661 E71.24933
G1 X-35.648 Y33.661 E76.01111
G1 X-36.806 Y33.594 E76.08862
G1 X-37.945 Y33.400 E76.16582
G1 X-39.028 Y33.089 E76.24109
G1 X-40.149 Y32.630 E76.32199
G1 X-41.172 Y32.064 E76.40008
G1 X-42.125 Y31.388 E76.47817
G1 X-42.997 Y30.610 E76.55626
G1 X-43.777 Y29.738 E76.63436
G1 X-44.461 Y28.773 E76.71341
G1 X-45.020 Y27.763 E76.79054
G1 X-45.472 Y26.669 E76.86960
G1 X-45.795 Y25.546 E76.94770
G1 X-45.988 Y24.408 E77.02481
G1 X-46.054 Y23.244 E77.10265
G1 X-46.054 Y-23.031 E80.19411
G1 X-45.982 Y-24.249 E80.27559
G1 X-45.770 Y-25.438 E80.35629
G1 X-45.417 Y-26.610 E80.43804
G1 X-44.929 Y-27.732 E80.51978
G1 X-44.313 Y-28.789 E80.60153
G1 X-43.567 Y-29.779 E80.68432
G1 X-42.721 Y-30.662 E80.76607
G1 X-41.777 Y-31.441 E80.84782
G1 X-40.748 Y-32.103 E80.92956
G1 X-39.648 Y-32.641 E81.01131
G1 X-38.494 Y-33.045 E81.09306
G1 X-37.299 Y-33.312 E81.17480
G1 X-36.086 Y-33.437 E81.25632
G1 X-0.345 Y-33.549 E83.64402
G1 E81.64402 F1800.00000
M103 ; extruder off
G1 X-0.017 Y28.007 F9000.000
M101 ; extruder on
G1 E83.64402 F1800.00000
G1 X0.577 Y28.079 E83.68400 F1620.000
G1 X1.113 Y28.301 E83.72272
G1 X1.571 Y28.652 E83.76133
G1 X1.923 Y29.111 E83.79995
G1 X2.144 Y29.645 E83.83856
G1 X2.220 Y30.218 E83.87717
G1 X2.144 Y30.791 E83.91579
G1 X1.923 Y31.325 E83.95440
G1 X1.571 Y31.784 E83.99302
G1 X1.113 Y32.136 E84.03163
G1 X0.579 Y32.357 E84.07024
G1 X0.006 Y32.432 E84.10886
G1 X-0.567 Y32.357 E84.14747
G1 X-1.101 Y32.136 E84.18609
G1 X-1.560 Y31.784 E84.22470
G1 X-1.912 Y31.325 E84.26331
G1 X-2.133 Y30.791 E84.30193
G1 X-2.208 Y30.218 E84.34054
G1 X-2.133 Y29.645 E84.37916
G1 X-1.912 Y29.111 E84.41777
G1 X-1.560 Y28.652 E84.45638
G1 X-1.101 Y28.301 E84.49500
G1 X-0.567 Y28.079 E84.53361
M101 ; extruder on
G1 X-0.076 Y28.015 E84.56670 F1620.000
G1 X0.196 Y27.668 F9000.000
G1 X-0.067 Y27.346 F9000.000
M101 ; extruder on
G1 X-16.024 Y25.495 E85.63987 F1080.000
G1 X-16.865 Y25.327 E85.69717
G1 X-17.680 Y25.022 E85.75528
G1 X-18.435 Y24.590 E85.81339
G1 X-19.110 Y24.042 E85.87151
G1 X-19.688 Y23.392 E85.92962
G1 X-20.154 Y22.657 E85.98773
G1 X-20.495 Y21.857 E86.04584
G1 X-20.703 Y21.013 E86.10396
G1 X-20.772 Y20.158 E86.16125
G1 X-20.724 Y-20.023 E88.84556
G1 X-20.654 Y-20.875 E88.90266
G1 X-20.445 Y-21.717 E88.96058
G1 X-20.104 Y-22.514 E89.01849
G1 X-19.639 Y-23.245 E89.07641
G1 X-19.063 Y-23.893 E89.13432
G1 X-18.390 Y-24.440 E89.19224
G1 X-17.638 Y-24.872 E89.25016
G1 X-16.827 Y-25.177 E89.30807
G1 X-15.989 Y-25.346 E89.36518
G1 X-15.487 Y-25.405 E89.39895
M101 ; extruder on
G1 X-0.067 Y-27.234 E90.43633 F1080.000
G1 X15.856 Y-25.346 E91.50748
G1 X16.695 Y-25.177 E91.56465
G1 X17.536 Y-24.854 E91.62484
G1 X18.257 Y-24.440 E91.68039
G1 X18.929 Y-23.893 E91.73830
G1 X19.506 Y-23.245 E91.79622
G1 X19.970 Y-22.514 E91.85413
G1 X20.311 Y-21.717 E91.91205
G1 X20.520 Y-20.875 E91.96996
G1 X20.590 Y-20.023 E92.02707
G1 X20.638 Y20.158 E94.71137
G1 X20.570 Y21.013 E94.76867
G1 X20.362 Y21.857 E94.82678
G1 X20.020 Y22.658 E94.88496
G1 X19.531 Y23.418 E94.94536
G1 X18.976 Y24.042 E95.00109
G1 X18.300 Y24.591 E95.05927
G1 X17.513 Y25.035 E95.11967
G1 X16.732 Y25.327 E95.17540
G1 X15.890 Y25.495 E95.23270
G1 X-0.007 Y27.339 E96.30186
G1 X-0.280 Y27.684 F9000.000
G1 E94.30186 F1800.00000
M103 ; extruder off
G1 X-12.191 Y26.479 F9000.000
M101 ; extruder on
G1 E96.30186 F1800.00000
G1 X-1.259 Y27.747 E97.03707 F2160.000
G1 X-1.942 Y28.270 E97.09454
G1 X-2.380 Y28.841 E97.14257
G1 X-2.655 Y29.505 E97.19061
G1 X-2.749 Y30.218 E97.23864
G1 X-2.655 Y30.931 E97.28668
G1 X-2.380 Y31.595 E97.33471
G1 X-1.942 Y32.166 E97.38275
G1 X-1.716 Y32.339 E97.40180
G1 X-1.790 Y32.557 E97.41719
G1 X-35.618 Y32.557 E99.67710
G1 X-36.674 Y32.497 E99.74773
G1 X-37.704 Y32.322 E99.81758
G1 X-38.709 Y32.032 E99.88741
G1 X-39.674 Y31.632 E99.95723
G1 X-40.589 Y31.126 E100.02706
G1 X-41.441 Y30.521 E100.09689
G1 X-42.220 Y29.824 E100.16672
G1 X-42.917 Y29.045 E100.23655
G1 X-43.522 Y28.192 E100.30638
G1 X-44.012 Y27.305 E100.37406
G1 X-44.427 Y26.310 E100.44611
G1 X-44.716 Y25.307 E100.51585
G1 X-44.886 Y24.308 E100.58354
G1 X-44.951 Y23.208 E100.65715
G1 X-44.951 Y-22.995 E103.74378
G1 X-44.886 Y-24.112 E103.81851
G1 X-44.694 Y-25.189 E103.89159
G1 X-44.377 Y-26.236 E103.96467
G1 X-43.940 Y-27.239 E104.03776
G1 X-43.389 Y-28.184 E104.11084
G1 X-42.730 Y-29.057 E104.18393
G1 X-41.974 Y-29.848 E104.25701
G1 X-41.131 Y-30.544 E104.33010
G1 X-40.211 Y-31.137 E104.40318
G1 X-39.229 Y-31.618 E104.47627
G1 X-38.197 Y-31.981 E104.54935
G1 X-37.129 Y-32.221 E104.62244
G1 X-36.034 Y-32.334 E104.69601
G1 X-1.870 Y-32.441 E106.97833
G1 X-1.796 Y-32.222 E106.99374
M101 ; extruder on
G1 X-2.018 Y-32.052 E107.01246 F2160.000
G1 X-2.462 Y-31.460 E107.06185
G1 X-2.727 Y-30.820 E107.10818
G1 X-2.821 Y-30.107 E107.15622
G1 X-2.727 Y-29.394 E107.20426
G1 X-2.452 Y-28.730 E107.25229
G1 X-2.014 Y-28.159 E107.30033
G1 X-1.318 Y-27.625 E107.35896
G1 X-16.074 Y-25.875 E108.35161
G1 X-16.975 Y-25.694 E108.41305
G1 X-17.868 Y-25.358 E108.47675
G1 X-18.695 Y-24.883 E108.54045
G1 X-19.434 Y-24.282 E108.60415
G1 X-20.068 Y-23.569 E108.66785
G1 X-20.579 Y-22.764 E108.73155
G1 X-20.954 Y-21.888 E108.79525
G1 X-21.184 Y-20.962 E108.85895
G1 X-21.259 Y-20.045 E108.92039
G1 X-21.307 Y20.179 E111.60758
G1 X-21.234 Y21.099 E111.66923
G1 X-21.005 Y22.028 E111.73315
G1 X-20.630 Y22.907 E111.79706
G1 X-20.117 Y23.715 E111.86098
G1 X-19.481 Y24.430 E111.92489
G1 X-18.738 Y25.033 E111.98881
G1 X-17.908 Y25.509 E112.05273
G1 X-17.012 Y25.844 E112.11664
G1 X-16.107 Y26.024 E112.17829
G1 X-12.251 Y26.472 E112.43762
G1 E110.43762 F1800.00000
M103 ; extruder off
G1 X-0.640 Y-27.968 F9000.000
M101 ; extruder on
G1 E112.43762 F1800.00000
G1 X-1.174 Y-28.189 E112.47624 F1620.000
G1 X-1.632 Y-28.541 E112.51485
G1 X-1.984 Y-29.000 E112.55347
G1 X-2.205 Y-29.534 E112.59208
G1 X-2.281 Y-30.107 E112.63069
G1 X-2.205 Y-30.680 E112.66931
G1 X-1.993 Y-31.193 E112.70641
G1 X-1.634 Y-31.671 E112.74638
G1 X-1.174 Y-32.024 E112.78510
G1 X-0.640 Y-32.245 E112.82372
M101 ; extruder on
G1 X-0.089 Y-32.318 E112.86082 F1620.000
G1 X0.505 Y-32.246 E112.90079
G1 X1.040 Y-32.024 E112.93951
G1 X1.499 Y-31.672 E112.97813
G1 X1.851 Y-31.214 E113.01674
G1 X2.072 Y-30.680 E113.05536
G1 X2.147 Y-30.107 E113.09397
G1 X2.072 Y-29.534 E113.13258
G1 X1.851 Y-29.000 E113.17120
G1 X1.499 Y-28.541 E113.20981
G1 X1.040 Y-28.189 E113.24843
G1 X0.506 Y-27.968 E113.28704
G1 X-0.067 Y-27.893 E113.32565
G1 X-0.580 Y-27.960 E113.36026
G1 X-0.935 Y-27.698 F9000.000
G1 E111.36026 F1800.00000
